; G-Code generated by Simplify3D(R) Version 3.1.1
; Mar 15, 2017 at 3:41:23 AM
; Settings Summary
;   processName,Process1
;   applyToModels,MeshBody20,MeshBody21
;   profileName,LulzBot TAZ 6 Dual (modified)
;   profileVersion,2017-02-17 02:12:56
;   baseProfile,
;   printMaterial,PVA
;   printQuality,Medium
;   printExtruders,Both Extruders
;   extruderName,Back Extruder,Front Extruder
;   extruderToolheadNumber,0,1
;   extruderDiameter,0.4,0.5
;   extruderAutoWidth,1,1
;   extruderWidth,0.48,0.6
;   extrusionMultiplier,2.94,1.1
;   extruderUseRetract,1,1
;   extruderRetractionDistance,1.5,3.1
;   extruderExtraRestartDistance,0,0
;   extruderRetractionZLift,0.2,0.25
;   extruderRetractionSpeed,1800,3200
;   extruderUseCoasting,0,1
;   extruderCoastingDistance,0.2,2.2
;   extruderUseWipe,0,0
;   extruderWipeDistance,5,5
;   primaryExtruder,1
;   layerHeight,0.1
;   topSolidLayers,3
;   bottomSolidLayers,3
;   perimeterOutlines,1
;   printPerimetersInsideOut,1
;   startPointOption,1
;   startPointOriginX,0
;   startPointOriginY,0
;   startPointOriginZ,0
;   sequentialIslands,0
;   spiralVaseMode,0
;   firstLayerHeightPercentage,90
;   firstLayerWidthPercentage,100
;   firstLayerUnderspeed,0.5
;   useRaft,0
;   raftExtruder,0
;   raftLayers,3
;   raftOffset,3
;   raftSeparationDistance,0.14
;   raftInfill,85
;   disableRaftBaseLayers,0
;   useSkirt,1
;   skirtExtruder,1
;   skirtLayers,3
;   skirtOutlines,3
;   skirtOffset,10
;   usePrimePillar,0
;   primePillarExtruder,999
;   primePillarWidth,12
;   primePillarLocation,7
;   primePillarSpeedMultiplier,1
;   useOozeShield,0
;   oozeShieldExtruder,999
;   oozeShieldOffset,2
;   oozeShieldOutlines,1
;   oozeShieldSidewallShape,1
;   oozeShieldSidewallAngle,30
;   oozeShieldSpeedMultiplier,1
;   infillExtruder,1
;   internalInfillPattern,Rectilinear
;   externalInfillPattern,Rectilinear
;   infillPercentage,20
;   outlineOverlapPercentage,15
;   infillExtrusionWidthPercentage,200
;   minInfillLength,5
;   infillLayerInterval,1
;   infillAngles,45,-45
;   overlapInfillAngles,0
;   generateSupport,0
;   supportExtruder,0
;   supportInfillPercentage,30
;   supportExtraInflation,0
;   denseSupportLayers,1
;   denseSupportInfillPercentage,70
;   supportLayerInterval,1
;   supportHorizontalPartOffset,0.3
;   supportUpperSeparationLayers,1
;   supportLowerSeparationLayers,1
;   supportType,0
;   supportGridSpacing,4
;   maxOverhangAngle,45
;   supportAngles,0
;   temperatureName,Back Extruder,Front Extruder,Heated Bed
;   temperatureNumber,0,1,0
;   temperatureSetpointCount,1,1,1
;   temperatureSetpointLayers,1,1,1
;   temperatureSetpointTemperatures,195,225,60
;   temperatureStabilizeAtStartup,1,1,1
;   temperatureHeatedBed,0,0,1
;   temperatureRelayBetweenLayers,0,0,0
;   temperatureRelayBetweenLoops,0,0,0
;   fanLayers,1,2
;   fanSpeeds,0,100
;   blipFanToFullPower,1
;   adjustSpeedForCooling,1
;   minSpeedLayerTime,15
;   minCoolingSpeedSlowdown,20
;   increaseFanForCooling,0
;   minFanLayerTime,45
;   maxCoolingFanSpeed,100
;   increaseFanForBridging,0
;   bridgingFanSpeed,100
;   use5D,1
;   relativeEdistances,0
;   allowEaxisZeroing,1
;   independentExtruderAxes,0
;   includeM10123,0
;   stickySupport,0
;   applyToolheadOffsets,1
;   gcodeXoffset,0
;   gcodeYoffset,0
;   gcodeZoffset,0
;   overrideMachineDefinition,1
;   machineTypeOverride,0
;   strokeXoverride,280
;   strokeYoverride,280
;   strokeZoverride,250
;   originOffsetXoverride,0
;   originOffsetYoverride,0
;   originOffsetZoverride,0
;   homeXdirOverride,-1
;   homeYdirOverride,-1
;   homeZdirOverride,-1
;   flipXoverride,1
;   flipYoverride,-1
;   flipZoverride,1
;   toolheadOffsets,0,0|0,50|0,0|0,0|0,0|0,0
;   overrideFirmwareConfiguration,1
;   firmwareTypeOverride,RepRap (Marlin/Repetier/Sprinter)
;   GPXconfigOverride,r2
;   baudRateOverride,250000
;   overridePrinterModels,1
;   printerModelsOverride,LulzBot_TAZ6.stl
;   startingGcode,G26 ; clear probe fail condition,M140 S[bed0_temperature] ; start heating bed,M104 S170 T0 ; start heating back extruder,M104 S170 T1 ; start heating front extruder,G28 XY ; home X and Y,T0 ; select this extruder first,G1 X-19 Y258 F1000 ; move to safe homing position,M109 S170 T0 ; soften filament for Z homing,M109 S170 T1 ; soften filament for Z homing,G28 Z ; home Z,G92 E0 ; zero extruder,G1 E-12 F100 ; retract 12mm filament,T1 ; switch extruders,G92 E0 ; zero extruder,G1 E-12 F100 ; retract 12mm filament,T0 ; switch extruders,G1 X-17 Y100 F3000 ; move above wiper pad,G1 Z1 ; push nozzle into wiper,G1 X-19 Y95 F1000 ; slow wipe,G1 X-17 Y90 F1000 ; slow wipe,G1 X-19 Y85 F1000 ; slow wipe,G1 X-17 Y90 F1000 ; slow wipe,G1 X-19 Y80 F1000 ; slow wipe,G1 X-17 Y95 F1000 ; slow wipe,G1 X-19 Y75 F2000 ; fast wipe,G1 X-17 Y85 F2000 ; fast wipe,G1 X-19 Y80 F2000 ; fast wipe,G1 X-17 Y70 F2000 ; fast wipe,G1 X-19 Y75 F2000 ; fast wipe,G1 X-17 Y95 F1000 ; slow wipe,G1 X-19 Y90 F1000 ; slow wipe,G1 X-17 Y85 F1000 ; slow wipe,G1 X-19 Y90 F1000 ; slow wipe,G1 X-17 Y80 F1000 ; slow wipe,G1 X-19 Y95 F1000 ; slow wipe,G1 X-17 Y75 F2000 ; fast wipe,G1 X-19 Y85 F2000 ; fast wipe,G1 X-17 Y80 F2000 ; fast wipe,G1 X-19 Y90 F2000 ; fast wipe,G1 X-17 Y85 F2000 ; fast wipe,G1 Z10 ; raise extruder,G1 X-9 Y-9 ; move above first probe point,M204 S100 ; set accel for probing,G29 ; probe sequence (for auto-leveling),M204 S500 ; set accel back to normal,G1 X0 Y0 Z15 F5000 ; get out of the way,M400 ; clear buffer,M117 Heating...,M104 S[extruder0_temperature] T0 ; start heating back extruder,M104 S[extruder1_temperature] T1 ; start heating front extruder,M190 S[bed0_temperature] ; stabilize bed,M109 S[extruder0_temperature] T0 ; stabilize back extruder,M109 S[extruder1_temperature] T1 ; stabilize front extruder,T1 ; switch to front extruder,G1 E0 F100 ; extrude filament back into nozzle,T0 ; switch to back extruder,G92 E-12 ; adjust E value,G1 Z2 E0 F100 ; extrude filament back into nozzle,M117 TAZ Printing...,
;   layerChangeGcode,
;   retractionGcode,
;   toolChangeGcode,
;   endingGcode,M400 ; wait for moves to finish,M104 S0 T0 ; turn off back extruder,M104 S0 T1 ; turn off front extruder,M107 ; turn off fan,G1 Y0 F3000 ; move to cooling position,M117 Cooling please wait,M190 S50 ; cool down bed,G1 Y280 F3000 ; present finished print,M140 S0 ; turn off bed,M84 ; disable motors,M117 QQ Print Finished!
;   exportFileFormat,gcode
;   celebration,0
;   celebrationSong,Random Song
;   postProcessing,
;   defaultSpeed,3000
;   outlineUnderspeed,0.5
;   solidInfillUnderspeed,0.8
;   supportUnderspeed,0.8
;   rapidXYspeed,4800
;   rapidZspeed,1000
;   minBridgingArea,10
;   bridgingExtraInflation,0
;   bridgingExtrusionMultiplier,1
;   bridgingSpeedMultiplier,1
;   filamentDiameter,2.89
;   filamentPricePerKg,46
;   filamentDensity,1.25
;   useMinPrintHeight,0
;   minPrintHeight,0
;   useMaxPrintHeight,0
;   maxPrintHeight,0
;   useDiaphragm,0
;   diaphragmLayerInterval,20
;   robustSlicing,0
;   mergeAllIntoSolid,0
;   onlyRetractWhenCrossingOutline,0
;   retractBetweenLayers,1
;   useRetractionMinTravel,0
;   retractionMinTravel,3
;   retractWhileWiping,0
;   onlyWipeOutlines,1
;   avoidCrossingOutline,0
;   maxMovementDetourFactor,3
;   toolChangeRetractionDistance,12
;   toolChangeExtraRestartDistance,-0.5
;   toolChangeRetractionSpeed,600
;   allowThinWallGapFill,0
;   thinWallAllowedOverlapPercentage,1
;   horizontalSizeCompensation,0
G90
M82
M106 S0
G26 ; clear probe fail condition
M140 S60 ; start heating bed
M104 S170 T0 ; start heating back extruder
M104 S170 T1 ; start heating front extruder
G28 XY ; home X and Y
T0 ; select this extruder first
G1 X-19 Y258 F1000 ; move to safe homing position
M109 S170 T0 ; soften filament for Z homing
M109 S170 T1 ; soften filament for Z homing
G28 Z ; home Z
G92 E0 ; zero extruder
G1 E-12 F100 ; retract 12mm filament
T1 ; switch extruders
G92 E0 ; zero extruder
G1 E-12 F100 ; retract 12mm filament
T0 ; switch extruders
G1 X-17 Y100 F3000 ; move above wiper pad
G1 Z1 ; push nozzle into wiper
G1 X-19 Y95 F1000 ; slow wipe
G1 X-17 Y90 F1000 ; slow wipe
G1 X-19 Y85 F1000 ; slow wipe
G1 X-17 Y90 F1000 ; slow wipe
G1 X-19 Y80 F1000 ; slow wipe
G1 X-17 Y95 F1000 ; slow wipe
G1 X-19 Y75 F2000 ; fast wipe
G1 X-17 Y85 F2000 ; fast wipe
G1 X-19 Y80 F2000 ; fast wipe
G1 X-17 Y70 F2000 ; fast wipe
G1 X-19 Y75 F2000 ; fast wipe
G1 X-17 Y95 F1000 ; slow wipe
G1 X-19 Y90 F1000 ; slow wipe
G1 X-17 Y85 F1000 ; slow wipe
G1 X-19 Y90 F1000 ; slow wipe
G1 X-17 Y80 F1000 ; slow wipe
G1 X-19 Y95 F1000 ; slow wipe
G1 X-17 Y75 F2000 ; fast wipe
G1 X-19 Y85 F2000 ; fast wipe
G1 X-17 Y80 F2000 ; fast wipe
G1 X-19 Y90 F2000 ; fast wipe
G1 X-17 Y85 F2000 ; fast wipe
G1 Z10 ; raise extruder
G1 X-9 Y-9 ; move above first probe point
M204 S100 ; set accel for probing
G29 ; probe sequence (for auto-leveling)
M204 S500 ; set accel back to normal
G1 X0 Y0 Z15 F5000 ; get out of the way
M400 ; clear buffer
M117 Heating...
M104 S195 T0 ; start heating back extruder
M104 S225 T1 ; start heating front extruder
M190 S60 ; stabilize bed
M109 S195 T0 ; stabilize back extruder
M109 S225 T1 ; stabilize front extruder
T1 ; switch to front extruder
G1 E0 F100 ; extrude filament back into nozzle
T0 ; switch to back extruder
G92 E-12 ; adjust E value
G1 Z2 E0 F100 ; extrude filament back into nozzle
M117 TAZ Printing...
G92 E0
G1 X0.000 Y50.000 Z0.000 E-3.1000 F3200
G1 X0.000 Y50.000 Z0.340 F1000
; layer 1, Z = 0.09
T1
; tool H0.100 W0.600
; skirt
G1 X120.806 Y172.783 Z0.340 F4800
G1 X120.806 Y172.783 Z0.090 F1000
G1 X120.806 Y172.783 Z0.090 E0.0000 F960
G92 E0
G1 X121.357 Y172.555 Z0.090 E0.0060 F600
G1 X156.758 Y172.543 Z0.090 E0.3622 F600
G1 X157.947 Y172.447 Z0.090 E0.3742 F600
G1 X158.227 Y172.543 Z0.090 E0.3772 F600
G1 X158.538 Y172.543 Z0.090 E0.3803 F600
G1 X159.089 Y172.771 Z0.090 E0.3863 F600
G1 X164.038 Y177.718 Z0.090 E0.4567 F600
G1 X165.448 Y179.018 Z0.090 E0.4760 F600
G1 X165.700 Y179.593 Z0.090 E0.4823 F600
G1 X165.700 Y191.231 Z0.090 E0.5994 F600
G1 X165.600 Y191.474 Z0.090 E0.6020 F600
G1 X165.600 Y205.805 Z0.090 E0.7462 F600
G1 X165.700 Y206.029 Z0.090 E0.7487 F600
G1 X165.700 Y217.635 Z0.090 E0.8655 F600
G1 X165.474 Y218.184 Z0.090 E0.8715 F600
G1 X165.430 Y218.229 Z0.090 E0.8721 F600
G1 X165.372 Y218.370 Z0.090 E0.8736 F600
G1 X159.091 Y224.649 Z0.090 E0.9630 F600
G1 X158.540 Y224.878 Z0.090 E0.9690 F600
G1 X121.359 Y224.875 Z0.090 E1.3431 F600
G1 X120.808 Y224.647 Z0.090 E1.3491 F600
G1 X114.528 Y218.367 Z0.090 E1.4384 F600
G1 X114.300 Y217.816 Z0.090 E1.4444 F600
G1 X114.300 Y179.614 Z0.090 E1.8288 F600
G1 X114.528 Y179.063 Z0.090 E1.8348 F600
G1 X119.250 Y174.339 Z0.090 E1.9020 F600
G1 X120.806 Y172.783 Z0.090 F600
G92 E0
G1 X120.806 Y172.783 Z0.090 E-3.1000 F3200
G1 X120.806 Y172.783 Z0.340 F1000
G1 X121.146 Y173.292 Z0.340 F4800
G1 X121.146 Y173.292 Z0.090 F1000
G1 X121.146 Y173.292 Z0.090 E0.0000 F3200
G92 E0
G1 X121.476 Y173.155 Z0.090 E0.0036 F600
G1 X156.782 Y173.143 Z0.090 E0.3588 F600
G1 X157.870 Y173.055 Z0.090 E0.3698 F600
G1 X158.127 Y173.143 Z0.090 E0.3725 F600
G1 X158.419 Y173.143 Z0.090 E0.3755 F600
G1 X158.750 Y173.280 Z0.090 E0.3791 F600
G1 X163.622 Y178.151 Z0.090 E0.4484 F600
G1 X164.949 Y179.374 Z0.090 E0.4666 F600
G1 X165.100 Y179.719 Z0.090 E0.4703 F600
G1 X165.100 Y191.112 Z0.090 E0.5850 F600
G1 X165.000 Y191.355 Z0.090 E0.5876 F600
G1 X165.000 Y205.933 Z0.090 E0.7343 F600
G1 X165.100 Y206.157 Z0.090 E0.7368 F600
G1 X165.100 Y217.517 Z0.090 E0.8511 F600
G1 X164.964 Y217.846 Z0.090 E0.8546 F600
G1 X164.921 Y217.890 Z0.090 E0.8553 F600
G1 X164.863 Y218.030 Z0.090 E0.8568 F600
G1 X158.751 Y224.141 Z0.090 E0.9437 F600
G1 X158.421 Y224.278 Z0.090 E0.9473 F600
G1 X121.478 Y224.275 Z0.090 E1.3190 F600
G1 X121.147 Y224.138 Z0.090 E1.3226 F600
G1 X115.037 Y218.027 Z0.090 E1.4096 F600
G1 X114.900 Y217.696 Z0.090 E1.4132 F600
G1 X114.900 Y179.733 Z0.090 E1.7952 F600
G1 X115.037 Y179.403 Z0.090 E1.7988 F600
G1 X119.590 Y174.848 Z0.090 E1.8636 F600
G1 X121.146 Y173.292 Z0.090 F600
G92 E0
G1 X121.146 Y173.292 Z0.090 E-3.1000 F3200
G1 X121.146 Y173.292 Z0.340 F1000
G1 X121.486 Y173.801 Z0.340 F4800
G1 X121.486 Y173.801 Z0.090 F1000
G1 X121.486 Y173.801 Z0.090 E0.0000 F3200
G92 E0
G1 X121.596 Y173.755 Z0.090 E0.0012 F600
G1 X156.807 Y173.743 Z0.090 E0.3555 F600
G1 X157.794 Y173.663 Z0.090 E0.3654 F600
G1 X157.913 Y173.704 Z0.090 E0.3667 F600
G1 X157.955 Y173.743 Z0.090 E0.3673 F600
G1 X158.299 Y173.743 Z0.090 E0.3707 F600
G1 X158.410 Y173.789 Z0.090 E0.3719 F600
G1 X163.207 Y178.584 Z0.090 E0.4402 F600
G1 X164.450 Y179.730 Z0.090 E0.4572 F600
G1 X164.500 Y179.845 Z0.090 E0.4585 F600
G1 X164.500 Y190.993 Z0.090 E0.5706 F600
G1 X164.455 Y191.103 Z0.090 E0.5718 F600
G1 X164.400 Y191.158 Z0.090 E0.5726 F600
G1 X164.400 Y206.125 Z0.090 E0.7232 F600
G1 X164.448 Y206.168 Z0.090 E0.7238 F600
G1 X164.500 Y206.284 Z0.090 E0.7251 F600
G1 X164.500 Y217.398 Z0.090 E0.8369 F600
G1 X164.455 Y217.508 Z0.090 E0.8381 F600
G1 X164.400 Y217.563 Z0.090 E0.8389 F600
G1 X164.400 Y217.579 Z0.090 E0.8391 F600
G1 X164.354 Y217.690 Z0.090 E0.8403 F600
G1 X158.412 Y223.632 Z0.090 E0.9248 F600
G1 X158.301 Y223.678 Z0.090 E0.9260 F600
G1 X121.598 Y223.675 Z0.090 E1.2953 F600
G1 X121.487 Y223.629 Z0.090 E1.2965 F600
G1 X115.546 Y217.687 Z0.090 E1.3811 F600
G1 X115.500 Y217.577 Z0.090 E1.3823 F600
G1 X115.500 Y179.853 Z0.090 E1.7618 F600
G1 X115.546 Y179.742 Z0.090 E1.7630 F600
G1 X119.930 Y175.356 Z0.090 E1.8254 F600
G1 X121.486 Y173.801 Z0.090 F600
G92 E0
G1 X121.486 Y173.801 Z0.090 E-3.1000 F3200
G1 X121.486 Y173.801 Z0.440 F1000
; layer 2, Z = 0.19
M106 S255
; skirt
G1 X120.806 Y172.783 Z0.440 F4800
G1 X120.806 Y172.783 Z0.190 F1000
G1 X120.806 Y172.783 Z0.190 E0.0000 F3200
G92 E0
G1 X121.357 Y172.555 Z0.190 E0.0060 F3000
G1 X156.758 Y172.543 Z0.190 E0.3622 F3000
G1 X157.947 Y172.447 Z0.190 E0.3742 F3000
G1 X158.227 Y172.543 Z0.190 E0.3772 F3000
G1 X158.538 Y172.543 Z0.190 E0.3803 F3000
G1 X159.089 Y172.771 Z0.190 E0.3863 F3000
G1 X164.038 Y177.718 Z0.190 E0.4567 F3000
G1 X165.448 Y179.018 Z0.190 E0.4760 F3000
G1 X165.700 Y179.593 Z0.190 E0.4823 F3000
G1 X165.700 Y191.231 Z0.190 E0.5994 F3000
G1 X165.600 Y191.474 Z0.190 E0.6020 F3000
G1 X165.600 Y205.805 Z0.190 E0.7462 F3000
G1 X165.700 Y206.029 Z0.190 E0.7487 F3000
G1 X165.700 Y217.635 Z0.190 E0.8655 F3000
G1 X165.474 Y218.184 Z0.190 E0.8715 F3000
G1 X165.430 Y218.229 Z0.190 E0.8721 F3000
G1 X165.372 Y218.370 Z0.190 E0.8736 F3000
G1 X159.091 Y224.649 Z0.190 E0.9630 F3000
G1 X158.540 Y224.878 Z0.190 E0.9690 F3000
G1 X121.359 Y224.875 Z0.190 E1.3431 F3000
G1 X120.808 Y224.647 Z0.190 E1.3491 F3000
G1 X114.528 Y218.367 Z0.190 E1.4384 F3000
G1 X114.300 Y217.816 Z0.190 E1.4444 F3000
G1 X114.300 Y179.614 Z0.190 E1.8288 F3000
G1 X114.528 Y179.063 Z0.190 E1.8348 F3000
G1 X119.250 Y174.339 Z0.190 E1.9020 F3000
G1 X120.806 Y172.783 Z0.190 F3000
G92 E0
G1 X120.806 Y172.783 Z0.190 E-3.1000 F3200
G1 X120.806 Y172.783 Z0.440 F1000
G1 X121.146 Y173.292 Z0.440 F4800
G1 X121.146 Y173.292 Z0.190 F1000
G1 X121.146 Y173.292 Z0.190 E0.0000 F3200
G92 E0
G1 X121.476 Y173.155 Z0.190 E0.0036 F3000
G1 X156.782 Y173.143 Z0.190 E0.3588 F3000
G1 X157.870 Y173.055 Z0.190 E0.3698 F3000
G1 X158.127 Y173.143 Z0.190 E0.3725 F3000
G1 X158.419 Y173.143 Z0.190 E0.3755 F3000
G1 X158.750 Y173.280 Z0.190 E0.3791 F3000
G1 X163.622 Y178.151 Z0.190 E0.4484 F3000
G1 X164.949 Y179.374 Z0.190 E0.4666 F3000
G1 X165.100 Y179.719 Z0.190 E0.4703 F3000
G1 X165.100 Y191.112 Z0.190 E0.5850 F3000
G1 X165.000 Y191.355 Z0.190 E0.5876 F3000
G1 X165.000 Y205.933 Z0.190 E0.7343 F3000
G1 X165.100 Y206.157 Z0.190 E0.7368 F3000
G1 X165.100 Y217.517 Z0.190 E0.8511 F3000
G1 X164.964 Y217.846 Z0.190 E0.8546 F3000
G1 X164.921 Y217.890 Z0.190 E0.8553 F3000
G1 X164.863 Y218.030 Z0.190 E0.8568 F3000
G1 X158.751 Y224.141 Z0.190 E0.9437 F3000
G1 X158.421 Y224.278 Z0.190 E0.9473 F3000
G1 X121.478 Y224.275 Z0.190 E1.3190 F3000
G1 X121.147 Y224.138 Z0.190 E1.3226 F3000
G1 X115.037 Y218.027 Z0.190 E1.4096 F3000
G1 X114.900 Y217.696 Z0.190 E1.4132 F3000
G1 X114.900 Y179.733 Z0.190 E1.7952 F3000
