; G-Code generated by Simplify3D(R) Version 3.1.1
; Mar 15, 2017 at 4:33:31 AM
; Settings Summary
;   processName,Process1
;   applyToModels,MeshBody20,MeshBody21
;   profileName,LulzBot TAZ 6 Dual (modified)
;   profileVersion,2017-02-17 02:12:56
;   baseProfile,
;   printMaterial,PVA
;   printQuality,Medium
;   printExtruders,Both Extruders
;   extruderName,Back Extruder,Front Extruder
;   extruderToolheadNumber,0,1
;   extruderDiameter,0.4,0.5
;   extruderAutoWidth,1,1
;   extruderWidth,0.48,0.6
;   extrusionMultiplier,2.94,1.11
;   extruderUseRetract,1,1
;   extruderRetractionDistance,1.5,2.5
;   extruderExtraRestartDistance,0,0
;   extruderRetractionZLift,0.2,0.25
;   extruderRetractionSpeed,1800,3200
;   extruderUseCoasting,0,1
;   extruderCoastingDistance,0.2,2.2
;   extruderUseWipe,0,0
;   extruderWipeDistance,5,5
;   primaryExtruder,1
;   layerHeight,0.2
;   topSolidLayers,3
;   bottomSolidLayers,3
;   perimeterOutlines,1
;   printPerimetersInsideOut,1
;   startPointOption,1
;   startPointOriginX,0
;   startPointOriginY,0
;   startPointOriginZ,0
;   sequentialIslands,0
;   spiralVaseMode,0
;   firstLayerHeightPercentage,90
;   firstLayerWidthPercentage,100
;   firstLayerUnderspeed,0.5
;   useRaft,0
;   raftExtruder,0
;   raftLayers,3
;   raftOffset,3
;   raftSeparationDistance,0.14
;   raftInfill,85
;   disableRaftBaseLayers,0
;   useSkirt,1
;   skirtExtruder,1
;   skirtLayers,3
;   skirtOutlines,3
;   skirtOffset,10
;   usePrimePillar,0
;   primePillarExtruder,999
;   primePillarWidth,12
;   primePillarLocation,7
;   primePillarSpeedMultiplier,1
;   useOozeShield,0
;   oozeShieldExtruder,999
;   oozeShieldOffset,2
;   oozeShieldOutlines,1
;   oozeShieldSidewallShape,1
;   oozeShieldSidewallAngle,30
;   oozeShieldSpeedMultiplier,1
;   infillExtruder,1
;   internalInfillPattern,Rectilinear
;   externalInfillPattern,Rectilinear
;   infillPercentage,20
;   outlineOverlapPercentage,15
;   infillExtrusionWidthPercentage,200
;   minInfillLength,5
;   infillLayerInterval,1
;   infillAngles,45,-45
;   overlapInfillAngles,0
;   generateSupport,0
;   supportExtruder,0
;   supportInfillPercentage,30
;   supportExtraInflation,0
;   denseSupportLayers,1
;   denseSupportInfillPercentage,70
;   supportLayerInterval,1
;   supportHorizontalPartOffset,0.3
;   supportUpperSeparationLayers,1
;   supportLowerSeparationLayers,1
;   supportType,0
;   supportGridSpacing,4
;   maxOverhangAngle,45
;   supportAngles,0
;   temperatureName,Back Extruder,Front Extruder,Heated Bed
;   temperatureNumber,0,1,0
;   temperatureSetpointCount,1,1,1
;   temperatureSetpointLayers,1,1,1
;   temperatureSetpointTemperatures,195,225,60
;   temperatureStabilizeAtStartup,1,1,1
;   temperatureHeatedBed,0,0,1
;   temperatureRelayBetweenLayers,0,0,0
;   temperatureRelayBetweenLoops,0,0,0
;   fanLayers,1,2
;   fanSpeeds,0,100
;   blipFanToFullPower,1
;   adjustSpeedForCooling,1
;   minSpeedLayerTime,15
;   minCoolingSpeedSlowdown,20
;   increaseFanForCooling,0
;   minFanLayerTime,45
;   maxCoolingFanSpeed,100
;   increaseFanForBridging,0
;   bridgingFanSpeed,100
;   use5D,1
;   relativeEdistances,0
;   allowEaxisZeroing,1
;   independentExtruderAxes,0
;   includeM10123,0
;   stickySupport,0
;   applyToolheadOffsets,1
;   gcodeXoffset,0
;   gcodeYoffset,0
;   gcodeZoffset,0
;   overrideMachineDefinition,1
;   machineTypeOverride,0
;   strokeXoverride,280
;   strokeYoverride,280
;   strokeZoverride,250
;   originOffsetXoverride,0
;   originOffsetYoverride,0
;   originOffsetZoverride,0
;   homeXdirOverride,-1
;   homeYdirOverride,-1
;   homeZdirOverride,-1
;   flipXoverride,1
;   flipYoverride,-1
;   flipZoverride,1
;   toolheadOffsets,0,0|0,50|0,0|0,0|0,0|0,0
;   overrideFirmwareConfiguration,1
;   firmwareTypeOverride,RepRap (Marlin/Repetier/Sprinter)
;   GPXconfigOverride,r2
;   baudRateOverride,250000
;   overridePrinterModels,1
;   printerModelsOverride,LulzBot_TAZ6.stl
;   startingGcode,G26 ; clear probe fail condition,M140 S[bed0_temperature] ; start heating bed,M104 S170 T0 ; start heating back extruder,M104 S170 T1 ; start heating front extruder,G28 XY ; home X and Y,T0 ; select this extruder first,G1 X-19 Y258 F1000 ; move to safe homing position,M109 S170 T0 ; soften filament for Z homing,M109 S170 T1 ; soften filament for Z homing,G28 Z ; home Z,G92 E0 ; zero extruder,G1 E-12 F100 ; retract 12mm filament,T1 ; switch extruders,G92 E0 ; zero extruder,G1 E-12 F100 ; retract 12mm filament,T0 ; switch extruders,G1 X-17 Y100 F3000 ; move above wiper pad,G1 Z1 ; push nozzle into wiper,G1 X-19 Y95 F1000 ; slow wipe,G1 X-17 Y90 F1000 ; slow wipe,G1 X-19 Y85 F1000 ; slow wipe,G1 X-17 Y90 F1000 ; slow wipe,G1 X-19 Y80 F1000 ; slow wipe,G1 X-17 Y95 F1000 ; slow wipe,G1 X-19 Y75 F2000 ; fast wipe,G1 X-17 Y85 F2000 ; fast wipe,G1 X-19 Y80 F2000 ; fast wipe,G1 X-17 Y70 F2000 ; fast wipe,G1 X-19 Y75 F2000 ; fast wipe,G1 X-17 Y95 F1000 ; slow wipe,G1 X-19 Y90 F1000 ; slow wipe,G1 X-17 Y85 F1000 ; slow wipe,G1 X-19 Y90 F1000 ; slow wipe,G1 X-17 Y80 F1000 ; slow wipe,G1 X-19 Y95 F1000 ; slow wipe,G1 X-17 Y75 F2000 ; fast wipe,G1 X-19 Y85 F2000 ; fast wipe,G1 X-17 Y80 F2000 ; fast wipe,G1 X-19 Y90 F2000 ; fast wipe,G1 X-17 Y85 F2000 ; fast wipe,G1 Z10 ; raise extruder,G1 X-9 Y-9 ; move above first probe point,M204 S100 ; set accel for probing,G29 ; probe sequence (for auto-leveling),M204 S500 ; set accel back to normal,G1 X0 Y0 Z15 F5000 ; get out of the way,M400 ; clear buffer,M117 Heating...,M104 S[extruder0_temperature] T0 ; start heating back extruder,M104 S[extruder1_temperature] T1 ; start heating front extruder,M190 S[bed0_temperature] ; stabilize bed,M109 S[extruder0_temperature] T0 ; stabilize back extruder,M109 S[extruder1_temperature] T1 ; stabilize front extruder,T1 ; switch to front extruder,G1 E0 F100 ; extrude filament back into nozzle,T0 ; switch to back extruder,G92 E-12 ; adjust E value,G1 Z2 E0 F100 ; extrude filament back into nozzle,M117 TAZ Printing...,
;   layerChangeGcode,
;   retractionGcode,
;   toolChangeGcode,
;   endingGcode,M400 ; wait for moves to finish,M104 S0 T0 ; turn off back extruder,M104 S0 T1 ; turn off front extruder,M107 ; turn off fan,G1 Y0 F3000 ; move to cooling position,M117 Cooling please wait,M190 S50 ; cool down bed,G1 Y280 F3000 ; present finished print,M140 S0 ; turn off bed,M84 ; disable motors,M117 QQ Print Finished!
;   exportFileFormat,gcode
;   celebration,0
;   celebrationSong,Random Song
;   postProcessing,
;   defaultSpeed,3000
;   outlineUnderspeed,0.5
;   solidInfillUnderspeed,0.8
;   supportUnderspeed,0.8
;   rapidXYspeed,4800
;   rapidZspeed,1000
;   minBridgingArea,10
;   bridgingExtraInflation,0
;   bridgingExtrusionMultiplier,1
;   bridgingSpeedMultiplier,1
;   filamentDiameter,2.89
;   filamentPricePerKg,46
;   filamentDensity,1.25
;   useMinPrintHeight,0
;   minPrintHeight,0
;   useMaxPrintHeight,0
;   maxPrintHeight,0
;   useDiaphragm,0
;   diaphragmLayerInterval,20
;   robustSlicing,0
;   mergeAllIntoSolid,0
;   onlyRetractWhenCrossingOutline,0
;   retractBetweenLayers,1
;   useRetractionMinTravel,0
;   retractionMinTravel,3
;   retractWhileWiping,0
;   onlyWipeOutlines,1
;   avoidCrossingOutline,0
;   maxMovementDetourFactor,3
;   toolChangeRetractionDistance,12
;   toolChangeExtraRestartDistance,-0.5
;   toolChangeRetractionSpeed,600
;   allowThinWallGapFill,0
;   thinWallAllowedOverlapPercentage,1
;   horizontalSizeCompensation,0
G90
M82
M106 S0
G26 ; clear probe fail condition
M140 S60 ; start heating bed
M104 S170 T0 ; start heating back extruder
M104 S170 T1 ; start heating front extruder
G28 XY ; home X and Y
T0 ; select this extruder first
G1 X-19 Y258 F1000 ; move to safe homing position
M109 S170 T0 ; soften filament for Z homing
M109 S170 T1 ; soften filament for Z homing
G28 Z ; home Z
G92 E0 ; zero extruder
G1 E-12 F100 ; retract 12mm filament
T1 ; switch extruders
G92 E0 ; zero extruder
G1 E-12 F100 ; retract 12mm filament
T0 ; switch extruders
G1 X-17 Y100 F3000 ; move above wiper pad
G1 Z1 ; push nozzle into wiper
G1 X-19 Y95 F1000 ; slow wipe
G1 X-17 Y90 F1000 ; slow wipe
G1 X-19 Y85 F1000 ; slow wipe
G1 X-17 Y90 F1000 ; slow wipe
G1 X-19 Y80 F1000 ; slow wipe
G1 X-17 Y95 F1000 ; slow wipe
G1 X-19 Y75 F2000 ; fast wipe
G1 X-17 Y85 F2000 ; fast wipe
G1 X-19 Y80 F2000 ; fast wipe
G1 X-17 Y70 F2000 ; fast wipe
G1 X-19 Y75 F2000 ; fast wipe
G1 X-17 Y95 F1000 ; slow wipe
G1 X-19 Y90 F1000 ; slow wipe
G1 X-17 Y85 F1000 ; slow wipe
G1 X-19 Y90 F1000 ; slow wipe
G1 X-17 Y80 F1000 ; slow wipe
G1 X-19 Y95 F1000 ; slow wipe
G1 X-17 Y75 F2000 ; fast wipe
G1 X-19 Y85 F2000 ; fast wipe
G1 X-17 Y80 F2000 ; fast wipe
G1 X-19 Y90 F2000 ; fast wipe
G1 X-17 Y85 F2000 ; fast wipe
G1 Z10 ; raise extruder
G1 X-9 Y-9 ; move above first probe point
M204 S100 ; set accel for probing
G29 ; probe sequence (for auto-leveling)
M204 S500 ; set accel back to normal
G1 X0 Y0 Z15 F5000 ; get out of the way
M400 ; clear buffer
M117 Heating...
M104 S195 T0 ; start heating back extruder
M104 S225 T1 ; start heating front extruder
M190 S60 ; stabilize bed
M109 S195 T0 ; stabilize back extruder
M109 S225 T1 ; stabilize front extruder
T1 ; switch to front extruder
G1 E0 F100 ; extrude filament back into nozzle
T0 ; switch to back extruder
G92 E-12 ; adjust E value
G1 Z2 E0 F100 ; extrude filament back into nozzle
M117 TAZ Printing...
G92 E0
G1 X0.000 Y50.000 Z0.000 E-2.5000 F3200
G1 X0.000 Y50.000 Z0.430 F1000
; layer 1, Z = 0.18
T1
; tool H0.200 W0.600
; skirt
G1 X120.808 Y172.359 Z0.430 F4800
G1 X120.808 Y172.359 Z0.180 F1000
G1 X120.808 Y172.359 Z0.180 E0.0000 F960
G92 E0
G1 X121.359 Y172.130 Z0.180 E0.0121 F1500
G1 X158.540 Y172.129 Z0.180 E0.7671 F1500
G1 X159.092 Y172.357 Z0.180 E0.7792 F1500
G1 X159.556 Y172.822 Z0.180 E0.7926 F1500
G1 X159.971 Y173.032 Z0.180 E0.8020 F1500
G1 X161.873 Y175.139 Z0.180 E0.8596 F1500
G1 X165.372 Y178.637 Z0.180 E0.9601 F1500
G1 X165.600 Y179.189 Z0.180 E0.9722 F1500
G1 X165.600 Y179.416 Z0.180 E0.9768 F1500
G1 X165.700 Y179.676 Z0.180 E0.9825 F1500
G1 X165.700 Y191.771 Z0.180 E1.2281 F1500
G1 X165.600 Y192.011 Z0.180 E1.2334 F1500
G1 X165.600 Y205.881 Z0.180 E1.5150 F1500
G1 X165.700 Y206.139 Z0.180 E1.5206 F1500
G1 X165.700 Y218.087 Z0.180 E1.7633 F1500
G1 X165.480 Y218.630 Z0.180 E1.7751 F1500
G1 X165.453 Y218.658 Z0.180 E1.7759 F1500
G1 X165.372 Y218.854 Z0.180 E1.7802 F1500
G1 X161.662 Y222.562 Z0.180 E1.8867 F1500
G1 X159.423 Y224.869 Z0.180 E1.9520 F1500
G1 X159.302 Y224.923 Z0.180 E1.9547 F1500
G1 X159.091 Y225.134 Z0.180 E1.9608 F1500
G1 X158.540 Y225.362 Z0.180 E1.9729 F1500
G1 X121.359 Y225.359 Z0.180 E2.7279 F1500
G1 X120.807 Y225.130 Z0.180 E2.7400 F1500
G1 X114.528 Y218.850 Z0.180 E2.9203 F1500
G1 X114.300 Y218.299 Z0.180 E2.9324 F1500
G1 X114.300 Y179.190 Z0.180 E3.7266 F1500
G1 X114.528 Y178.638 Z0.180 E3.7387 F1500
G1 X119.252 Y173.914 Z0.180 E3.8744 F1500
G1 X120.808 Y172.359 Z0.180 F1500
G92 E0
G1 X120.808 Y172.359 Z0.180 E-2.5000 F3200
G1 X120.808 Y172.359 Z0.430 F1000
G1 X121.148 Y172.867 Z0.430 F4800
G1 X121.148 Y172.867 Z0.180 F1000
G1 X121.148 Y172.867 Z0.180 E0.0000 F3200
G92 E0
G1 X121.479 Y172.730 Z0.180 E0.0073 F1500
G1 X158.421 Y172.729 Z0.180 E0.7574 F1500
G1 X158.752 Y172.866 Z0.180 E0.7647 F1500
G1 X159.246 Y173.360 Z0.180 E0.7789 F1500
G1 X159.302 Y173.366 Z0.180 E0.7800 F1500
G1 X159.600 Y173.517 Z0.180 E0.7868 F1500
G1 X161.438 Y175.552 Z0.180 E0.8425 F1500
G1 X164.863 Y178.977 Z0.180 E0.9408 F1500
G1 X165.000 Y179.308 Z0.180 E0.9481 F1500
G1 X165.000 Y179.527 Z0.180 E0.9526 F1500
G1 X165.100 Y179.787 Z0.180 E0.9582 F1500
G1 X165.100 Y191.651 Z0.180 E1.1991 F1500
G1 X165.000 Y191.892 Z0.180 E1.2044 F1500
G1 X165.000 Y205.994 Z0.180 E1.4908 F1500
G1 X165.100 Y206.251 Z0.180 E1.4964 F1500
G1 X165.100 Y217.970 Z0.180 E1.7343 F1500
G1 X164.968 Y218.296 Z0.180 E1.7415 F1500
G1 X164.942 Y218.322 Z0.180 E1.7422 F1500
G1 X164.863 Y218.514 Z0.180 E1.7464 F1500
G1 X161.236 Y222.141 Z0.180 E1.8506 F1500
G1 X159.074 Y224.367 Z0.180 E1.9136 F1500
G1 X158.957 Y224.419 Z0.180 E1.9162 F1500
G1 X158.751 Y224.625 Z0.180 E1.9221 F1500
G1 X158.420 Y224.762 Z0.180 E1.9294 F1500
G1 X121.478 Y224.759 Z0.180 E2.6795 F1500
G1 X121.147 Y224.622 Z0.180 E2.6868 F1500
G1 X115.037 Y218.511 Z0.180 E2.8623 F1500
G1 X114.900 Y218.180 Z0.180 E2.8695 F1500
G1 X114.900 Y179.309 Z0.180 E3.6588 F1500
G1 X115.037 Y178.978 Z0.180 E3.6661 F1500
G1 X119.592 Y174.423 Z0.180 E3.7969 F1500
G1 X121.148 Y172.867 Z0.180 F1500
G92 E0
G1 X121.148 Y172.867 Z0.180 E-2.5000 F3200
G1 X121.148 Y172.867 Z0.430 F1000
G1 X121.488 Y173.376 Z0.430 F4800
G1 X121.488 Y173.376 Z0.180 F1000
G1 X121.488 Y173.376 Z0.180 E0.0000 F3200
G92 E0
G1 X121.598 Y173.330 Z0.180 E0.0024 F1500
G1 X158.302 Y173.329 Z0.180 E0.7477 F1500
G1 X158.412 Y173.375 Z0.180 E0.7501 F1500
G1 X158.972 Y173.935 Z0.180 E0.7662 F1500
G1 X159.130 Y173.952 Z0.180 E0.7695 F1500
G1 X159.230 Y174.002 Z0.180 E0.7717 F1500
G1 X161.003 Y175.965 Z0.180 E0.8254 F1500
G1 X164.354 Y179.317 Z0.180 E0.9217 F1500
G1 X164.400 Y179.427 Z0.180 E0.9241 F1500
G1 X164.400 Y179.728 Z0.180 E0.9302 F1500
G1 X164.460 Y179.795 Z0.180 E0.9320 F1500
G1 X164.500 Y179.899 Z0.180 E0.9343 F1500
G1 X164.500 Y191.531 Z0.180 E1.1705 F1500
G1 X164.454 Y191.642 Z0.180 E1.1729 F1500
G1 X164.400 Y191.696 Z0.180 E1.1745 F1500
G1 X164.400 Y206.194 Z0.180 E1.4689 F1500
G1 X164.459 Y206.259 Z0.180 E1.4707 F1500
G1 X164.500 Y206.364 Z0.180 E1.4730 F1500
G1 X164.500 Y217.853 Z0.180 E1.7063 F1500
G1 X164.456 Y217.962 Z0.180 E1.7086 F1500
G1 X164.400 Y218.020 Z0.180 E1.7103 F1500
G1 X164.400 Y218.064 Z0.180 E1.7112 F1500
G1 X164.354 Y218.174 Z0.180 E1.7136 F1500
G1 X160.808 Y221.720 Z0.180 E1.8154 F1500
G1 X158.725 Y223.866 Z0.180 E1.8762 F1500
G1 X158.618 Y223.913 Z0.180 E1.8785 F1500
G1 X158.615 Y223.913 Z0.180 E1.8786 F1500
G1 X158.411 Y224.116 Z0.180 E1.8844 F1500
G1 X158.301 Y224.162 Z0.180 E1.8869 F1500
G1 X121.598 Y224.159 Z0.180 E2.6321 F1500
G1 X121.487 Y224.113 Z0.180 E2.6346 F1500
G1 X115.546 Y218.171 Z0.180 E2.8052 F1500
G1 X115.500 Y218.060 Z0.180 E2.8076 F1500
G1 X115.500 Y179.428 Z0.180 E3.5921 F1500
G1 X115.546 Y179.318 Z0.180 E3.5945 F1500
G1 X119.932 Y174.931 Z0.180 E3.7205 F1500
G1 X121.488 Y173.376 Z0.180 F1500
G92 E0
G1 X121.488 Y173.376 Z0.180 E-2.5000 F3200
G1 X121.488 Y173.376 Z0.430 F1000
; outer perimeter
G1 X153.900 Y212.409 Z0.430 F4800
G1 X153.900 Y212.409 Z0.180 F1000
G1 X153.900 Y212.409 Z0.180 E0.0000 F3200
G92 E0
G1 X153.061 Y212.413 Z0.180 E0.0170 F750
G1 X151.972 Y212.395 Z0.180 E0.0392 F750
G1 X151.486 Y212.373 Z0.180 E0.0490 F750
G1 X126.100 Y212.343 Z0.180 E0.5645 F750
G1 X126.100 Y185.006 Z0.180 E1.1196 F750
G1 X152.390 Y185.006 Z0.180 E1.6534 F750
G1 X152.388 Y185.001 Z0.180 E1.6536 F750
G1 X153.800 Y184.994 Z0.180 E1.6822 F750
G1 X153.800 Y185.048 Z0.180 E1.6833 F750
G1 X153.900 Y185.058 Z0.180 E1.6854 F750
G1 X153.900 Y186.047 Z0.180 E1.7054 F750
G1 X153.800 Y186.050 Z0.180 E1.7075 F750
G1 X153.800 Y210.290 Z0.180 E2.1997 F750
G1 X153.800 Y211.594 Z0.180 F750
G1 X153.900 Y211.615 Z0.180 F750
G1 X153.900 Y212.409 Z0.180 F750
G92 E0
G1 X153.900 Y212.409 Z0.180 E-2.5000 F3200
G1 X153.900 Y212.409 Z0.430 F1000
G1 X142.807 Y205.471 Z0.430 F4800
G1 X142.807 Y205.471 Z0.180 F1000
G1 X142.807 Y205.471 Z0.180 E0.0000 F3200
G92 E0
G1 X141.930 Y205.549 Z0.180 E0.0179 F750
G1 X141.925 Y204.145 Z0.180 E0.0464 F750
G1 X142.013 Y204.136 Z0.180 E0.0482 F750
G1 X142.793 Y204.054 Z0.180 F750
G1 X142.807 Y205.471 Z0.180 F750
G92 E0
G1 X142.807 Y205.471 Z0.180 E-2.5000 F3200
G1 X142.807 Y205.471 Z0.430 F1000
G1 X141.846 Y199.370 Z0.430 F4800
G1 X141.846 Y199.370 Z0.180 F1000
G1 X141.846 Y199.370 Z0.180 E0.0000 F3200
G92 E0
G1 X141.841 Y197.966 Z0.180 E0.0285 F750
G1 X142.709 Y197.875 Z0.180 E0.0462 F750
G1 X142.710 Y197.972 Z0.180 E0.0482 F750
G1 X142.723 Y199.291 Z0.180 F750
G1 X141.846 Y199.370 Z0.180 F750
G92 E0
G1 X141.846 Y199.370 Z0.180 E-2.5000 F3200
G1 X141.846 Y199.370 Z0.430 F1000
; outer perimeter
G1 X144.234 Y206.201 Z0.430 F4800
G1 X144.234 Y206.201 Z0.180 F1000
G1 X144.234 Y206.201 Z0.180 E0.0000 F3200
G92 E0
