; G-Code generated by Simplify3D(R) Version 3.1.1
; May 10, 2017 at 1:21:07 AM
; Settings Summary
;   processName,gps
;   applyToModels,GPSV3
;   profileName,NinjaFlex (modified)
;   profileVersion,2016-06-08 08:00:00
;   baseProfile,LulzBot TAZ 6 Dual (modified)
;   printMaterial,
;   printQuality,
;   printExtruders,
;   extruderName,Back Extruder,Front Extruder
;   extruderToolheadNumber,0,1
;   extruderDiameter,0.4,0.5
;   extruderAutoWidth,1,1
;   extruderWidth,0.48,0.6
;   extrusionMultiplier,0.95,1.1
;   extruderUseRetract,1,1
;   extruderRetractionDistance,1.5,3.5
;   extruderExtraRestartDistance,0,0
;   extruderRetractionZLift,0.2,0.2
;   extruderRetractionSpeed,1800,3200
;   extruderUseCoasting,0,1
;   extruderCoastingDistance,0.2,0.2
;   extruderUseWipe,0,0
;   extruderWipeDistance,5,5
;   primaryExtruder,1
;   layerHeight,0.428
;   topSolidLayers,3
;   bottomSolidLayers,3
;   perimeterOutlines,4
;   printPerimetersInsideOut,1
;   startPointOption,2
;   startPointOriginX,0
;   startPointOriginY,0
;   startPointOriginZ,300
;   sequentialIslands,0
;   spiralVaseMode,0
;   firstLayerHeightPercentage,90
;   firstLayerWidthPercentage,100
;   firstLayerUnderspeed,0.5
;   useRaft,0
;   raftExtruder,0
;   raftLayers,3
;   raftOffset,3
;   raftSeparationDistance,0.14
;   raftInfill,85
;   disableRaftBaseLayers,0
;   useSkirt,1
;   skirtExtruder,1
;   skirtLayers,2
;   skirtOutlines,2
;   skirtOffset,6
;   usePrimePillar,0
;   primePillarExtruder,999
;   primePillarWidth,12
;   primePillarLocation,7
;   primePillarSpeedMultiplier,1
;   useOozeShield,0
;   oozeShieldExtruder,999
;   oozeShieldOffset,2
;   oozeShieldOutlines,1
;   oozeShieldSidewallShape,1
;   oozeShieldSidewallAngle,30
;   oozeShieldSpeedMultiplier,1
;   infillExtruder,1
;   internalInfillPattern,Rectilinear
;   externalInfillPattern,Rectilinear
;   infillPercentage,20
;   outlineOverlapPercentage,20
;   infillExtrusionWidthPercentage,200
;   minInfillLength,5
;   infillLayerInterval,1
;   infillAngles,45,-45
;   overlapInfillAngles,0
;   generateSupport,0
;   supportExtruder,0
;   supportInfillPercentage,30
;   supportExtraInflation,0
;   denseSupportLayers,0
;   denseSupportInfillPercentage,70
;   supportLayerInterval,1
;   supportHorizontalPartOffset,0.3
;   supportUpperSeparationLayers,1
;   supportLowerSeparationLayers,1
;   supportType,0
;   supportGridSpacing,4
;   maxOverhangAngle,45
;   supportAngles,0
;   temperatureName,Back Extruder,Front Extruder,Heated Bed
;   temperatureNumber,0,1,0
;   temperatureSetpointCount,1,1,1
;   temperatureSetpointLayers,1,1,1
;   temperatureSetpointTemperatures,210,218,60
;   temperatureStabilizeAtStartup,1,0,1
;   temperatureHeatedBed,0,0,1
;   temperatureRelayBetweenLayers,0,0,0
;   temperatureRelayBetweenLoops,0,0,0
;   fanLayers,1,2
;   fanSpeeds,0,100
;   blipFanToFullPower,1
;   adjustSpeedForCooling,1
;   minSpeedLayerTime,15
;   minCoolingSpeedSlowdown,20
;   increaseFanForCooling,0
;   minFanLayerTime,45
;   maxCoolingFanSpeed,100
;   increaseFanForBridging,0
;   bridgingFanSpeed,100
;   use5D,1
;   relativeEdistances,0
;   allowEaxisZeroing,1
;   independentExtruderAxes,0
;   includeM10123,0
;   stickySupport,1
;   applyToolheadOffsets,0
;   gcodeXoffset,0
;   gcodeYoffset,0
;   gcodeZoffset,0
;   overrideMachineDefinition,1
;   machineTypeOverride,0
;   strokeXoverride,280
;   strokeYoverride,280
;   strokeZoverride,250
;   originOffsetXoverride,0
;   originOffsetYoverride,0
;   originOffsetZoverride,0
;   homeXdirOverride,-1
;   homeYdirOverride,-1
;   homeZdirOverride,-1
;   flipXoverride,1
;   flipYoverride,-1
;   flipZoverride,1
;   toolheadOffsets,0,0|0,50|0,0|0,0|0,0|0,0
;   overrideFirmwareConfiguration,1
;   firmwareTypeOverride,RepRap (Marlin/Repetier/Sprinter)
;   GPXconfigOverride,r2
;   baudRateOverride,250000
;   overridePrinterModels,1
;   printerModelsOverride,LulzBot_TAZ6.stl
;   startingGcode,G26 ; clear probe fail condition,M140 S[bed0_temperature] ; start heating bed,M104 S170 T0 ; start heating back extruder,M104 S170 T1 ; start heating front extruder,G28 XY ; home X and Y,T0 ; select this extruder first,G1 X-19 Y258 F1000 ; move to safe homing position,M109 S170 T0 ; soften filament for Z homing,M109 S170 T1 ; soften filament for Z homing,G28 Z ; home Z,G92 E0 ; zero extruder,G1 E-12 F100 ; retract 12mm filament,T1 ; switch extruders,G92 E0 ; zero extruder,G1 E-12 F100 ; retract 12mm filament,T0 ; switch extruders,G1 X-17 Y100 F3000 ; move above wiper pad,G1 Z1 ; push nozzle into wiper,G1 X-19 Y95 F1000 ; slow wipe,G1 X-17 Y90 F1000 ; slow wipe,G1 X-19 Y85 F1000 ; slow wipe,G1 X-17 Y90 F1000 ; slow wipe,G1 X-19 Y80 F1000 ; slow wipe,G1 X-17 Y95 F1000 ; slow wipe,G1 X-19 Y75 F2000 ; fast wipe,G1 X-17 Y85 F2000 ; fast wipe,G1 X-19 Y80 F2000 ; fast wipe,G1 X-17 Y70 F2000 ; fast wipe,G1 X-19 Y75 F2000 ; fast wipe,G1 X-17 Y95 F1000 ; slow wipe,G1 X-19 Y90 F1000 ; slow wipe,G1 X-17 Y85 F1000 ; slow wipe,G1 X-19 Y90 F1000 ; slow wipe,G1 X-17 Y80 F1000 ; slow wipe,G1 X-19 Y95 F1000 ; slow wipe,G1 X-17 Y75 F2000 ; fast wipe,G1 X-19 Y85 F2000 ; fast wipe,G1 X-17 Y80 F2000 ; fast wipe,G1 X-19 Y90 F2000 ; fast wipe,G1 X-17 Y85 F2000 ; fast wipe,G1 Z10 ; raise extruder,G1 X-9 Y-9 ; move above first probe point,M204 S100 ; set accel for probing,G29 ; probe sequence (for auto-leveling),M204 S500 ; set accel back to normal,G1 X0 Y0 Z15 F5000 ; get out of the way,M400 ; clear buffer,M117 Heating...,M104 S[extruder0_temperature] T0 ; start heating back extruder,M190 S[bed0_temperature] ; stabilize bed,M109 S[extruder0_temperature] T0 ; stabilize back extruder,T1 ; switch to front extruder,G1 E0 F100 ; extrude filament back into nozzle,T0 ; switch to back extruder,G92 E-12 ; adjust E value,G1 Z2 E0 F100 ; extrude filament back into nozzle,M104 S0 T1 ; cool down front extruder,M117 TAZ Printing...
;   layerChangeGcode,
;   retractionGcode,
;   toolChangeGcode,
;   endingGcode,M400 ; wait for moves to finish,M104 S0 T0 ; turn off back extruder,M104 S0 T1 ; turn off front extruder,M107 ; turn off fan,G1 Y0 F3000 ; move to cooling position,M117 Cooling please wait,M190 S50 ; cool down bed,G1 Y280 F3000 ; present finished print,M140 S0 ; turn off bed,M84 ; disable motors,M117 Print complete
;   exportFileFormat,gcode
;   celebration,0
;   celebrationSong,Random Song
;   postProcessing,
;   defaultSpeed,1400
;   outlineUnderspeed,0.5
;   solidInfillUnderspeed,0.8
;   supportUnderspeed,0.8
;   rapidXYspeed,4800
;   rapidZspeed,1000
;   minBridgingArea,20
;   bridgingExtraInflation,0
;   bridgingExtrusionMultiplier,0.75
;   bridgingSpeedMultiplier,1.3
;   filamentDiameter,2.85
;   filamentPricePerKg,46
;   filamentDensity,1.25
;   useMinPrintHeight,0
;   minPrintHeight,0
;   useMaxPrintHeight,0
;   maxPrintHeight,0
;   useDiaphragm,0
;   diaphragmLayerInterval,20
;   robustSlicing,1
;   mergeAllIntoSolid,0
;   onlyRetractWhenCrossingOutline,1
;   retractBetweenLayers,0
;   useRetractionMinTravel,1
;   retractionMinTravel,1
;   retractWhileWiping,1
;   onlyWipeOutlines,1
;   avoidCrossingOutline,0
;   maxMovementDetourFactor,3
;   toolChangeRetractionDistance,12
;   toolChangeExtraRestartDistance,-0.5
;   toolChangeRetractionSpeed,600
;   allowThinWallGapFill,1
;   thinWallAllowedOverlapPercentage,10
;   horizontalSizeCompensation,0
G90
M82
M106 S0
G26 ; clear probe fail condition
M140 S60 ; start heating bed
M104 S170 T0 ; start heating back extruder
M104 S170 T1 ; start heating front extruder
G28 XY ; home X and Y
T0 ; select this extruder first
G1 X-19 Y258 F1000 ; move to safe homing position
M109 S170 T0 ; soften filament for Z homing
M109 S170 T1 ; soften filament for Z homing
G28 Z ; home Z
G92 E0 ; zero extruder
G1 E-12 F100 ; retract 12mm filament
T1 ; switch extruders
G92 E0 ; zero extruder
G1 E-12 F100 ; retract 12mm filament
T0 ; switch extruders
G1 X-17 Y100 F3000 ; move above wiper pad
G1 Z1 ; push nozzle into wiper
G1 X-19 Y95 F1000 ; slow wipe
G1 X-17 Y90 F1000 ; slow wipe
G1 X-19 Y85 F1000 ; slow wipe
G1 X-17 Y90 F1000 ; slow wipe
G1 X-19 Y80 F1000 ; slow wipe
G1 X-17 Y95 F1000 ; slow wipe
G1 X-19 Y75 F2000 ; fast wipe
G1 X-17 Y85 F2000 ; fast wipe
G1 X-19 Y80 F2000 ; fast wipe
G1 X-17 Y70 F2000 ; fast wipe
G1 X-19 Y75 F2000 ; fast wipe
G1 X-17 Y95 F1000 ; slow wipe
G1 X-19 Y90 F1000 ; slow wipe
G1 X-17 Y85 F1000 ; slow wipe
G1 X-19 Y90 F1000 ; slow wipe
G1 X-17 Y80 F1000 ; slow wipe
G1 X-19 Y95 F1000 ; slow wipe
G1 X-17 Y75 F2000 ; fast wipe
G1 X-19 Y85 F2000 ; fast wipe
G1 X-17 Y80 F2000 ; fast wipe
G1 X-19 Y90 F2000 ; fast wipe
G1 X-17 Y85 F2000 ; fast wipe
G1 Z10 ; raise extruder
G1 X-9 Y-9 ; move above first probe point
M204 S100 ; set accel for probing
G29 ; probe sequence (for auto-leveling)
M204 S500 ; set accel back to normal
G1 X0 Y0 Z15 F5000 ; get out of the way
M400 ; clear buffer
M117 Heating...
M104 S210 T0 ; start heating back extruder
M190 S60 ; stabilize bed
M109 S210 T0 ; stabilize back extruder
T1 ; switch to front extruder
G1 E0 F100 ; extrude filament back into nozzle
T0 ; switch to back extruder
G92 E-12 ; adjust E value
G1 Z2 E0 F100 ; extrude filament back into nozzle
M104 S0 T1 ; cool down front extruder
M117 TAZ Printing...
G92 E0
G1 E-3.5000 F3200
G1 Z0.585 F1000
; layer 1, Z = 0.3852
M104 S218 T1
T1
; tool H0.428 W0.600
; skirt
G1 X122.849 Y126.640 F4800
G1 Z0.385 F1000
G1 E0.0000 F960
G92 E0
G1 X123.179 Y126.503 E0.0158 F700
G1 X128.762 Y126.496 E0.2631
G1 X128.768 Y126.496 E0.2633
G1 X156.815 Y126.500 E1.5052
G1 X157.146 Y126.637 E1.5211
G1 X160.913 Y130.405 E1.7570
G1 X161.050 Y130.736 E1.7729
G1 X161.050 Y166.746 E3.3674
G1 X160.913 Y167.077 E3.3833
G1 X157.145 Y170.844 E3.6192
G1 X156.814 Y170.982 E3.6351
G1 X123.186 Y170.982 E5.1241
G1 X122.855 Y170.845 E5.1400
G1 X119.087 Y167.077 E5.3759
G1 X118.950 Y166.746 E5.3918
G1 X118.950 Y130.738 E6.9862
G1 X119.087 Y130.407 E7.0021
G1 X122.708 Y126.782 E7.2290
G1 X122.849 Y126.640 F700
G1 X123.189 Y127.149 F4800
G92 E0
G1 X123.299 Y127.103 E0.0053 F700
G1 X128.763 Y127.096 E0.2472
G1 X128.767 Y127.096 E0.2474
G1 X156.696 Y127.100 E1.4841
G1 X156.806 Y127.146 E1.4894
G1 X160.404 Y130.745 E1.7147
G1 X160.450 Y130.855 E1.7200
G1 X160.450 Y166.626 E3.3040
G1 X160.404 Y166.737 E3.3093
G1 X156.805 Y170.336 E3.5346
G1 X156.695 Y170.381 E3.5399
G1 X123.305 Y170.382 E5.0184
G1 X123.195 Y170.336 E5.0237
G1 X119.596 Y166.737 E5.2491
G1 X119.550 Y166.626 E5.2544
G1 X119.550 Y130.857 E6.8383
G1 X119.596 Y130.747 E6.8435
G1 X123.048 Y127.290 E7.0599
G1 X123.189 Y127.149 F700
G92 E0
G1 E-3.5000 F3200
G1 Z0.585 F1000
; inner perimeter
G1 X127.950 Y136.267 F4800
G1 Z0.385 F1000
G1 E0.0000 F3200
G92 E0
G1 X131.488 Y136.260 E0.1567 F612
G1 X129.232 Y138.556 E0.2992
G1 X129.110 Y150.476 E0.8270
G1 X134.733 Y148.668 E1.0886
G1 X134.732 Y148.781 E1.0936
G1 X136.756 Y148.195 E1.1869
G1 X136.723 Y148.555 E1.2029
G1 X136.781 Y149.178 E1.2306
G1 X136.915 Y149.644 E1.2520
G1 X135.096 Y149.607 E1.3326
G1 X135.090 Y150.284 E1.3625
G1 X131.329 Y151.419 E1.5365
G1 X129.449 Y153.368 E1.6564
G1 X129.369 Y161.195 E2.0030
G1 X127.950 Y161.192 E2.0658
G1 X127.950 Y136.467 E3.1606
G1 X127.950 Y136.267 F612
G92 E0
G1 E-3.5000 F3200
G1 Z0.585 F1000
G1 X144.075 Y146.209 F4800
G1 Z0.385 F1000
G1 E0.0000 F3200
G92 E0
G1 X148.853 Y145.778 E0.2125 F612
G1 X150.975 Y143.619 E0.3465
G1 X150.912 Y137.449 E0.6197
G1 X152.050 Y137.479 E0.6701
G1 X152.050 Y161.192 E1.7201
G1 X147.418 Y161.202 E1.9253
G1 X147.397 Y160.742 E1.9456
G1 X149.052 Y160.597 E2.0192
G1 X151.176 Y158.437 E2.1533
G1 X151.092 Y150.262 E2.5153
G1 X148.905 Y147.778 E2.6619
G1 X148.023 Y147.838 E2.7010
G1 X148.023 Y147.780 E2.7036
G1 X146.049 Y147.972 E2.7914
G1 X144.907 Y148.049 E2.8421
G1 X144.907 Y148.083 E2.8436
G1 X143.336 Y148.236 E2.9135
G1 X143.303 Y147.903 E2.9283
G1 X143.214 Y147.608 E2.9419
G1 X143.324 Y147.414 E2.9518
G1 X143.471 Y147.251 E2.9615
G1 X143.870 Y146.657 E2.9932
G1 X143.992 Y146.391 E3.0062
G1 X144.075 Y146.209 F612
G92 E0
G1 E-3.5000 F3200
G1 Z0.585 F1000
G1 X140.865 Y160.307 F4800
G1 Z0.385 F1000
G1 E0.0000 F3200
G92 E0
G1 X141.733 Y161.206 E0.0553 F612
G1 X140.855 Y161.206 E0.0942
G1 X140.863 Y160.507 E0.1252
G1 X140.865 Y160.307 F612
G92 E0
G1 E-3.5000 F3200
G1 Z0.585 F1000
; inner perimeter
G1 X127.350 Y135.668 F4800
G1 Z0.385 F1000
G1 E0.0000 F3200
G92 E0
G1 X131.761 Y135.659 E0.1953 F525
G1 X134.958 Y135.661 E0.3369
G1 X135.018 Y136.071 E0.3552
G1 X131.458 Y137.146 E0.5199
G1 X129.829 Y138.804 E0.6228
G1 X129.718 Y149.650 E1.1031
G1 X134.601 Y148.080 E1.3302
G1 X134.669 Y141.411 E1.6255
G1 X135.403 Y141.102 E1.6608
G1 X135.340 Y147.980 E1.9654
G1 X137.578 Y147.333 E2.0685
G1 X137.372 Y148.048 E2.1015
G1 X137.326 Y148.555 E2.1240
G1 X137.373 Y149.066 E2.1467
G1 X137.520 Y149.577 E2.1703
G1 X137.143 Y150.249 E2.2044
G1 X135.690 Y150.219 E2.2687
G1 X135.686 Y150.730 E2.2914
G1 X131.652 Y151.948 E2.4779
G1 X130.046 Y153.613 E2.5803
G1 X129.963 Y161.796 E2.9427
G1 X127.350 Y161.791 E3.0584
G1 X127.350 Y135.868 E4.2063
G1 X127.350 Y135.668 F525
G92 E0
G1 E-3.5000 F3200
G1 Z0.585 F1000
G1 X144.835 Y138.834 F4800
G1 Z0.385 F1000
G1 E0.0000 F3200
G92 E0
G1 X145.361 Y138.779 E0.0234 F525
G1 X145.379 Y140.596 E0.1039
G1 X144.842 Y140.644 E0.1277
G1 X144.836 Y139.034 E0.1990
G1 X144.835 Y138.834 F525
G92 E0
G1 E-3.5000 F3200
G1 Z0.585 F1000
G1 X150.305 Y136.833 F4800
G1 Z0.385 F1000
G1 E0.0000 F3200
G92 E0
G1 X151.338 Y136.860 E0.0458 F525
G1 X150.290 Y135.669 E0.1160
G1 X152.650 Y135.670 E0.2205
G1 X152.650 Y161.791 E1.3771
G1 X145.385 Y161.806 E1.6988
G1 X140.249 Y161.806 E1.9263
G1 X140.281 Y158.838 E2.0577
G1 X141.996 Y160.615 E2.1670
G1 X148.779 Y160.019 E2.4685
G1 X150.573 Y158.194 E2.5819
G1 X150.494 Y150.491 E2.9230
G1 X148.650 Y148.397 E3.0465
G1 X147.423 Y148.480 E3.1010
G1 X147.423 Y148.441 E3.1027
G1 X146.098 Y148.570 E3.1616
G1 X145.513 Y148.609 E3.1876
G1 X145.513 Y148.627 E3.1884
G1 X142.727 Y148.897 E3.3123
G1 X142.765 Y148.568 E3.3270
G1 X142.711 Y148.020 E3.3514
G1 X142.566 Y147.536 E3.3738
G1 X142.834 Y147.062 E3.3979
G1 X142.996 Y146.881 E3.4086
G1 X143.345 Y146.363 E3.4363
G1 X143.674 Y145.643 E3.4713
G1 X148.580 Y145.200 E3.6895
G1 X150.373 Y143.376 E3.8027
G1 X150.308 Y137.033 E4.0836
G1 X150.305 Y136.833 F525
G92 E0
G1 E-3.5000 F3200
G1 Z0.585 F1000
G1 X145.562 Y153.597 F4800
G1 Z0.385 F1000
G1 E0.0000 F3200
G92 E0
G1 X145.580 Y155.413 E0.0804 F525
G1 X145.042 Y155.461 E0.1043
G1 X145.036 Y153.652 E0.1845
G1 X145.363 Y153.617 E0.1990
G1 X145.562 Y153.597 F525
G92 E0
G1 E-3.5000 F3200
G1 Z0.585 F1000
G1 X135.638 Y155.894 F4800
G1 Z0.385 F1000
G1 E0.0000 F3200
G92 E0
G1 X135.583 Y161.806 E0.2618 F525
G1 X134.813 Y161.806 E0.2959
G1 X134.870 Y156.215 E0.5436
G1 X135.453 Y155.971 E0.5716
G1 X135.638 Y155.894 F525
G92 E0
G1 E-3.5000 F3200
G1 Z0.585 F1000
; inner perimeter
G1 X126.750 Y135.069 F4800
G1 Z0.385 F1000
G1 E0.0000 F3200
G92 E0
G1 X131.760 Y135.059 E0.2219 F438
G1 X139.705 Y135.063 E0.5736
G1 X139.705 Y137.771 E0.6935
G1 X138.314 Y136.056 E0.7913
G1 X136.051 Y136.016 E0.8915
G1 X136.047 Y136.387 E0.9079
G1 X131.779 Y137.676 E1.1054
G1 X130.427 Y139.052 E1.1908
G1 X130.327 Y148.824 E1.6235
G1 X134.006 Y147.641 E1.7946
G1 X134.073 Y141.011 E2.0882
G1 X136.012 Y140.195 E2.1814
G1 X135.947 Y147.180 E2.4907
G1 X137.780 Y146.650 E2.5751
G1 X138.211 Y147.506 E2.6176
G1 X138.071 Y147.789 E2.6316
G1 X137.965 Y148.159 E2.6486
G1 X137.928 Y148.555 E2.6662
G1 X137.965 Y148.954 E2.6840
G1 X138.074 Y149.333 E2.7014
G1 X138.202 Y149.586 E2.7140
G1 X137.491 Y150.856 E2.7784
G1 X136.285 Y150.831 E2.8318
G1 X136.281 Y151.177 E2.8472
G1 X131.975 Y152.478 E3.0463
G1 X130.644 Y153.857 E3.1312
G1 X130.557 Y162.398 E3.5094
G1 X126.750 Y162.389 E3.6780
G1 X126.750 Y135.269 E4.8788
G1 X126.750 Y135.069 F438
G92 E0
G1 E-3.5000 F3200
G1 Z0.585 F1000
G1 X139.488 Y138.748 F4800
G1 Z0.385 F1000
G1 E0.0000 F3200
G92 E0
G1 X140.460 Y138.640 E0.0433 F438
G1 X140.467 Y140.775 E0.1379
G1 X139.752 Y140.812 E0.1696
G1 X139.464 Y140.886 E0.1827
G1 X139.486 Y138.948 E0.2685
G1 X139.488 Y138.748 F438
G92 E0
G1 E-3.5000 F3200
G1 Z0.585 F1000
