; G-Code generated by Simplify3D(R) Version 3.1.1
; May 10, 2017 at 1:04:15 AM
; Settings Summary
;   processName,Process1
;   applyToModels,GPSV3
;   profileName,LulzBot TAZ 6 Dual(5) (modified)
;   profileVersion,2017-02-17 02:12:56
;   baseProfile,
;   printMaterial,
;   printQuality,
;   printExtruders,
;   extruderName,Back Extruder,Front Extruder
;   extruderToolheadNumber,0,1
;   extruderDiameter,0.4,0.5
;   extruderAutoWidth,1,1
;   extruderWidth,0.48,0.6
;   extrusionMultiplier,2.94,1.2
;   extruderUseRetract,1,1
;   extruderRetractionDistance,1.5,3
;   extruderExtraRestartDistance,0,0
;   extruderRetractionZLift,0.2,0.25
;   extruderRetractionSpeed,1800,3200
;   extruderUseCoasting,0,1
;   extruderCoastingDistance,0.2,2.2
;   extruderUseWipe,0,0
;   extruderWipeDistance,5,5
;   primaryExtruder,1
;   layerHeight,0.1
;   topSolidLayers,5
;   bottomSolidLayers,5
;   perimeterOutlines,3
;   printPerimetersInsideOut,1
;   startPointOption,1
;   startPointOriginX,0
;   startPointOriginY,0
;   startPointOriginZ,0
;   sequentialIslands,0
;   spiralVaseMode,0
;   firstLayerHeightPercentage,100
;   firstLayerWidthPercentage,105
;   firstLayerUnderspeed,0.5
;   useRaft,0
;   raftExtruder,0
;   raftLayers,3
;   raftOffset,3
;   raftSeparationDistance,0.14
;   raftInfill,85
;   disableRaftBaseLayers,0
;   useSkirt,1
;   skirtExtruder,1
;   skirtLayers,3
;   skirtOutlines,3
;   skirtOffset,10
;   usePrimePillar,0
;   primePillarExtruder,999
;   primePillarWidth,12
;   primePillarLocation,7
;   primePillarSpeedMultiplier,1
;   useOozeShield,0
;   oozeShieldExtruder,999
;   oozeShieldOffset,2
;   oozeShieldOutlines,1
;   oozeShieldSidewallShape,1
;   oozeShieldSidewallAngle,30
;   oozeShieldSpeedMultiplier,1
;   infillExtruder,1
;   internalInfillPattern,Rectilinear
;   externalInfillPattern,Rectilinear
;   infillPercentage,30
;   outlineOverlapPercentage,15
;   infillExtrusionWidthPercentage,200
;   minInfillLength,5
;   infillLayerInterval,1
;   infillAngles,45,-45
;   overlapInfillAngles,0
;   generateSupport,0
;   supportExtruder,0
;   supportInfillPercentage,30
;   supportExtraInflation,0
;   denseSupportLayers,1
;   denseSupportInfillPercentage,70
;   supportLayerInterval,1
;   supportHorizontalPartOffset,0.3
;   supportUpperSeparationLayers,1
;   supportLowerSeparationLayers,1
;   supportType,0
;   supportGridSpacing,4
;   maxOverhangAngle,45
;   supportAngles,0
;   temperatureName,Back Extruder,Front Extruder,Heated Bed
;   temperatureNumber,0,1,0
;   temperatureSetpointCount,1,1,1
;   temperatureSetpointLayers,1,1,1
;   temperatureSetpointTemperatures,195,225,60
;   temperatureStabilizeAtStartup,1,1,1
;   temperatureHeatedBed,0,0,1
;   temperatureRelayBetweenLayers,0,0,0
;   temperatureRelayBetweenLoops,0,0,0
;   fanLayers,1,2
;   fanSpeeds,0,100
;   blipFanToFullPower,1
;   adjustSpeedForCooling,1
;   minSpeedLayerTime,15
;   minCoolingSpeedSlowdown,20
;   increaseFanForCooling,0
;   minFanLayerTime,45
;   maxCoolingFanSpeed,100
;   increaseFanForBridging,0
;   bridgingFanSpeed,100
;   use5D,1
;   relativeEdistances,0
;   allowEaxisZeroing,1
;   independentExtruderAxes,0
;   includeM10123,0
;   stickySupport,1
;   applyToolheadOffsets,1
;   gcodeXoffset,0
;   gcodeYoffset,0
;   gcodeZoffset,0
;   overrideMachineDefinition,1
;   machineTypeOverride,0
;   strokeXoverride,280
;   strokeYoverride,280
;   strokeZoverride,250
;   originOffsetXoverride,0
;   originOffsetYoverride,0
;   originOffsetZoverride,0
;   homeXdirOverride,-1
;   homeYdirOverride,-1
;   homeZdirOverride,-1
;   flipXoverride,1
;   flipYoverride,-1
;   flipZoverride,1
;   toolheadOffsets,0,0|0,50|0,0|0,0|0,0|0,0
;   overrideFirmwareConfiguration,1
;   firmwareTypeOverride,RepRap (Marlin/Repetier/Sprinter)
;   GPXconfigOverride,r2
;   baudRateOverride,250000
;   overridePrinterModels,1
;   printerModelsOverride,LulzBot_TAZ6.stl
;   startingGcode,G26 ; clear probe fail condition,M140 S[bed0_temperature] ; start heating bed,M104 S170 T0 ; start heating back extruder,M104 S170 T1 ; start heating front extruder,G28 XY ; home X and Y,T0 ; select this extruder first,G1 X-19 Y258 F1000 ; move to safe homing position,M109 S170 T0 ; soften filament for Z homing,M109 S170 T1 ; soften filament for Z homing,G28 Z ; home Z,G92 E0 ; zero extruder,G1 E-12 F100 ; retract 12mm filament,T1 ; switch extruders,G92 E0 ; zero extruder,G1 E-12 F100 ; retract 12mm filament,T0 ; switch extruders,G1 X-17 Y100 F3000 ; move above wiper pad,G1 Z1 ; push nozzle into wiper,G1 X-19 Y95 F1000 ; slow wipe,G1 X-17 Y90 F1000 ; slow wipe,G1 X-19 Y85 F1000 ; slow wipe,G1 X-17 Y90 F1000 ; slow wipe,G1 X-19 Y80 F1000 ; slow wipe,G1 X-17 Y95 F1000 ; slow wipe,G1 X-19 Y75 F2000 ; fast wipe,G1 X-17 Y85 F2000 ; fast wipe,G1 X-19 Y80 F2000 ; fast wipe,G1 X-17 Y70 F2000 ; fast wipe,G1 X-19 Y75 F2000 ; fast wipe,G1 X-17 Y95 F1000 ; slow wipe,G1 X-19 Y90 F1000 ; slow wipe,G1 X-17 Y85 F1000 ; slow wipe,G1 X-19 Y90 F1000 ; slow wipe,G1 X-17 Y80 F1000 ; slow wipe,G1 X-19 Y95 F1000 ; slow wipe,G1 X-17 Y75 F2000 ; fast wipe,G1 X-19 Y85 F2000 ; fast wipe,G1 X-17 Y80 F2000 ; fast wipe,G1 X-19 Y90 F2000 ; fast wipe,G1 X-17 Y85 F2000 ; fast wipe,G1 Z10 ; raise extruder,G1 X-9 Y-9 ; move above first probe point,M204 S100 ; set accel for probing,G29 ; probe sequence (for auto-leveling),M204 S500 ; set accel back to normal,G1 X0 Y0 Z15 F5000 ; get out of the way,M400 ; clear buffer,M117 Heating...,M104 S[extruder0_temperature] T0 ; start heating back extruder,M104 S[extruder1_temperature] T1 ; start heating front extruder,M190 S[bed0_temperature] ; stabilize bed,M109 S[extruder0_temperature] T0 ; stabilize back extruder,M109 S[extruder1_temperature] T1 ; stabilize front extruder,T1 ; switch to front extruder,G1 E0 F100 ; extrude filament back into nozzle,T0 ; switch to back extruder,G92 E-12 ; adjust E value,G1 Z2 E0 F100 ; extrude filament back into nozzle,M117 TAZ Printing...,
;   layerChangeGcode,
;   retractionGcode,
;   toolChangeGcode,
;   endingGcode,M400 ; wait for moves to finish,M104 S0 T0 ; turn off back extruder,M104 S0 T1 ; turn off front extruder,M107 ; turn off fan,G1 Y0 F3000 ; move to cooling position,M117 Cooling please wait,M190 S50 ; cool down bed,G1 Y280 F3000 ; present finished print,M140 S0 ; turn off bed,M84 ; disable motors,M117 QQ Print Finished!
;   exportFileFormat,gcode
;   celebration,0
;   celebrationSong,Random Song
;   postProcessing,
;   defaultSpeed,1500
;   outlineUnderspeed,0.5
;   solidInfillUnderspeed,0.5
;   supportUnderspeed,0.8
;   rapidXYspeed,4800
;   rapidZspeed,1000
;   minBridgingArea,50
;   bridgingExtraInflation,0
;   bridgingExtrusionMultiplier,1.1
;   bridgingSpeedMultiplier,1.2
;   filamentDiameter,2.89
;   filamentPricePerKg,46
;   filamentDensity,1.25
;   useMinPrintHeight,0
;   minPrintHeight,0
;   useMaxPrintHeight,0
;   maxPrintHeight,0
;   useDiaphragm,0
;   diaphragmLayerInterval,20
;   robustSlicing,1
;   mergeAllIntoSolid,0
;   onlyRetractWhenCrossingOutline,0
;   retractBetweenLayers,1
;   useRetractionMinTravel,0
;   retractionMinTravel,3
;   retractWhileWiping,1
;   onlyWipeOutlines,1
;   avoidCrossingOutline,0
;   maxMovementDetourFactor,3
;   toolChangeRetractionDistance,12
;   toolChangeExtraRestartDistance,-0.5
;   toolChangeRetractionSpeed,600
;   allowThinWallGapFill,0
;   thinWallAllowedOverlapPercentage,20
;   horizontalSizeCompensation,0
G90
M82
M106 S0
G26 ; clear probe fail condition
M140 S60 ; start heating bed
M104 S170 T0 ; start heating back extruder
M104 S170 T1 ; start heating front extruder
G28 XY ; home X and Y
T0 ; select this extruder first
G1 X-19 Y258 F1000 ; move to safe homing position
M109 S170 T0 ; soften filament for Z homing
M109 S170 T1 ; soften filament for Z homing
G28 Z ; home Z
G92 E0 ; zero extruder
G1 E-12 F100 ; retract 12mm filament
T1 ; switch extruders
G92 E0 ; zero extruder
G1 E-12 F100 ; retract 12mm filament
T0 ; switch extruders
G1 X-17 Y100 F3000 ; move above wiper pad
G1 Z1 ; push nozzle into wiper
G1 X-19 Y95 F1000 ; slow wipe
G1 X-17 Y90 F1000 ; slow wipe
G1 X-19 Y85 F1000 ; slow wipe
G1 X-17 Y90 F1000 ; slow wipe
G1 X-19 Y80 F1000 ; slow wipe
G1 X-17 Y95 F1000 ; slow wipe
G1 X-19 Y75 F2000 ; fast wipe
G1 X-17 Y85 F2000 ; fast wipe
G1 X-19 Y80 F2000 ; fast wipe
G1 X-17 Y70 F2000 ; fast wipe
G1 X-19 Y75 F2000 ; fast wipe
G1 X-17 Y95 F1000 ; slow wipe
G1 X-19 Y90 F1000 ; slow wipe
G1 X-17 Y85 F1000 ; slow wipe
G1 X-19 Y90 F1000 ; slow wipe
G1 X-17 Y80 F1000 ; slow wipe
G1 X-19 Y95 F1000 ; slow wipe
G1 X-17 Y75 F2000 ; fast wipe
G1 X-19 Y85 F2000 ; fast wipe
G1 X-17 Y80 F2000 ; fast wipe
G1 X-19 Y90 F2000 ; fast wipe
G1 X-17 Y85 F2000 ; fast wipe
G1 Z10 ; raise extruder
G1 X-9 Y-9 ; move above first probe point
M204 S100 ; set accel for probing
G29 ; probe sequence (for auto-leveling)
M204 S500 ; set accel back to normal
G1 X0 Y0 Z15 F5000 ; get out of the way
M400 ; clear buffer
M117 Heating...
M104 S195 T0 ; start heating back extruder
M104 S225 T1 ; start heating front extruder
M190 S60 ; stabilize bed
M109 S195 T0 ; stabilize back extruder
M109 S225 T1 ; stabilize front extruder
T1 ; switch to front extruder
G1 E0 F100 ; extrude filament back into nozzle
T0 ; switch to back extruder
G92 E-12 ; adjust E value
G1 Z2 E0 F100 ; extrude filament back into nozzle
M117 TAZ Printing...
G92 E0
G1 E-3.0000 F3200
G1 Z0.350 F1000
; layer 1, Z = 0.1
T1
; tool H0.100 W0.630
; skirt
G1 X120.842 Y172.768 F4800
G1 Z0.100 F1000
G1 E0.0000 F960
G92 E0
G1 X121.393 Y172.539 E0.0069 F750
G1 X133.158 Y172.515 E0.1425
G1 X133.174 Y172.515 E0.1426
G1 X158.596 Y172.533 E0.4356
G1 X159.147 Y172.762 E0.4425
G1 X165.422 Y179.041 E0.5448
G1 X165.650 Y179.592 E0.5517
G1 X165.650 Y217.886 E0.9930
G1 X165.422 Y218.438 E0.9999
G1 X159.142 Y224.717 E1.1022
G1 X158.590 Y224.946 E1.1091
G1 X121.410 Y224.946 E1.5376
G1 X120.858 Y224.717 E1.5445
G1 X114.578 Y218.438 E1.6468
G1 X114.350 Y217.886 E1.6537
G1 X114.350 Y179.596 E2.0950
G1 X114.578 Y179.045 E2.1019
G1 X119.290 Y174.324 E2.1788
G1 X120.842 Y172.768 F750
G92 E0
G1 E-3.0000 F3200
G1 Z0.350 F1000
G1 X121.183 Y173.276 F4800
G1 Z0.100 F1000
G1 E0.0000 F3200
G92 E0
G1 X121.513 Y173.139 E0.0041 F750
G1 X133.160 Y173.115 E0.1383
G1 X133.174 Y173.115 E0.1385
G1 X158.477 Y173.133 E0.4301
G1 X158.807 Y173.270 E0.4342
G1 X164.913 Y179.380 E0.5338
G1 X165.050 Y179.711 E0.5379
G1 X165.050 Y217.767 E0.9765
G1 X164.913 Y218.098 E0.9806
G1 X158.802 Y224.209 E1.0802
G1 X158.471 Y224.346 E1.0844
G1 X121.529 Y224.346 E1.5101
G1 X121.198 Y224.209 E1.5142
G1 X115.087 Y218.098 E1.6138
G1 X114.950 Y217.767 E1.6180
G1 X114.950 Y179.715 E2.0565
G1 X115.087 Y179.385 E2.0606
G1 X119.630 Y174.833 E2.1347
G1 X121.183 Y173.276 F750
G92 E0
G1 E-3.0000 F3200
G1 Z0.350 F1000
G1 X121.523 Y173.784 F4800
G1 Z0.100 F1000
G1 E0.0000 F3200
G92 E0
G1 X121.633 Y173.739 E0.0014 F750
G1 X133.161 Y173.715 E0.1342
G1 X133.175 Y173.715 E0.1344
G1 X158.357 Y173.733 E0.4246
G1 X158.467 Y173.779 E0.4260
G1 X164.404 Y179.720 E0.5228
G1 X164.450 Y179.830 E0.5242
G1 X164.450 Y217.648 E0.9600
G1 X164.404 Y217.758 E0.9614
G1 X158.462 Y223.700 E1.0582
G1 X158.352 Y223.746 E1.0596
G1 X121.648 Y223.746 E1.4826
G1 X121.538 Y223.700 E1.4840
G1 X115.596 Y217.758 E1.5808
G1 X115.550 Y217.648 E1.5822
G1 X115.550 Y179.834 E2.0180
G1 X115.596 Y179.724 E2.0194
G1 X119.970 Y175.341 E2.0907
G1 X121.523 Y173.784 F750
G92 E0
G1 E-3.0000 F3200
G1 Z0.350 F1000
; inner perimeter
G1 X145.111 Y203.706 F4800
G1 Z0.100 F1000
G1 E0.0000 F3200
G92 E0
G1 X145.488 Y203.703 E0.0043 F625
G1 X145.503 Y205.207 E0.0217
G1 X145.504 Y205.345 F625
G1 X145.117 Y205.379 F625
G1 X145.111 Y203.706 F625
G92 E0
G1 E-3.0000 F3200
G1 Z0.350 F1000
G1 X145.437 Y198.559 F4800
G1 Z0.100 F1000
G1 E0.0000 F3200
G92 E0
G1 X142.812 Y198.814 E0.0304 F625
G1 X142.840 Y198.579 E0.0331
G1 X142.787 Y198.015 E0.0397
G1 X142.648 Y197.545 E0.0453
G1 X142.783 Y197.305 E0.0485
G1 X143.004 Y197.077 E0.0521
G1 X143.400 Y196.501 E0.0602
G1 X143.698 Y195.857 E0.0684
G1 X143.738 Y195.712 E0.0701
G1 X148.614 Y195.272 E0.1265
G1 X150.448 Y193.407 E0.1567
G1 X150.374 Y186.183 E0.2399
G1 X152.575 Y186.190 E0.2653
G1 X152.575 Y211.233 E0.5539
G1 X145.925 Y211.256 E0.6305
G1 X140.330 Y211.256 E0.6950
G1 X140.354 Y209.022 E0.7208
G1 X141.967 Y210.693 E0.7475
G1 X148.813 Y210.091 E0.8267
G1 X150.649 Y208.224 E0.8569
G1 X150.569 Y200.462 E0.9464
G1 X148.682 Y198.319 E0.9793
G1 X147.568 Y198.395 E0.9921
G1 X147.498 Y198.400 F625
G1 X147.498 Y198.358 F625
G1 X146.092 Y198.495 F625
G1 X145.437 Y198.539 F625
G1 X145.437 Y198.559 F625
G92 E0
G1 E-3.0000 F3200
G1 Z0.350 F1000
G1 X144.916 Y190.562 F4800
G1 Z0.100 F1000
G1 E0.0000 F3200
G92 E0
G1 X144.911 Y188.885 E0.0193 F625
G1 X145.121 Y188.883 E0.0218
G1 X145.287 Y188.882 F625
G1 X145.304 Y190.527 F625
G1 X144.916 Y190.562 F625
G92 E0
G1 E-3.0000 F3200
G1 Z0.350 F1000
G1 X135.327 Y191.216 F4800
G1 Z0.100 F1000
G1 E0.0000 F3200
G92 E0
G1 X135.264 Y198.080 E0.0791 F625
G1 X137.470 Y197.443 E0.1056
G1 X137.300 Y198.026 E0.1126
G1 X137.251 Y198.547 E0.1186
G1 X137.298 Y199.071 E0.1247
G1 X137.439 Y199.568 E0.1306
G1 X137.100 Y200.173 E0.1386
G1 X135.616 Y200.143 E0.1557
G1 X135.611 Y200.675 E0.1619
G1 X131.612 Y201.882 E0.2100
G1 X129.972 Y203.582 E0.2372
G1 X129.893 Y211.241 E0.3255
G1 X127.425 Y211.233 E0.3539
G1 X127.425 Y186.190 E0.6426
G1 X132.292 Y186.175 E0.6987
G1 X133.296 Y186.175 E0.7102
G1 X133.343 Y186.498 E0.7140
G1 X131.418 Y187.079 E0.7372
G1 X129.754 Y188.773 E0.7645
G1 X129.642 Y199.753 E0.8911
G1 X134.676 Y198.135 E0.9520
G1 X134.728 Y193.028 E1.0109
G1 X134.744 Y191.461 F625
G1 X135.327 Y191.216 F625
G92 E0
G1 E-3.0000 F3200
G1 Z0.350 F1000
G1 X135.562 Y206.007 F4800
G1 Z0.100 F1000
G1 E0.0000 F3200
G92 E0
G1 X135.513 Y211.256 E0.0605 F625
G1 X134.893 Y211.256 E0.0676
G1 X134.929 Y207.795 E0.1075
G1 X134.944 Y206.265 F625
G1 X135.562 Y206.007 F625
G92 E0
G1 E-3.0000 F3200
G1 Z0.350 F1000
; inner perimeter
G1 X140.683 Y203.507 F4800
G1 Z0.100 F1000
G1 E0.0000 F3200
G92 E0
G1 X140.698 Y208.471 E0.0572 F500
G1 X142.212 Y210.039 E0.0823
G1 X148.527 Y209.484 E0.1554
G1 X150.016 Y207.969 E0.1799
G1 X149.941 Y200.703 E0.2636
G1 X148.415 Y198.969 E0.2902
G1 X146.868 Y199.074 E0.3081
G1 X146.868 Y199.053 E0.3083
G1 X146.144 Y199.123 E0.3167
G1 X146.073 Y199.128 E0.3175
G1 X146.073 Y199.130 E0.3176
G1 X141.977 Y199.528 E0.3650
G1 X142.151 Y199.034 E0.3710
G1 X142.207 Y198.571 E0.3764
G1 X142.165 Y198.135 E0.3815
G1 X142.047 Y197.736 E0.3863
G1 X141.937 Y197.522 E0.3890
G1 X142.274 Y196.924 E0.3969
G1 X142.515 Y196.676 E0.4009
G1 X142.851 Y196.188 E0.4078
G1 X143.105 Y195.638 E0.4147
G1 X143.210 Y195.265 E0.4192
G1 X143.291 Y195.120 E0.4211
G1 X148.327 Y194.665 E0.4794
G1 X149.815 Y193.151 E0.5039
G1 X149.741 Y185.886 E0.5876
G1 X149.446 Y185.551 E0.5927
G1 X153.205 Y185.562 E0.6361
G1 X153.205 Y211.861 E0.9392
G1 X145.927 Y211.886 E1.0230
G1 X137.899 Y211.886 E1.1156
G1 X137.852 Y211.561 E1.1193
G1 X139.702 Y211.024 E1.1415
G1 X139.769 Y204.902 E1.2121
G1 X139.783 Y203.607 F500
G1 X140.683 Y203.507 F500
G92 E0
G1 E-3.0000 F3200
G1 Z0.350 F1000
G1 X139.927 Y202.485 F4800
G1 Z0.100 F1000
G1 E0.0000 F3200
G92 E0
G1 X139.531 Y201.993 E0.0073 F500
G1 X139.501 Y201.956 F500
G1 X139.927 Y201.201 F500
G1 X139.927 Y202.485 F500
G92 E0
G1 E-3.0000 F3200
G1 Z0.350 F1000
G1 X137.465 Y200.810 F4800
G1 Z0.100 F1000
G1 E0.0000 F3200
G92 E0
G1 X136.240 Y200.786 E0.0141 F500
G1 X136.237 Y201.144 E0.0182
G1 X131.951 Y202.438 E0.0698
G1 X130.599 Y203.839 E0.0923
G1 X130.517 Y211.873 E0.1849
G1 X126.795 Y211.861 E0.2278
G1 X126.795 Y185.562 E0.5309
G1 X132.294 Y185.545 E0.5942
G1 X139.660 Y185.545 E0.6791
G1 X139.660 Y187.644 E0.7033
G1 X138.335 Y186.012 E0.7275
G1 X136.006 Y185.970 E0.7544
G1 X136.002 Y186.353 E0.7588
G1 X131.755 Y187.636 E0.8099
G1 X130.382 Y189.033 E0.8325
G1 X130.281 Y198.886 E0.9461
G1 X134.050 Y197.674 E0.9917
G1 X134.118 Y191.041 E1.0682
G1 X135.966 Y190.263 E1.0913
G1 X135.902 Y197.240 E1.1717
G1 X137.756 Y196.704 E1.1939
G1 X138.161 Y197.507 E1.2043
G1 X138.031 Y197.767 E1.2076
G1 X137.922 Y198.145 E1.2122
