; G-Code generated by Simplify3D(R) Version 3.1.1
; May 9, 2017 at 3:47:05 PM
; Settings Summary
;   processName,GPS Mount
;   applyToModels,QQ190 gps mount 2
;   profileName,LulzBot TAZ 6 Dual(4) (modified)
;   profileVersion,2017-02-17 02:12:56
;   baseProfile,
;   printMaterial,
;   printQuality,
;   printExtruders,
;   extruderName,Back Extruder,Front Extruder
;   extruderToolheadNumber,0,1
;   extruderDiameter,0.4,0.5
;   extruderAutoWidth,1,1
;   extruderWidth,0.48,0.6
;   extrusionMultiplier,2.94,1.15
;   extruderUseRetract,1,1
;   extruderRetractionDistance,1.5,3
;   extruderExtraRestartDistance,0,0
;   extruderRetractionZLift,0.2,0.25
;   extruderRetractionSpeed,1800,3200
;   extruderUseCoasting,0,1
;   extruderCoastingDistance,0.2,2.2
;   extruderUseWipe,0,0
;   extruderWipeDistance,5,5
;   primaryExtruder,1
;   layerHeight,0.2
;   topSolidLayers,5
;   bottomSolidLayers,7
;   perimeterOutlines,3
;   printPerimetersInsideOut,1
;   startPointOption,1
;   startPointOriginX,0
;   startPointOriginY,0
;   startPointOriginZ,0
;   sequentialIslands,0
;   spiralVaseMode,0
;   firstLayerHeightPercentage,100
;   firstLayerWidthPercentage,100
;   firstLayerUnderspeed,0.5
;   useRaft,0
;   raftExtruder,0
;   raftLayers,3
;   raftOffset,3
;   raftSeparationDistance,0.14
;   raftInfill,85
;   disableRaftBaseLayers,0
;   useSkirt,1
;   skirtExtruder,1
;   skirtLayers,3
;   skirtOutlines,3
;   skirtOffset,10
;   usePrimePillar,0
;   primePillarExtruder,999
;   primePillarWidth,12
;   primePillarLocation,7
;   primePillarSpeedMultiplier,1
;   useOozeShield,0
;   oozeShieldExtruder,999
;   oozeShieldOffset,2
;   oozeShieldOutlines,1
;   oozeShieldSidewallShape,1
;   oozeShieldSidewallAngle,30
;   oozeShieldSpeedMultiplier,1
;   infillExtruder,1
;   internalInfillPattern,Rectilinear
;   externalInfillPattern,Rectilinear
;   infillPercentage,30
;   outlineOverlapPercentage,15
;   infillExtrusionWidthPercentage,200
;   minInfillLength,5
;   infillLayerInterval,1
;   infillAngles,45,-45
;   overlapInfillAngles,0
;   generateSupport,0
;   supportExtruder,0
;   supportInfillPercentage,30
;   supportExtraInflation,0
;   denseSupportLayers,1
;   denseSupportInfillPercentage,70
;   supportLayerInterval,1
;   supportHorizontalPartOffset,0.3
;   supportUpperSeparationLayers,1
;   supportLowerSeparationLayers,1
;   supportType,0
;   supportGridSpacing,4
;   maxOverhangAngle,45
;   supportAngles,0
;   temperatureName,Back Extruder,Front Extruder,Heated Bed
;   temperatureNumber,0,1,0
;   temperatureSetpointCount,1,1,1
;   temperatureSetpointLayers,1,1,1
;   temperatureSetpointTemperatures,195,225,60
;   temperatureStabilizeAtStartup,1,1,1
;   temperatureHeatedBed,0,0,1
;   temperatureRelayBetweenLayers,0,0,0
;   temperatureRelayBetweenLoops,0,0,0
;   fanLayers,1,2
;   fanSpeeds,0,100
;   blipFanToFullPower,1
;   adjustSpeedForCooling,1
;   minSpeedLayerTime,15
;   minCoolingSpeedSlowdown,20
;   increaseFanForCooling,0
;   minFanLayerTime,45
;   maxCoolingFanSpeed,100
;   increaseFanForBridging,0
;   bridgingFanSpeed,100
;   use5D,1
;   relativeEdistances,0
;   allowEaxisZeroing,1
;   independentExtruderAxes,0
;   includeM10123,0
;   stickySupport,1
;   applyToolheadOffsets,1
;   gcodeXoffset,0
;   gcodeYoffset,0
;   gcodeZoffset,0
;   overrideMachineDefinition,1
;   machineTypeOverride,0
;   strokeXoverride,280
;   strokeYoverride,280
;   strokeZoverride,250
;   originOffsetXoverride,0
;   originOffsetYoverride,0
;   originOffsetZoverride,0
;   homeXdirOverride,-1
;   homeYdirOverride,-1
;   homeZdirOverride,-1
;   flipXoverride,1
;   flipYoverride,-1
;   flipZoverride,1
;   toolheadOffsets,0,0|0,50|0,0|0,0|0,0|0,0
;   overrideFirmwareConfiguration,1
;   firmwareTypeOverride,RepRap (Marlin/Repetier/Sprinter)
;   GPXconfigOverride,r2
;   baudRateOverride,250000
;   overridePrinterModels,1
;   printerModelsOverride,LulzBot_TAZ6.stl
;   startingGcode,G26 ; clear probe fail condition,M140 S[bed0_temperature] ; start heating bed,M104 S170 T0 ; start heating back extruder,M104 S170 T1 ; start heating front extruder,G28 XY ; home X and Y,T0 ; select this extruder first,G1 X-19 Y258 F1000 ; move to safe homing position,M109 S170 T0 ; soften filament for Z homing,M109 S170 T1 ; soften filament for Z homing,G28 Z ; home Z,G92 E0 ; zero extruder,G1 E-12 F100 ; retract 12mm filament,T1 ; switch extruders,G92 E0 ; zero extruder,G1 E-12 F100 ; retract 12mm filament,T0 ; switch extruders,G1 X-17 Y100 F3000 ; move above wiper pad,G1 Z1 ; push nozzle into wiper,G1 X-19 Y95 F1000 ; slow wipe,G1 X-17 Y90 F1000 ; slow wipe,G1 X-19 Y85 F1000 ; slow wipe,G1 X-17 Y90 F1000 ; slow wipe,G1 X-19 Y80 F1000 ; slow wipe,G1 X-17 Y95 F1000 ; slow wipe,G1 X-19 Y75 F2000 ; fast wipe,G1 X-17 Y85 F2000 ; fast wipe,G1 X-19 Y80 F2000 ; fast wipe,G1 X-17 Y70 F2000 ; fast wipe,G1 X-19 Y75 F2000 ; fast wipe,G1 X-17 Y95 F1000 ; slow wipe,G1 X-19 Y90 F1000 ; slow wipe,G1 X-17 Y85 F1000 ; slow wipe,G1 X-19 Y90 F1000 ; slow wipe,G1 X-17 Y80 F1000 ; slow wipe,G1 X-19 Y95 F1000 ; slow wipe,G1 X-17 Y75 F2000 ; fast wipe,G1 X-19 Y85 F2000 ; fast wipe,G1 X-17 Y80 F2000 ; fast wipe,G1 X-19 Y90 F2000 ; fast wipe,G1 X-17 Y85 F2000 ; fast wipe,G1 Z10 ; raise extruder,G1 X-9 Y-9 ; move above first probe point,M204 S100 ; set accel for probing,G29 ; probe sequence (for auto-leveling),M204 S500 ; set accel back to normal,G1 X0 Y0 Z15 F5000 ; get out of the way,M400 ; clear buffer,M117 Heating...,M104 S[extruder0_temperature] T0 ; start heating back extruder,M104 S[extruder1_temperature] T1 ; start heating front extruder,M190 S[bed0_temperature] ; stabilize bed,M109 S[extruder0_temperature] T0 ; stabilize back extruder,M109 S[extruder1_temperature] T1 ; stabilize front extruder,T1 ; switch to front extruder,G1 E0 F100 ; extrude filament back into nozzle,T0 ; switch to back extruder,G92 E-12 ; adjust E value,G1 Z2 E0 F100 ; extrude filament back into nozzle,M117 TAZ Printing...,
;   layerChangeGcode,
;   retractionGcode,
;   toolChangeGcode,
;   endingGcode,M400 ; wait for moves to finish,M104 S0 T0 ; turn off back extruder,M104 S0 T1 ; turn off front extruder,M107 ; turn off fan,G1 Y0 F3000 ; move to cooling position,M117 Cooling please wait,M190 S50 ; cool down bed,G1 Y280 F3000 ; present finished print,M140 S0 ; turn off bed,M84 ; disable motors,M117 QQ Print Finished!
;   exportFileFormat,gcode
;   celebration,0
;   celebrationSong,Random Song
;   postProcessing,
;   defaultSpeed,3000
;   outlineUnderspeed,0.5
;   solidInfillUnderspeed,0.8
;   supportUnderspeed,0.8
;   rapidXYspeed,4800
;   rapidZspeed,1000
;   minBridgingArea,50
;   bridgingExtraInflation,0
;   bridgingExtrusionMultiplier,1
;   bridgingSpeedMultiplier,1
;   filamentDiameter,2.89
;   filamentPricePerKg,46
;   filamentDensity,1.25
;   useMinPrintHeight,0
;   minPrintHeight,0
;   useMaxPrintHeight,0
;   maxPrintHeight,0
;   useDiaphragm,0
;   diaphragmLayerInterval,20
;   robustSlicing,1
;   mergeAllIntoSolid,0
;   onlyRetractWhenCrossingOutline,1
;   retractBetweenLayers,1
;   useRetractionMinTravel,0
;   retractionMinTravel,3
;   retractWhileWiping,0
;   onlyWipeOutlines,1
;   avoidCrossingOutline,0
;   maxMovementDetourFactor,3
;   toolChangeRetractionDistance,12
;   toolChangeExtraRestartDistance,-0.5
;   toolChangeRetractionSpeed,600
;   allowThinWallGapFill,1
;   thinWallAllowedOverlapPercentage,20
;   horizontalSizeCompensation,0
G90
M82
M106 S0
G26 ; clear probe fail condition
M140 S60 ; start heating bed
M104 S170 T0 ; start heating back extruder
M104 S170 T1 ; start heating front extruder
G28 XY ; home X and Y
T0 ; select this extruder first
G1 X-19 Y258 F1000 ; move to safe homing position
M109 S170 T0 ; soften filament for Z homing
M109 S170 T1 ; soften filament for Z homing
G28 Z ; home Z
G92 E0 ; zero extruder
G1 E-12 F100 ; retract 12mm filament
T1 ; switch extruders
G92 E0 ; zero extruder
G1 E-12 F100 ; retract 12mm filament
T0 ; switch extruders
G1 X-17 Y100 F3000 ; move above wiper pad
G1 Z1 ; push nozzle into wiper
G1 X-19 Y95 F1000 ; slow wipe
G1 X-17 Y90 F1000 ; slow wipe
G1 X-19 Y85 F1000 ; slow wipe
G1 X-17 Y90 F1000 ; slow wipe
G1 X-19 Y80 F1000 ; slow wipe
G1 X-17 Y95 F1000 ; slow wipe
G1 X-19 Y75 F2000 ; fast wipe
G1 X-17 Y85 F2000 ; fast wipe
G1 X-19 Y80 F2000 ; fast wipe
G1 X-17 Y70 F2000 ; fast wipe
G1 X-19 Y75 F2000 ; fast wipe
G1 X-17 Y95 F1000 ; slow wipe
G1 X-19 Y90 F1000 ; slow wipe
G1 X-17 Y85 F1000 ; slow wipe
G1 X-19 Y90 F1000 ; slow wipe
G1 X-17 Y80 F1000 ; slow wipe
G1 X-19 Y95 F1000 ; slow wipe
G1 X-17 Y75 F2000 ; fast wipe
G1 X-19 Y85 F2000 ; fast wipe
G1 X-17 Y80 F2000 ; fast wipe
G1 X-19 Y90 F2000 ; fast wipe
G1 X-17 Y85 F2000 ; fast wipe
G1 Z10 ; raise extruder
G1 X-9 Y-9 ; move above first probe point
M204 S100 ; set accel for probing
G29 ; probe sequence (for auto-leveling)
M204 S500 ; set accel back to normal
G1 X0 Y0 Z15 F5000 ; get out of the way
M400 ; clear buffer
M117 Heating...
M104 S195 T0 ; start heating back extruder
M104 S225 T1 ; start heating front extruder
M190 S60 ; stabilize bed
M109 S195 T0 ; stabilize back extruder
M109 S225 T1 ; stabilize front extruder
T1 ; switch to front extruder
G1 E0 F100 ; extrude filament back into nozzle
T0 ; switch to back extruder
G92 E-12 ; adjust E value
G1 Z2 E0 F100 ; extrude filament back into nozzle
M117 TAZ Printing...
G92 E0
G1 E-3.0000 F3200
G1 Z0.450 F1000
; layer 1, Z = 0.2
T1
; tool H0.200 W0.600
; skirt
G1 X120.858 Y172.279 F4800
G1 Z0.200 F1000
G1 E0.0000 F960
G92 E0
G1 X121.409 Y172.051 E0.0126 F1500
G1 X158.590 Y172.051 E0.7947
G1 X159.142 Y172.279 E0.8073
G1 X165.422 Y178.559 E0.9941
G1 X165.650 Y179.110 E1.0067
G1 X165.650 Y218.379 E1.8328
G1 X165.421 Y218.930 E1.8454
G1 X159.137 Y225.211 E2.0323
G1 X158.586 Y225.439 E2.0448
G1 X135.284 Y225.426 E2.5350
G1 X121.419 Y225.442 E2.8267
G1 X120.867 Y225.214 E2.8393
G1 X114.579 Y218.932 E3.0263
G1 X114.350 Y218.381 E3.0388
G1 X114.350 Y179.110 E3.8650
G1 X114.578 Y178.559 E3.8775
G1 X119.303 Y173.835 E4.0181
G1 X120.858 Y172.279 F1500
G1 X121.198 Y172.788 F4800
G92 E0
G1 X121.529 Y172.651 E0.0075 F1500
G1 X158.471 Y172.651 E0.7847
G1 X158.802 Y172.788 E0.7922
G1 X164.913 Y178.899 E0.9740
G1 X165.050 Y179.230 E0.9816
G1 X165.050 Y218.260 E1.8027
G1 X164.913 Y218.590 E1.8102
G1 X158.798 Y224.702 E1.9921
G1 X158.467 Y224.839 E1.9996
G1 X135.284 Y224.826 E2.4873
G1 X121.538 Y224.842 E2.7765
G1 X121.207 Y224.705 E2.7841
G1 X115.087 Y218.592 E2.9660
G1 X114.950 Y218.261 E2.9736
G1 X114.950 Y179.230 E3.7947
G1 X115.087 Y178.899 E3.8022
G1 X119.642 Y174.343 E3.9377
G1 X121.198 Y172.788 F1500
G1 X121.538 Y173.296 F4800
G92 E0
G1 X121.648 Y173.251 E0.0025 F1500
G1 X158.352 Y173.251 E0.7747
G1 X158.462 Y173.296 E0.7772
G1 X164.404 Y179.239 E0.9540
G1 X164.450 Y179.349 E0.9565
G1 X164.450 Y218.140 E1.7725
G1 X164.404 Y218.250 E1.7751
G1 X158.458 Y224.193 E1.9519
G1 X158.348 Y224.239 E1.9544
G1 X135.283 Y224.226 E2.4396
G1 X121.656 Y224.241 E2.7263
G1 X121.546 Y224.196 E2.7288
G1 X115.596 Y218.252 E2.9058
G1 X115.550 Y218.142 E2.9083
G1 X115.550 Y179.349 E3.7244
G1 X115.596 Y179.239 E3.7269
G1 X119.982 Y174.852 E3.8574
G1 X121.538 Y173.296 F1500
G92 E0
G1 E-3.0000 F3200
G1 Z0.450 F1000
; inner perimeter
G1 X135.283 Y211.505 F4800
G1 Z0.200 F1000
G1 E0.0000 F3200
G92 E0
G1 X127.350 Y211.522 E0.1669 F1250
G1 X127.350 Y185.925 E0.7054
G1 X130.238 Y185.917 E0.7661
G1 X144.718 Y185.928 E1.0707
G1 X149.763 Y185.917 E1.1769
G1 X152.650 Y185.925 E1.2376
G1 X152.650 Y211.523 E1.7761
G1 X137.483 Y211.508 E2.0952
G1 X135.283 Y211.505 F1250
; inner perimeter
G1 X135.283 Y212.105 F4800
G92 E0
G1 X126.750 Y212.123 E0.1795 F1000
G1 X126.750 Y185.327 E0.7432
G1 X130.240 Y185.317 E0.8166
G1 X144.717 Y185.328 E1.1212
G1 X149.762 Y185.317 E1.2273
G1 X153.250 Y185.327 E1.3007
G1 X153.250 Y212.124 E1.8645
G1 X137.483 Y212.108 E2.1962
G1 X135.283 Y212.105 F1000
G92 E0
G1 E-3.0000 F3200
G1 Z0.450 F1000
; outer perimeter
G1 X141.975 Y204.115 F4800
G1 Z0.200 F1000
G1 E0.0000 F3200
G92 E0
G1 X142.843 Y204.024 E0.0184 F750
G1 X142.857 Y205.441 E0.0482
G1 X142.773 Y205.448 E0.0499
G1 X141.980 Y205.519 F750
G1 X141.975 Y204.115 F750
G92 E0
G1 E-3.0000 F3200
G1 Z0.450 F1000
G1 X141.896 Y199.340 F4800
G1 Z0.200 F1000
G1 E0.0000 F3200
G92 E0
G1 X141.891 Y197.936 E0.0295 F750
G1 X142.759 Y197.845 E0.0479
G1 X142.760 Y197.942 E0.0499
G1 X142.773 Y199.261 F750
G1 X141.896 Y199.340 F750
G92 E0
G1 E-3.0000 F3200
G1 Z0.450 F1000
G1 X144.717 Y184.728 F4800
G1 Z0.200 F1000
G1 E0.0000 F3200
G92 E0
G1 X149.762 Y184.717 E0.1061 F750
G1 X153.850 Y184.729 E0.1921
G1 X153.850 Y212.725 E0.7811
G1 X135.283 Y212.705 E1.1717
G1 X126.150 Y212.724 E1.3638
G1 X126.150 Y184.729 E1.9528
G1 X130.238 Y184.717 E2.0388
G1 X142.517 Y184.726 E2.2971
G1 X144.717 Y184.728 F750
G92 E0
G1 E-3.0000 F3200
G1 Z0.450 F1000
; inner perimeter
; inner perimeter
; outer perimeter
G1 X140.390 Y196.218 F4800
G1 Z0.200 F1000
G1 E0.0000 F3200
G92 E0
G1 X140.799 Y196.133 E0.0088 F750
G1 X141.172 Y195.974 E0.0173
G1 X141.526 Y195.736 E0.0263
G1 X141.836 Y195.432 E0.0354
G1 X142.092 Y195.073 E0.0447
G1 X142.277 Y194.692 E0.0536
G1 X142.361 Y194.451 E0.0590
G1 X142.455 Y194.020 E0.0683
G1 X142.455 Y193.884 E0.0711
G1 X142.360 Y193.449 E0.0805
G1 X142.197 Y193.029 E0.0900
G1 X141.971 Y192.646 E0.0993
G1 X141.692 Y192.318 E0.1084
G1 X141.521 Y192.165 E0.1132
G1 X141.187 Y191.939 E0.1217
G1 X140.800 Y191.772 E0.1306
G1 X140.390 Y191.687 E0.1394
G1 X139.980 Y191.687 E0.1480
G1 X139.759 Y191.721 E0.1527
G1 X139.381 Y191.839 E0.1610
G1 X139.015 Y192.037 E0.1698
G1 X138.831 Y192.173 E0.1746
G1 X138.526 Y192.473 E0.1836
G1 X138.271 Y192.832 E0.1929
G1 X138.085 Y193.213 E0.2018
G1 X138.001 Y193.454 E0.2072
G1 X137.907 Y193.884 E0.2164
G1 X137.907 Y194.020 E0.2193
G1 X138.002 Y194.456 E0.2287
G1 X138.165 Y194.876 E0.2381
G1 X138.391 Y195.259 E0.2475
G1 X138.470 Y195.351 E0.2500
G1 X138.670 Y195.587 F750
G1 X138.841 Y195.740 F750
G1 X139.175 Y195.966 F750
G1 X139.562 Y196.132 F750
G1 X139.972 Y196.218 F750
G1 X140.390 Y196.218 F750
G92 E0
G1 E-3.0000 F3200
G1 Z0.450 F1000
; inner perimeter
G1 X144.370 Y201.531 F4800
G1 Z0.200 F1000
G1 E0.0000 F3200
G92 E0
G1 X145.405 Y200.477 E0.0311 F1250
G1 X145.365 Y196.577 E0.1131
G1 X144.088 Y195.126 E0.1538
G1 X144.088 Y195.091 E0.1545
G1 X143.385 Y195.160 E0.1694
G1 X143.518 Y194.777 E0.1779
G1 X143.655 Y194.150 E0.1914
G1 X143.655 Y193.755 E0.1997
G1 X143.513 Y193.102 E0.2138
G1 X143.281 Y192.504 E0.2273
G1 X142.952 Y191.947 E0.2409
G1 X142.553 Y191.479 E0.2538
G1 X142.261 Y191.217 E0.2621
G1 X141.766 Y190.882 E0.2747
G1 X141.163 Y190.622 E0.2885
G1 X140.513 Y190.487 E0.3024
G1 X139.887 Y190.487 E0.3156
G1 X139.486 Y190.549 E0.3241
G1 X138.913 Y190.728 E0.3368
G1 X138.369 Y191.022 E0.3498
G1 X138.050 Y191.259 E0.3581
G1 X137.610 Y191.691 E0.3711
G1 X137.235 Y192.217 E0.3847
G1 X136.975 Y192.751 E0.3972
G1 X136.844 Y193.128 E0.4056
G1 X136.707 Y193.755 E0.4191
G1 X136.707 Y194.150 E0.4274
G1 X136.850 Y194.803 E0.4414
G1 X137.082 Y195.401 E0.4550
G1 X137.439 Y196.006 E0.4697
G1 X137.436 Y196.371 E0.4774
G1 X136.172 Y196.752 E0.5052
G1 X135.089 Y197.855 E0.5377
G1 X135.026 Y203.943 E0.6658
G1 X135.181 Y203.893 E0.6692
G1 X135.117 Y210.122 E0.8002
G1 X137.470 Y209.358 E0.8523
G1 X137.470 Y209.391 E0.8530
G1 X141.174 Y208.317 E0.9341
G1 X141.175 Y208.178 E0.9370
G1 X144.260 Y207.907 E1.0022
G1 X145.489 Y206.657 E1.0390
G1 X145.455 Y203.323 E1.1092
G1 X145.449 Y202.756 F1250
G1 X144.370 Y201.531 F1250
; inner perimeter
G1 X141.611 Y202.124 F4800
G92 E0
G1 X141.567 Y201.892 E0.0050 F1000
G1 X141.884 Y201.330 E0.0185
G1 X143.905 Y201.148 E0.0612
G1 X144.803 Y200.234 E0.0882
G1 X144.768 Y196.806 E0.1603
G1 X143.842 Y195.754 E0.1898
G1 X143.488 Y195.778 E0.1972
G1 X143.488 Y195.752 E0.1978
G1 X142.259 Y195.873 E0.2237
G1 X142.609 Y195.380 E0.2365
G1 X142.832 Y194.923 E0.2472
G1 X142.940 Y194.614 E0.2541
G1 X143.055 Y194.085 E0.2654
G1 X143.055 Y193.820 E0.2710
G1 X142.936 Y193.276 E0.2827
G1 X142.739 Y192.766 E0.2942
G1 X142.461 Y192.297 E0.3057
G1 X142.123 Y191.899 E0.3167
G1 X141.891 Y191.691 E0.3232
