; G-Code generated by Simplify3D(R) Version 3.1.1
; May 9, 2017 at 5:24:01 PM
; Settings Summary
;   processName,GPS Mount
;   applyToModels,QQ190 gps mount 2
;   profileName,LulzBot TAZ 6 Dual(5) (modified)
;   profileVersion,2017-02-17 02:12:56
;   baseProfile,
;   printMaterial,
;   printQuality,
;   printExtruders,
;   extruderName,Back Extruder,Front Extruder
;   extruderToolheadNumber,0,1
;   extruderDiameter,0.4,0.5
;   extruderAutoWidth,1,1
;   extruderWidth,0.48,0.6
;   extrusionMultiplier,2.94,1.1
;   extruderUseRetract,1,1
;   extruderRetractionDistance,1.5,3
;   extruderExtraRestartDistance,0,0
;   extruderRetractionZLift,0.2,0.25
;   extruderRetractionSpeed,1800,3200
;   extruderUseCoasting,0,1
;   extruderCoastingDistance,0.2,2.2
;   extruderUseWipe,0,0
;   extruderWipeDistance,5,5
;   primaryExtruder,1
;   layerHeight,0.15
;   topSolidLayers,5
;   bottomSolidLayers,5
;   perimeterOutlines,3
;   printPerimetersInsideOut,1
;   startPointOption,1
;   startPointOriginX,0
;   startPointOriginY,0
;   startPointOriginZ,0
;   sequentialIslands,0
;   spiralVaseMode,0
;   firstLayerHeightPercentage,90
;   firstLayerWidthPercentage,105
;   firstLayerUnderspeed,0.5
;   useRaft,0
;   raftExtruder,0
;   raftLayers,3
;   raftOffset,3
;   raftSeparationDistance,0.14
;   raftInfill,85
;   disableRaftBaseLayers,0
;   useSkirt,1
;   skirtExtruder,1
;   skirtLayers,3
;   skirtOutlines,3
;   skirtOffset,10
;   usePrimePillar,0
;   primePillarExtruder,999
;   primePillarWidth,12
;   primePillarLocation,7
;   primePillarSpeedMultiplier,1
;   useOozeShield,0
;   oozeShieldExtruder,999
;   oozeShieldOffset,2
;   oozeShieldOutlines,1
;   oozeShieldSidewallShape,1
;   oozeShieldSidewallAngle,30
;   oozeShieldSpeedMultiplier,1
;   infillExtruder,1
;   internalInfillPattern,Rectilinear
;   externalInfillPattern,Rectilinear
;   infillPercentage,30
;   outlineOverlapPercentage,15
;   infillExtrusionWidthPercentage,200
;   minInfillLength,5
;   infillLayerInterval,1
;   infillAngles,45,-45
;   overlapInfillAngles,0
;   generateSupport,0
;   supportExtruder,0
;   supportInfillPercentage,30
;   supportExtraInflation,0
;   denseSupportLayers,1
;   denseSupportInfillPercentage,70
;   supportLayerInterval,1
;   supportHorizontalPartOffset,0.3
;   supportUpperSeparationLayers,1
;   supportLowerSeparationLayers,1
;   supportType,0
;   supportGridSpacing,4
;   maxOverhangAngle,45
;   supportAngles,0
;   temperatureName,Back Extruder,Front Extruder,Heated Bed
;   temperatureNumber,0,1,0
;   temperatureSetpointCount,1,1,1
;   temperatureSetpointLayers,1,1,1
;   temperatureSetpointTemperatures,195,225,60
;   temperatureStabilizeAtStartup,1,1,1
;   temperatureHeatedBed,0,0,1
;   temperatureRelayBetweenLayers,0,0,0
;   temperatureRelayBetweenLoops,0,0,0
;   fanLayers,1,2
;   fanSpeeds,0,100
;   blipFanToFullPower,1
;   adjustSpeedForCooling,1
;   minSpeedLayerTime,15
;   minCoolingSpeedSlowdown,20
;   increaseFanForCooling,0
;   minFanLayerTime,45
;   maxCoolingFanSpeed,100
;   increaseFanForBridging,0
;   bridgingFanSpeed,100
;   use5D,1
;   relativeEdistances,0
;   allowEaxisZeroing,1
;   independentExtruderAxes,0
;   includeM10123,0
;   stickySupport,1
;   applyToolheadOffsets,1
;   gcodeXoffset,0
;   gcodeYoffset,0
;   gcodeZoffset,0
;   overrideMachineDefinition,1
;   machineTypeOverride,0
;   strokeXoverride,280
;   strokeYoverride,280
;   strokeZoverride,250
;   originOffsetXoverride,0
;   originOffsetYoverride,0
;   originOffsetZoverride,0
;   homeXdirOverride,-1
;   homeYdirOverride,-1
;   homeZdirOverride,-1
;   flipXoverride,1
;   flipYoverride,-1
;   flipZoverride,1
;   toolheadOffsets,0,0|0,50|0,0|0,0|0,0|0,0
;   overrideFirmwareConfiguration,1
;   firmwareTypeOverride,RepRap (Marlin/Repetier/Sprinter)
;   GPXconfigOverride,r2
;   baudRateOverride,250000
;   overridePrinterModels,1
;   printerModelsOverride,LulzBot_TAZ6.stl
;   startingGcode,G26 ; clear probe fail condition,M140 S[bed0_temperature] ; start heating bed,M104 S170 T0 ; start heating back extruder,M104 S170 T1 ; start heating front extruder,G28 XY ; home X and Y,T0 ; select this extruder first,G1 X-19 Y258 F1000 ; move to safe homing position,M109 S170 T0 ; soften filament for Z homing,M109 S170 T1 ; soften filament for Z homing,G28 Z ; home Z,G92 E0 ; zero extruder,G1 E-12 F100 ; retract 12mm filament,T1 ; switch extruders,G92 E0 ; zero extruder,G1 E-12 F100 ; retract 12mm filament,T0 ; switch extruders,G1 X-17 Y100 F3000 ; move above wiper pad,G1 Z1 ; push nozzle into wiper,G1 X-19 Y95 F1000 ; slow wipe,G1 X-17 Y90 F1000 ; slow wipe,G1 X-19 Y85 F1000 ; slow wipe,G1 X-17 Y90 F1000 ; slow wipe,G1 X-19 Y80 F1000 ; slow wipe,G1 X-17 Y95 F1000 ; slow wipe,G1 X-19 Y75 F2000 ; fast wipe,G1 X-17 Y85 F2000 ; fast wipe,G1 X-19 Y80 F2000 ; fast wipe,G1 X-17 Y70 F2000 ; fast wipe,G1 X-19 Y75 F2000 ; fast wipe,G1 X-17 Y95 F1000 ; slow wipe,G1 X-19 Y90 F1000 ; slow wipe,G1 X-17 Y85 F1000 ; slow wipe,G1 X-19 Y90 F1000 ; slow wipe,G1 X-17 Y80 F1000 ; slow wipe,G1 X-19 Y95 F1000 ; slow wipe,G1 X-17 Y75 F2000 ; fast wipe,G1 X-19 Y85 F2000 ; fast wipe,G1 X-17 Y80 F2000 ; fast wipe,G1 X-19 Y90 F2000 ; fast wipe,G1 X-17 Y85 F2000 ; fast wipe,G1 Z10 ; raise extruder,G1 X-9 Y-9 ; move above first probe point,M204 S100 ; set accel for probing,G29 ; probe sequence (for auto-leveling),M204 S500 ; set accel back to normal,G1 X0 Y0 Z15 F5000 ; get out of the way,M400 ; clear buffer,M117 Heating...,M104 S[extruder0_temperature] T0 ; start heating back extruder,M104 S[extruder1_temperature] T1 ; start heating front extruder,M190 S[bed0_temperature] ; stabilize bed,M109 S[extruder0_temperature] T0 ; stabilize back extruder,M109 S[extruder1_temperature] T1 ; stabilize front extruder,T1 ; switch to front extruder,G1 E0 F100 ; extrude filament back into nozzle,T0 ; switch to back extruder,G92 E-12 ; adjust E value,G1 Z2 E0 F100 ; extrude filament back into nozzle,M117 TAZ Printing...,
;   layerChangeGcode,
;   retractionGcode,
;   toolChangeGcode,
;   endingGcode,M400 ; wait for moves to finish,M104 S0 T0 ; turn off back extruder,M104 S0 T1 ; turn off front extruder,M107 ; turn off fan,G1 Y0 F3000 ; move to cooling position,M117 Cooling please wait,M190 S50 ; cool down bed,G1 Y280 F3000 ; present finished print,M140 S0 ; turn off bed,M84 ; disable motors,M117 QQ Print Finished!
;   exportFileFormat,gcode
;   celebration,0
;   celebrationSong,Random Song
;   postProcessing,
;   defaultSpeed,2100
;   outlineUnderspeed,0.5
;   solidInfillUnderspeed,0.5
;   supportUnderspeed,0.8
;   rapidXYspeed,4800
;   rapidZspeed,1000
;   minBridgingArea,50
;   bridgingExtraInflation,0
;   bridgingExtrusionMultiplier,1
;   bridgingSpeedMultiplier,1
;   filamentDiameter,2.89
;   filamentPricePerKg,46
;   filamentDensity,1.25
;   useMinPrintHeight,0
;   minPrintHeight,0
;   useMaxPrintHeight,0
;   maxPrintHeight,0
;   useDiaphragm,0
;   diaphragmLayerInterval,20
;   robustSlicing,1
;   mergeAllIntoSolid,0
;   onlyRetractWhenCrossingOutline,0
;   retractBetweenLayers,1
;   useRetractionMinTravel,0
;   retractionMinTravel,3
;   retractWhileWiping,1
;   onlyWipeOutlines,1
;   avoidCrossingOutline,0
;   maxMovementDetourFactor,3
;   toolChangeRetractionDistance,12
;   toolChangeExtraRestartDistance,-0.5
;   toolChangeRetractionSpeed,600
;   allowThinWallGapFill,0
;   thinWallAllowedOverlapPercentage,20
;   horizontalSizeCompensation,0
G90
M82
M106 S0
G26 ; clear probe fail condition
M140 S60 ; start heating bed
M104 S170 T0 ; start heating back extruder
M104 S170 T1 ; start heating front extruder
G28 XY ; home X and Y
T0 ; select this extruder first
G1 X-19 Y258 F1000 ; move to safe homing position
M109 S170 T0 ; soften filament for Z homing
M109 S170 T1 ; soften filament for Z homing
G28 Z ; home Z
G92 E0 ; zero extruder
G1 E-12 F100 ; retract 12mm filament
T1 ; switch extruders
G92 E0 ; zero extruder
G1 E-12 F100 ; retract 12mm filament
T0 ; switch extruders
G1 X-17 Y100 F3000 ; move above wiper pad
G1 Z1 ; push nozzle into wiper
G1 X-19 Y95 F1000 ; slow wipe
G1 X-17 Y90 F1000 ; slow wipe
G1 X-19 Y85 F1000 ; slow wipe
G1 X-17 Y90 F1000 ; slow wipe
G1 X-19 Y80 F1000 ; slow wipe
G1 X-17 Y95 F1000 ; slow wipe
G1 X-19 Y75 F2000 ; fast wipe
G1 X-17 Y85 F2000 ; fast wipe
G1 X-19 Y80 F2000 ; fast wipe
G1 X-17 Y70 F2000 ; fast wipe
G1 X-19 Y75 F2000 ; fast wipe
G1 X-17 Y95 F1000 ; slow wipe
G1 X-19 Y90 F1000 ; slow wipe
G1 X-17 Y85 F1000 ; slow wipe
G1 X-19 Y90 F1000 ; slow wipe
G1 X-17 Y80 F1000 ; slow wipe
G1 X-19 Y95 F1000 ; slow wipe
G1 X-17 Y75 F2000 ; fast wipe
G1 X-19 Y85 F2000 ; fast wipe
G1 X-17 Y80 F2000 ; fast wipe
G1 X-19 Y90 F2000 ; fast wipe
G1 X-17 Y85 F2000 ; fast wipe
G1 Z10 ; raise extruder
G1 X-9 Y-9 ; move above first probe point
M204 S100 ; set accel for probing
G29 ; probe sequence (for auto-leveling)
M204 S500 ; set accel back to normal
G1 X0 Y0 Z15 F5000 ; get out of the way
M400 ; clear buffer
M117 Heating...
M104 S195 T0 ; start heating back extruder
M104 S225 T1 ; start heating front extruder
M190 S60 ; stabilize bed
M109 S195 T0 ; stabilize back extruder
M109 S225 T1 ; stabilize front extruder
T1 ; switch to front extruder
G1 E0 F100 ; extrude filament back into nozzle
T0 ; switch to back extruder
G92 E-12 ; adjust E value
G1 Z2 E0 F100 ; extrude filament back into nozzle
M117 TAZ Printing...
G92 E0
G1 E-3.0000 F3200
G1 Z0.385 F1000
; layer 1, Z = 0.135
T1
; tool H0.150 W0.630
; skirt
G1 X120.846 Y172.533 F4800
G1 Z0.135 F1000
G1 E0.0000 F960
G92 E0
G1 X121.397 Y172.304 E0.0094 F1050
G1 X129.353 Y172.292 E0.1355
G1 X129.363 Y172.292 E0.1357
G1 X158.592 Y172.299 E0.5989
G1 X159.144 Y172.527 E0.6083
G1 X165.422 Y178.807 E0.7490
G1 X165.650 Y179.358 E0.7585
G1 X165.650 Y218.113 E1.3726
G1 X165.422 Y218.664 E1.3821
G1 X159.142 Y224.944 E1.5228
G1 X158.590 Y225.173 E1.5323
G1 X121.409 Y225.173 E2.1215
G1 X120.858 Y224.944 E2.1309
G1 X114.578 Y218.664 E2.2717
G1 X114.350 Y218.113 E2.2811
G1 X114.350 Y179.362 E2.8952
G1 X114.578 Y178.811 E2.9046
G1 X119.293 Y174.089 E3.0104
G1 X120.846 Y172.533 F1050
G92 E0
G1 E-3.0000 F3200
G1 Z0.385 F1000
G1 X121.186 Y173.042 F4800
G1 Z0.135 F1000
G1 E0.0000 F3200
G92 E0
G1 X121.517 Y172.904 E0.0057 F1050
G1 X129.354 Y172.892 E0.1299
G1 X129.364 Y172.892 E0.1300
G1 X158.473 Y172.899 E0.5913
G1 X158.804 Y173.036 E0.5970
G1 X164.913 Y179.146 E0.7339
G1 X165.050 Y179.477 E0.7396
G1 X165.050 Y217.994 E1.3499
G1 X164.913 Y218.325 E1.3556
G1 X158.802 Y224.436 E1.4926
G1 X158.471 Y224.573 E1.4982
G1 X121.529 Y224.573 E2.0836
G1 X121.198 Y224.436 E2.0893
G1 X115.087 Y218.325 E2.2263
G1 X114.950 Y217.994 E2.2319
G1 X114.950 Y179.481 E2.8422
G1 X115.087 Y179.151 E2.8479
G1 X119.633 Y174.598 E2.9499
G1 X121.186 Y173.042 F1050
G92 E0
G1 E-3.0000 F3200
G1 Z0.385 F1000
G1 X121.527 Y173.550 F4800
G1 Z0.135 F1000
G1 E0.0000 F3200
G92 E0
G1 X121.637 Y173.504 E0.0019 F1050
G1 X129.355 Y173.492 E0.1242
G1 X129.364 Y173.492 E0.1243
G1 X158.353 Y173.499 E0.5837
G1 X158.464 Y173.544 E0.5856
G1 X164.404 Y179.486 E0.7188
G1 X164.450 Y179.596 E0.7207
G1 X164.450 Y217.874 E1.3272
G1 X164.404 Y217.985 E1.3291
G1 X158.462 Y223.927 E1.4623
G1 X158.352 Y223.973 E1.4642
G1 X121.648 Y223.973 E2.0458
G1 X121.538 Y223.927 E2.0477
G1 X115.596 Y217.985 E2.1809
G1 X115.550 Y217.874 E2.1828
G1 X115.550 Y179.600 E2.7893
G1 X115.596 Y179.490 E2.7912
G1 X119.972 Y175.106 E2.8893
G1 X121.527 Y173.550 F1050
G92 E0
G1 E-3.0000 F3200
G1 Z0.385 F1000
; inner perimeter
G1 X146.765 Y211.331 F4800
G1 Z0.135 F1000
G1 E0.0000 F3200
G92 E0
G1 X133.235 Y211.331 E0.2144 F875
G1 X127.425 Y211.311 E0.3065
G1 X127.425 Y186.123 E0.7056
G1 X134.545 Y186.102 E0.8184
G1 X145.455 Y186.102 E0.9913
G1 X152.575 Y186.123 E1.1041
G1 X152.575 Y211.311 E1.5033
G1 X148.965 Y211.323 E1.5605
G1 X146.765 Y211.331 F875
G92 E0
G1 E-3.0000 F3200
G1 Z0.385 F1000
; inner perimeter
G1 X146.767 Y211.961 F4800
G1 Z0.135 F1000
G1 E0.0000 F3200
G92 E0
G1 X133.233 Y211.961 E0.2145 F700
G1 X126.795 Y211.939 E0.3165
G1 X126.795 Y185.495 E0.7355
G1 X134.547 Y185.472 E0.8584
G1 X145.453 Y185.472 E1.0312
G1 X153.205 Y185.495 E1.1540
G1 X153.205 Y211.939 E1.5731
G1 X148.967 Y211.953 E1.6402
G1 X146.767 Y211.961 F700
G92 E0
G1 E-3.0000 F3200
G1 Z0.385 F1000
; outer perimeter
G1 X142.828 Y204.041 F4800
G1 Z0.135 F1000
G1 E0.0000 F3200
G92 E0
G1 X142.842 Y205.427 E0.0220 F525
G1 X141.995 Y205.503 E0.0354
G1 X141.995 Y205.486 E0.0357
G1 X141.990 Y204.129 F525
G1 X142.828 Y204.041 F525
G92 E0
G1 E-3.0000 F3200
G1 Z0.385 F1000
G1 X142.758 Y199.247 F4800
G1 Z0.135 F1000
G1 E0.0000 F3200
G92 E0
G1 X141.911 Y199.323 E0.0135 F525
G1 X141.906 Y197.949 E0.0352
G1 X141.935 Y197.946 E0.0357
G1 X142.744 Y197.861 F525
G1 X142.758 Y199.247 F525
G92 E0
G1 E-3.0000 F3200
G1 Z0.385 F1000
G1 X146.766 Y212.591 F4800
G1 Z0.135 F1000
G1 E0.0000 F3200
G92 E0
G1 X133.234 Y212.591 E0.2144 F525
G1 X126.165 Y212.566 E0.3265
G1 X126.165 Y184.867 E0.7654
G1 X134.545 Y184.842 E0.8982
G1 X145.455 Y184.842 E1.0711
G1 X153.835 Y184.867 E1.2039
G1 X153.835 Y212.566 E1.6428
G1 X148.966 Y212.583 E1.7200
G1 X146.766 Y212.591 F525
G92 E0
G1 E-3.0000 F3200
G1 Z0.385 F1000
; inner perimeter
G1 X144.472 Y201.534 F4800
G1 Z0.135 F1000
G1 E0.0000 F3200
G92 E0
G1 X145.481 Y200.508 E0.0228 F875
G1 X145.440 Y196.548 E0.0855
G1 X144.163 Y195.098 E0.1162
G1 X144.163 Y195.008 E0.1176
G1 X143.495 Y195.074 E0.1282
G1 X143.592 Y194.796 E0.1329
G1 X143.764 Y193.921 E0.1470
G1 X143.591 Y193.127 E0.1599
G1 X143.465 Y192.760 E0.1660
G1 X143.193 Y192.199 E0.1759
G1 X142.821 Y191.675 E0.1861
G1 X142.353 Y191.210 E0.1966
G1 X141.801 Y190.833 E0.2071
G1 X141.183 Y190.568 E0.2178
G1 X140.520 Y190.431 E0.2285
G1 X139.883 Y190.431 E0.2386
G1 X139.524 Y190.486 E0.2444
G1 X139.163 Y190.578 E0.2503
G1 X138.579 Y190.823 E0.2603
G1 X138.025 Y191.196 E0.2709
G1 X137.553 Y191.660 E0.2814
G1 X137.179 Y192.184 E0.2916
G1 X136.905 Y192.742 E0.3014
G1 X136.771 Y193.127 E0.3079
G1 X136.599 Y194.002 E0.3220
G1 X136.772 Y194.796 E0.3349
G1 X136.898 Y195.163 E0.3411
G1 X137.170 Y195.724 E0.3509
G1 X137.364 Y195.999 E0.3563
G1 X137.361 Y196.315 E0.3613
G1 X136.132 Y196.686 E0.3816
G1 X135.014 Y197.824 E0.4069
G1 X134.950 Y204.046 E0.5055
G1 X135.105 Y203.997 E0.5081
G1 X135.041 Y210.225 E0.6068
G1 X137.394 Y209.462 E0.6460
G1 X137.394 Y209.491 E0.6465
G1 X141.248 Y208.373 E0.7101
G1 X141.250 Y208.247 E0.7121
G1 X144.294 Y207.979 E0.7605
G1 X145.564 Y206.687 E0.7892
G1 X145.530 Y203.336 E0.8423
G1 X145.524 Y202.728 F875
G1 X144.472 Y201.534 F875
G92 E0
G1 E-3.0000 F3200
G1 Z0.385 F1000
; inner perimeter
G1 X142.719 Y201.971 F4800
G1 Z0.135 F1000
G1 E0.0000 F3200
G92 E0
G1 X142.178 Y202.007 E0.0086 F700
G1 X142.178 Y202.023 E0.0088
G1 X141.508 Y202.088 E0.0195
G1 X141.912 Y201.373 E0.0325
G1 X143.925 Y201.191 E0.0646
G1 X144.848 Y200.252 E0.0854
G1 X144.812 Y196.789 E0.1403
G1 X143.861 Y195.708 E0.1631
G1 X143.533 Y195.730 E0.1683
G1 X143.533 Y195.703 E0.1688
G1 X142.353 Y195.819 E0.1876
G1 X142.640 Y195.416 E0.1954
G1 X142.875 Y194.938 E0.2038
G1 X142.982 Y194.631 E0.2090
G1 X143.120 Y193.928 E0.2203
G1 X142.983 Y193.297 E0.2306
G1 X142.881 Y193.001 E0.2355
G1 X142.649 Y192.521 E0.2440
G1 X142.338 Y192.083 E0.2525
G1 X141.950 Y191.697 E0.2612
G1 X141.497 Y191.388 E0.2699
G1 X140.993 Y191.172 E0.2785
G1 X140.456 Y191.061 E0.2872
G1 X139.931 Y191.061 E0.2955
G1 X139.650 Y191.104 E0.3001
G1 X139.364 Y191.177 E0.3047
G1 X138.880 Y191.380 E0.3130
G1 X138.425 Y191.687 E0.3217
G1 X138.034 Y192.071 E0.3304
G1 X137.722 Y192.508 E0.3389
G1 X137.488 Y192.985 E0.3474
G1 X137.380 Y193.293 E0.3525
G1 X137.242 Y193.996 E0.3639
G1 X137.379 Y194.626 E0.3741
G1 X137.481 Y194.923 E0.3791
G1 X137.714 Y195.403 E0.3875
G1 X138.024 Y195.840 E0.3960
G1 X138.673 Y196.486 E0.4105
G1 X137.990 Y196.474 E0.4214
G1 X137.987 Y196.784 E0.4263
G1 X136.468 Y197.243 E0.4514
G1 X135.641 Y198.084 E0.4701
G1 X135.589 Y203.179 E0.5509
G1 X137.935 Y202.425 E0.5899
G1 X137.934 Y202.469 E0.5906
G1 X138.090 Y202.424 E0.5932
G1 X138.085 Y202.952 E0.6015
G1 X136.548 Y203.417 E0.6270
G1 X135.732 Y204.262 E0.6456
G1 X135.680 Y209.356 E0.7263
