; G-Code generated by Simplify3D(R) Version 3.1.1
; Mar 15, 2017 at 1:33:14 PM
; Settings Summary
;   processName,Process1
;   applyToModels,qq190_RTF_GPS
;   profileName,LulzBot TAZ 6 Dual (modified)
;   profileVersion,2017-02-17 02:12:56
;   baseProfile,
;   printMaterial,PVA
;   printQuality,Medium
;   printExtruders,Both Extruders
;   extruderName,Back Extruder,Front Extruder
;   extruderToolheadNumber,0,1
;   extruderDiameter,0.4,0.5
;   extruderAutoWidth,1,1
;   extruderWidth,0.48,0.6
;   extrusionMultiplier,2.94,1.1
;   extruderUseRetract,1,1
;   extruderRetractionDistance,1.5,3.4
;   extruderExtraRestartDistance,0,0
;   extruderRetractionZLift,0.2,0.25
;   extruderRetractionSpeed,1800,3200
;   extruderUseCoasting,0,1
;   extruderCoastingDistance,0.2,2.2
;   extruderUseWipe,0,0
;   extruderWipeDistance,5,5
;   primaryExtruder,1
;   layerHeight,0.1
;   topSolidLayers,3
;   bottomSolidLayers,3
;   perimeterOutlines,1
;   printPerimetersInsideOut,1
;   startPointOption,1
;   startPointOriginX,0
;   startPointOriginY,0
;   startPointOriginZ,0
;   sequentialIslands,0
;   spiralVaseMode,0
;   firstLayerHeightPercentage,90
;   firstLayerWidthPercentage,100
;   firstLayerUnderspeed,0.5
;   useRaft,0
;   raftExtruder,0
;   raftLayers,3
;   raftOffset,3
;   raftSeparationDistance,0.14
;   raftInfill,85
;   disableRaftBaseLayers,0
;   useSkirt,1
;   skirtExtruder,1
;   skirtLayers,3
;   skirtOutlines,3
;   skirtOffset,10
;   usePrimePillar,0
;   primePillarExtruder,999
;   primePillarWidth,12
;   primePillarLocation,7
;   primePillarSpeedMultiplier,1
;   useOozeShield,0
;   oozeShieldExtruder,999
;   oozeShieldOffset,2
;   oozeShieldOutlines,1
;   oozeShieldSidewallShape,1
;   oozeShieldSidewallAngle,30
;   oozeShieldSpeedMultiplier,1
;   infillExtruder,1
;   internalInfillPattern,Rectilinear
;   externalInfillPattern,Rectilinear
;   infillPercentage,30
;   outlineOverlapPercentage,15
;   infillExtrusionWidthPercentage,200
;   minInfillLength,5
;   infillLayerInterval,1
;   infillAngles,45,-45
;   overlapInfillAngles,0
;   generateSupport,0
;   supportExtruder,0
;   supportInfillPercentage,30
;   supportExtraInflation,0
;   denseSupportLayers,1
;   denseSupportInfillPercentage,70
;   supportLayerInterval,1
;   supportHorizontalPartOffset,0.3
;   supportUpperSeparationLayers,1
;   supportLowerSeparationLayers,1
;   supportType,0
;   supportGridSpacing,4
;   maxOverhangAngle,45
;   supportAngles,0
;   temperatureName,Back Extruder,Front Extruder,Heated Bed
;   temperatureNumber,0,1,0
;   temperatureSetpointCount,1,1,1
;   temperatureSetpointLayers,1,1,1
;   temperatureSetpointTemperatures,195,225,60
;   temperatureStabilizeAtStartup,1,1,1
;   temperatureHeatedBed,0,0,1
;   temperatureRelayBetweenLayers,0,0,0
;   temperatureRelayBetweenLoops,0,0,0
;   fanLayers,1,2
;   fanSpeeds,0,100
;   blipFanToFullPower,1
;   adjustSpeedForCooling,1
;   minSpeedLayerTime,15
;   minCoolingSpeedSlowdown,20
;   increaseFanForCooling,0
;   minFanLayerTime,45
;   maxCoolingFanSpeed,100
;   increaseFanForBridging,0
;   bridgingFanSpeed,100
;   use5D,1
;   relativeEdistances,0
;   allowEaxisZeroing,1
;   independentExtruderAxes,0
;   includeM10123,0
;   stickySupport,1
;   applyToolheadOffsets,1
;   gcodeXoffset,0
;   gcodeYoffset,0
;   gcodeZoffset,0
;   overrideMachineDefinition,1
;   machineTypeOverride,0
;   strokeXoverride,280
;   strokeYoverride,280
;   strokeZoverride,250
;   originOffsetXoverride,0
;   originOffsetYoverride,0
;   originOffsetZoverride,0
;   homeXdirOverride,-1
;   homeYdirOverride,-1
;   homeZdirOverride,-1
;   flipXoverride,1
;   flipYoverride,-1
;   flipZoverride,1
;   toolheadOffsets,0,0|0,50|0,0|0,0|0,0|0,0
;   overrideFirmwareConfiguration,1
;   firmwareTypeOverride,RepRap (Marlin/Repetier/Sprinter)
;   GPXconfigOverride,r2
;   baudRateOverride,250000
;   overridePrinterModels,1
;   printerModelsOverride,LulzBot_TAZ6.stl
;   startingGcode,G26 ; clear probe fail condition,M140 S[bed0_temperature] ; start heating bed,M104 S170 T0 ; start heating back extruder,M104 S170 T1 ; start heating front extruder,G28 XY ; home X and Y,T0 ; select this extruder first,G1 X-19 Y258 F1000 ; move to safe homing position,M109 S170 T0 ; soften filament for Z homing,M109 S170 T1 ; soften filament for Z homing,G28 Z ; home Z,G92 E0 ; zero extruder,G1 E-12 F100 ; retract 12mm filament,T1 ; switch extruders,G92 E0 ; zero extruder,G1 E-12 F100 ; retract 12mm filament,T0 ; switch extruders,G1 X-17 Y100 F3000 ; move above wiper pad,G1 Z1 ; push nozzle into wiper,G1 X-19 Y95 F1000 ; slow wipe,G1 X-17 Y90 F1000 ; slow wipe,G1 X-19 Y85 F1000 ; slow wipe,G1 X-17 Y90 F1000 ; slow wipe,G1 X-19 Y80 F1000 ; slow wipe,G1 X-17 Y95 F1000 ; slow wipe,G1 X-19 Y75 F2000 ; fast wipe,G1 X-17 Y85 F2000 ; fast wipe,G1 X-19 Y80 F2000 ; fast wipe,G1 X-17 Y70 F2000 ; fast wipe,G1 X-19 Y75 F2000 ; fast wipe,G1 X-17 Y95 F1000 ; slow wipe,G1 X-19 Y90 F1000 ; slow wipe,G1 X-17 Y85 F1000 ; slow wipe,G1 X-19 Y90 F1000 ; slow wipe,G1 X-17 Y80 F1000 ; slow wipe,G1 X-19 Y95 F1000 ; slow wipe,G1 X-17 Y75 F2000 ; fast wipe,G1 X-19 Y85 F2000 ; fast wipe,G1 X-17 Y80 F2000 ; fast wipe,G1 X-19 Y90 F2000 ; fast wipe,G1 X-17 Y85 F2000 ; fast wipe,G1 Z10 ; raise extruder,G1 X-9 Y-9 ; move above first probe point,M204 S100 ; set accel for probing,G29 ; probe sequence (for auto-leveling),M204 S500 ; set accel back to normal,G1 X0 Y0 Z15 F5000 ; get out of the way,M400 ; clear buffer,M117 Heating...,M104 S[extruder0_temperature] T0 ; start heating back extruder,M104 S[extruder1_temperature] T1 ; start heating front extruder,M190 S[bed0_temperature] ; stabilize bed,M109 S[extruder0_temperature] T0 ; stabilize back extruder,M109 S[extruder1_temperature] T1 ; stabilize front extruder,T1 ; switch to front extruder,G1 E0 F100 ; extrude filament back into nozzle,T0 ; switch to back extruder,G92 E-12 ; adjust E value,G1 Z2 E0 F100 ; extrude filament back into nozzle,M117 TAZ Printing...,
;   layerChangeGcode,
;   retractionGcode,
;   toolChangeGcode,
;   endingGcode,M400 ; wait for moves to finish,M104 S0 T0 ; turn off back extruder,M104 S0 T1 ; turn off front extruder,M107 ; turn off fan,G1 Y0 F3000 ; move to cooling position,M117 Cooling please wait,M190 S50 ; cool down bed,G1 Y280 F3000 ; present finished print,M140 S0 ; turn off bed,M84 ; disable motors,M117 QQ Print Finished!
;   exportFileFormat,gcode
;   celebration,0
;   celebrationSong,Random Song
;   postProcessing,
;   defaultSpeed,3000
;   outlineUnderspeed,0.5
;   solidInfillUnderspeed,0.8
;   supportUnderspeed,0.8
;   rapidXYspeed,4800
;   rapidZspeed,1000
;   minBridgingArea,50
;   bridgingExtraInflation,0
;   bridgingExtrusionMultiplier,1
;   bridgingSpeedMultiplier,1
;   filamentDiameter,2.89
;   filamentPricePerKg,46
;   filamentDensity,1.25
;   useMinPrintHeight,0
;   minPrintHeight,0
;   useMaxPrintHeight,0
;   maxPrintHeight,0
;   useDiaphragm,0
;   diaphragmLayerInterval,20
;   robustSlicing,1
;   mergeAllIntoSolid,0
;   onlyRetractWhenCrossingOutline,1
;   retractBetweenLayers,1
;   useRetractionMinTravel,0
;   retractionMinTravel,3
;   retractWhileWiping,0
;   onlyWipeOutlines,1
;   avoidCrossingOutline,0
;   maxMovementDetourFactor,3
;   toolChangeRetractionDistance,12
;   toolChangeExtraRestartDistance,-0.5
;   toolChangeRetractionSpeed,600
;   allowThinWallGapFill,1
;   thinWallAllowedOverlapPercentage,10
;   horizontalSizeCompensation,0
G90
M82
M106 S0
G26 ; clear probe fail condition
M140 S60 ; start heating bed
M104 S170 T0 ; start heating back extruder
M104 S170 T1 ; start heating front extruder
G28 XY ; home X and Y
T0 ; select this extruder first
G1 X-19 Y258 F1000 ; move to safe homing position
M109 S170 T0 ; soften filament for Z homing
M109 S170 T1 ; soften filament for Z homing
G28 Z ; home Z
G92 E0 ; zero extruder
G1 E-12 F100 ; retract 12mm filament
T1 ; switch extruders
G92 E0 ; zero extruder
G1 E-12 F100 ; retract 12mm filament
T0 ; switch extruders
G1 X-17 Y100 F3000 ; move above wiper pad
G1 Z1 ; push nozzle into wiper
G1 X-19 Y95 F1000 ; slow wipe
G1 X-17 Y90 F1000 ; slow wipe
G1 X-19 Y85 F1000 ; slow wipe
G1 X-17 Y90 F1000 ; slow wipe
G1 X-19 Y80 F1000 ; slow wipe
G1 X-17 Y95 F1000 ; slow wipe
G1 X-19 Y75 F2000 ; fast wipe
G1 X-17 Y85 F2000 ; fast wipe
G1 X-19 Y80 F2000 ; fast wipe
G1 X-17 Y70 F2000 ; fast wipe
G1 X-19 Y75 F2000 ; fast wipe
G1 X-17 Y95 F1000 ; slow wipe
G1 X-19 Y90 F1000 ; slow wipe
G1 X-17 Y85 F1000 ; slow wipe
G1 X-19 Y90 F1000 ; slow wipe
G1 X-17 Y80 F1000 ; slow wipe
G1 X-19 Y95 F1000 ; slow wipe
G1 X-17 Y75 F2000 ; fast wipe
G1 X-19 Y85 F2000 ; fast wipe
G1 X-17 Y80 F2000 ; fast wipe
G1 X-19 Y90 F2000 ; fast wipe
G1 X-17 Y85 F2000 ; fast wipe
G1 Z10 ; raise extruder
G1 X-9 Y-9 ; move above first probe point
M204 S100 ; set accel for probing
G29 ; probe sequence (for auto-leveling)
M204 S500 ; set accel back to normal
G1 X0 Y0 Z15 F5000 ; get out of the way
M400 ; clear buffer
M117 Heating...
M104 S195 T0 ; start heating back extruder
M104 S225 T1 ; start heating front extruder
M190 S60 ; stabilize bed
M109 S195 T0 ; stabilize back extruder
M109 S225 T1 ; stabilize front extruder
T1 ; switch to front extruder
G1 E0 F100 ; extrude filament back into nozzle
T0 ; switch to back extruder
G92 E-12 ; adjust E value
G1 Z2 E0 F100 ; extrude filament back into nozzle
M117 TAZ Printing...
G92 E0
G1 E-3.4000 F3200
G1 Z0.340 F1000
; layer 1, Z = 0.09
T1
; tool H0.100 W0.600
; skirt
G1 X120.858 Y172.765 F4800
G1 Z0.090 F1000
G1 E0.0000 F960
G92 E0
G1 X121.409 Y172.536 E0.0060 F1500
G1 X158.590 Y172.536 E0.3801
G1 X159.142 Y172.765 E0.3861
G1 X165.422 Y179.044 E0.4755
G1 X165.650 Y179.596 E0.4815
G1 X165.650 Y217.863 E0.8665
G1 X165.422 Y218.414 E0.8725
G1 X159.142 Y224.694 E0.9618
G1 X158.590 Y224.923 E0.9678
G1 X121.409 Y224.923 E1.3419
G1 X120.858 Y224.694 E1.3479
G1 X114.578 Y218.414 E1.4373
G1 X114.350 Y217.863 E1.4433
G1 X114.350 Y179.596 E1.8283
G1 X114.578 Y179.044 E1.8343
G1 X119.303 Y174.320 E1.9016
G1 X120.858 Y172.765 F1500
G1 X121.198 Y173.273 F4800
G92 E0
G1 X121.529 Y173.136 E0.0036 F1500
G1 X158.471 Y173.136 E0.3753
G1 X158.802 Y173.273 E0.3789
G1 X164.913 Y179.384 E0.4658
G1 X165.050 Y179.715 E0.4695
G1 X165.050 Y217.744 E0.8521
G1 X164.913 Y218.075 E0.8557
G1 X158.802 Y224.186 E0.9426
G1 X158.471 Y224.323 E0.9462
G1 X121.529 Y224.323 E1.3179
G1 X121.198 Y224.186 E1.3215
G1 X115.087 Y218.075 E1.4085
G1 X114.950 Y217.744 E1.4121
G1 X114.950 Y179.715 E1.7947
G1 X115.087 Y179.384 E1.7983
G1 X119.642 Y174.829 E1.8631
G1 X121.198 Y173.273 F1500
G1 X121.538 Y173.782 F4800
G92 E0
G1 X121.648 Y173.736 E0.0012 F1500
G1 X158.352 Y173.736 E0.3705
G1 X158.462 Y173.782 E0.3717
G1 X164.404 Y179.724 E0.4562
G1 X164.450 Y179.834 E0.4574
G1 X164.450 Y217.624 E0.8377
G1 X164.404 Y217.735 E0.8389
G1 X158.462 Y223.677 E0.9234
G1 X158.352 Y223.723 E0.9246
G1 X121.648 Y223.723 E1.2939
G1 X121.538 Y223.677 E1.2951
G1 X115.596 Y217.735 E1.3797
G1 X115.550 Y217.624 E1.3809
G1 X115.550 Y179.834 E1.7611
G1 X115.596 Y179.724 E1.7623
G1 X119.982 Y175.337 E1.8247
G1 X121.538 Y173.782 F1500
G92 E0
G1 E-3.4000 F3200
G1 Z0.340 F1000
; outer perimeter
G1 X141.891 Y197.935 F4800
G1 Z0.090 F1000
G1 E0.0000 F3200
G92 E0
G1 X142.759 Y197.844 E0.0088 F750
G1 X142.773 Y199.260 E0.0230
G1 X142.689 Y199.267 E0.0239
G1 X141.896 Y199.338 F750
G1 X141.891 Y197.935 F750
G92 E0
G1 E-3.4000 F3200
G1 Z0.340 F1000
G1 X142.843 Y204.023 F4800
G1 Z0.090 F1000
G1 E0.0000 F3200
G92 E0
G1 X142.857 Y205.439 E0.0142 F750
G1 X141.980 Y205.518 E0.0231
G1 X141.980 Y205.441 E0.0239
G1 X141.975 Y204.114 F750
G1 X142.843 Y204.023 F750
G92 E0
G1 E-3.4000 F3200
G1 Z0.340 F1000
G1 X153.850 Y212.508 F4800
G1 Z0.090 F1000
G1 E0.0000 F3200
G92 E0
G1 X126.150 Y212.508 E0.2787 F750
G1 X126.150 Y184.915 E0.5563
G1 X131.510 Y184.910 E0.6103
G1 X148.130 Y184.910 E0.7775
G1 X153.850 Y184.915 E0.8350
G1 X153.850 Y210.308 E1.0905
G1 X153.850 Y212.508 F750
G92 E0
G1 E-3.4000 F3200
G1 Z0.340 F1000
; outer perimeter
G1 X140.468 Y198.062 F4800
G1 Z0.090 F1000
G1 E0.0000 F3200
G92 E0
G1 X140.475 Y200.202 E0.0215 F750
G1 X140.764 Y200.492 E0.0257
G1 X140.213 Y201.474 E0.0370
G1 X140.176 Y201.474 E0.0374
G1 X139.882 Y200.887 E0.0440
G1 X139.918 Y197.706 E0.0760
G1 X139.461 Y197.144 E0.0833
G1 X138.629 Y197.129 E0.0916
G1 X138.627 Y197.263 E0.0930
G1 X136.813 Y197.811 E0.1121
G1 X136.284 Y198.350 E0.1196
G1 X136.243 Y202.290 E0.1593
G1 X137.626 Y201.846 E0.1739
G1 X137.655 Y199.085 E0.2017
G1 X138.614 Y198.681 E0.2122
G1 X138.587 Y201.608 E0.2416
G1 X139.312 Y201.398 E0.2492
G1 X139.539 Y201.857 E0.2544
G1 X139.460 Y202.002 E0.2560
G1 X139.409 Y202.282 E0.2589
G1 X139.463 Y202.576 E0.2619
G1 X139.543 Y202.703 E0.2634
G1 X139.198 Y203.317 E0.2705
G1 X138.726 Y203.308 E0.2752
G1 X138.725 Y203.431 E0.2765
G1 X136.895 Y203.984 E0.2957
G1 X136.374 Y204.524 E0.3033
G1 X136.334 Y208.464 E0.3429
G1 X137.710 Y208.018 E0.3575
G1 X137.738 Y205.258 E0.3852
G1 X138.712 Y204.852 E0.3958
G1 X138.685 Y207.788 E0.4254
G1 X139.984 Y207.411 E0.4390
G1 X140.022 Y203.886 E0.4745
G1 X139.880 Y203.710 E0.4767
G1 X140.204 Y203.135 E0.4834
G1 X140.265 Y203.254 E0.4847
G1 X140.265 Y204.277 E0.4950
G1 X140.580 Y204.242 E0.4982
G1 X140.586 Y206.379 E0.5197
G1 X141.160 Y206.973 E0.5280
G1 X143.714 Y206.749 E0.5538
G1 X144.284 Y206.170 E0.5620
G1 X144.254 Y203.213 E0.5917
G1 X143.671 Y202.551 E0.6006
G1 X142.971 Y202.599 E0.6077
G1 X142.971 Y202.593 E0.6077
G1 X140.839 Y202.800 E0.6293
G1 X140.835 Y202.794 E0.6294
G1 X140.867 Y202.759 E0.6298
G1 X140.956 Y202.609 E0.6316
G1 X141.026 Y202.364 E0.6341
G1 X140.999 Y202.061 E0.6372
G1 X140.905 Y201.849 E0.6395
G1 X140.903 Y201.847 E0.6396
G1 X141.516 Y200.760 E0.6521
G1 X143.631 Y200.569 E0.6735
G1 X144.200 Y199.990 E0.6817
G1 X144.170 Y197.034 E0.7114
G1 X143.587 Y196.372 E0.7203
G1 X142.888 Y196.419 E0.7273
G1 X142.888 Y196.413 E0.7274
G1 X140.618 Y196.635 E0.7503
G1 X140.153 Y196.681 F750
G1 X140.153 Y198.097 F750
G1 X140.468 Y198.062 F750
G92 E0
G1 E-3.4000 F3200
G1 Z0.340 F1000
; outer perimeter
; outer perimeter
G1 X141.176 Y195.971 F4800
G1 Z0.090 F1000
G1 E0.0000 F3200
G92 E0
G1 X141.529 Y195.733 E0.0043 F750
G1 X141.834 Y195.433 E0.0086
G1 X142.089 Y195.076 E0.0130
G1 X142.283 Y194.679 E0.0174
G1 X142.412 Y194.253 E0.0219
G1 X142.463 Y193.961 E0.0249
G1 X142.359 Y193.476 E0.0299
G1 X142.196 Y193.058 E0.0344
G1 X141.973 Y192.680 E0.0388
G1 X141.696 Y192.353 E0.0431
G1 X141.526 Y192.200 E0.0454
G1 X141.183 Y191.967 E0.0496
G1 X140.797 Y191.802 E0.0538
G1 X140.392 Y191.718 E0.0580
G1 X139.978 Y191.718 E0.0622
G1 X139.764 Y191.751 E0.0643
G1 X139.376 Y191.872 E0.0684
G1 X139.011 Y192.070 E0.0726
G1 X138.829 Y192.206 E0.0749
G1 X138.528 Y192.501 E0.0791
G1 X138.273 Y192.858 E0.0836
G1 X138.080 Y193.255 E0.0880
G1 X137.950 Y193.681 E0.0925
G1 X137.899 Y193.973 E0.0955
G1 X138.003 Y194.458 E0.1005
G1 X138.166 Y194.876 E0.1050
G1 X138.389 Y195.254 E0.1094
G1 X138.666 Y195.581 E0.1137
G1 X138.836 Y195.734 E0.1160
G1 X139.080 Y195.900 E0.1190
G1 X139.179 Y195.967 F750
G1 X139.565 Y196.132 F750
G1 X139.970 Y196.216 F750
G1 X140.385 Y196.217 F750
G1 X140.789 Y196.134 F750
G1 X141.176 Y195.971 F750
; outer perimeter
; solid layer
G1 X142.160 Y195.827 F4800
G92 E0
G1 X142.282 Y195.949 E0.0017 F1200
G1 X142.642 Y195.925 E0.0054
G1 X143.064 Y195.883 E0.0096
G1 X142.525 Y195.343 E0.0173
G1 X142.529 Y195.338 E0.0174
G1 X142.759 Y194.867 E0.0227
G1 X142.791 Y194.761 E0.0238
G1 X153.340 Y205.310 E0.1739
G1 X153.340 Y204.462 E0.1824
G1 X144.515 Y195.637 E0.3080
G1 X142.960 Y194.081 F1200
G1 X144.685 Y197.503 F4800
G92 E0
G1 X153.340 Y206.159 E0.1232 F1200
G1 X153.340 Y207.007 E0.1317
G1 X144.693 Y198.361 E0.2547
G1 X144.702 Y199.218 E0.2634
G1 X153.340 Y207.856 E0.3863
G1 X153.340 Y208.704 E0.3948
G1 X144.711 Y200.075 E0.5176
G1 X144.712 Y200.197 E0.5188
G1 X144.351 Y200.564 E0.5240
G1 X153.340 Y209.553 E0.6519
G1 X153.340 Y210.401 E0.6604
G1 X143.930 Y200.992 E0.7943
G1 X143.863 Y201.060 E0.7953
G1 X143.209 Y201.119 E0.8019
G1 X153.340 Y211.250 E0.9460
G1 X153.340 Y211.998 E0.9536
G1 X153.239 Y211.998 E0.9546
