; G-Code generated by Simplify3D(R) Version 3.1.1
; Mar 15, 2017 at 7:23:14 PM
; Settings Summary
;   processName,Process1
;   applyToModels,qq190_RTF_GPS_2
;   profileName,LulzBot TAZ 6 Dual (modified)
;   profileVersion,2017-02-17 02:12:56
;   baseProfile,
;   printMaterial,PVA
;   printQuality,Medium
;   printExtruders,Both Extruders
;   extruderName,Back Extruder,Front Extruder
;   extruderToolheadNumber,0,1
;   extruderDiameter,0.4,0.5
;   extruderAutoWidth,1,1
;   extruderWidth,0.48,0.6
;   extrusionMultiplier,2.94,1.1
;   extruderUseRetract,1,1
;   extruderRetractionDistance,1.5,3
;   extruderExtraRestartDistance,0,0
;   extruderRetractionZLift,0.2,0.25
;   extruderRetractionSpeed,1800,3200
;   extruderUseCoasting,0,1
;   extruderCoastingDistance,0.2,2.2
;   extruderUseWipe,0,0
;   extruderWipeDistance,5,5
;   primaryExtruder,1
;   layerHeight,0.15
;   topSolidLayers,5
;   bottomSolidLayers,5
;   perimeterOutlines,6
;   printPerimetersInsideOut,1
;   startPointOption,1
;   startPointOriginX,0
;   startPointOriginY,0
;   startPointOriginZ,0
;   sequentialIslands,0
;   spiralVaseMode,0
;   firstLayerHeightPercentage,90
;   firstLayerWidthPercentage,100
;   firstLayerUnderspeed,0.5
;   useRaft,0
;   raftExtruder,0
;   raftLayers,3
;   raftOffset,3
;   raftSeparationDistance,0.14
;   raftInfill,85
;   disableRaftBaseLayers,0
;   useSkirt,1
;   skirtExtruder,1
;   skirtLayers,3
;   skirtOutlines,3
;   skirtOffset,10
;   usePrimePillar,0
;   primePillarExtruder,999
;   primePillarWidth,12
;   primePillarLocation,7
;   primePillarSpeedMultiplier,1
;   useOozeShield,0
;   oozeShieldExtruder,999
;   oozeShieldOffset,2
;   oozeShieldOutlines,1
;   oozeShieldSidewallShape,1
;   oozeShieldSidewallAngle,30
;   oozeShieldSpeedMultiplier,1
;   infillExtruder,1
;   internalInfillPattern,Rectilinear
;   externalInfillPattern,Rectilinear
;   infillPercentage,30
;   outlineOverlapPercentage,15
;   infillExtrusionWidthPercentage,200
;   minInfillLength,5
;   infillLayerInterval,1
;   infillAngles,45,-45
;   overlapInfillAngles,0
;   generateSupport,0
;   supportExtruder,0
;   supportInfillPercentage,30
;   supportExtraInflation,0
;   denseSupportLayers,1
;   denseSupportInfillPercentage,70
;   supportLayerInterval,1
;   supportHorizontalPartOffset,0.3
;   supportUpperSeparationLayers,1
;   supportLowerSeparationLayers,1
;   supportType,0
;   supportGridSpacing,4
;   maxOverhangAngle,45
;   supportAngles,0
;   temperatureName,Back Extruder,Front Extruder,Heated Bed
;   temperatureNumber,0,1,0
;   temperatureSetpointCount,1,1,1
;   temperatureSetpointLayers,1,1,1
;   temperatureSetpointTemperatures,195,225,60
;   temperatureStabilizeAtStartup,1,1,1
;   temperatureHeatedBed,0,0,1
;   temperatureRelayBetweenLayers,0,0,0
;   temperatureRelayBetweenLoops,0,0,0
;   fanLayers,1,2
;   fanSpeeds,0,100
;   blipFanToFullPower,1
;   adjustSpeedForCooling,1
;   minSpeedLayerTime,15
;   minCoolingSpeedSlowdown,20
;   increaseFanForCooling,0
;   minFanLayerTime,45
;   maxCoolingFanSpeed,100
;   increaseFanForBridging,0
;   bridgingFanSpeed,100
;   use5D,1
;   relativeEdistances,0
;   allowEaxisZeroing,1
;   independentExtruderAxes,0
;   includeM10123,0
;   stickySupport,1
;   applyToolheadOffsets,1
;   gcodeXoffset,0
;   gcodeYoffset,0
;   gcodeZoffset,0
;   overrideMachineDefinition,1
;   machineTypeOverride,0
;   strokeXoverride,280
;   strokeYoverride,280
;   strokeZoverride,250
;   originOffsetXoverride,0
;   originOffsetYoverride,0
;   originOffsetZoverride,0
;   homeXdirOverride,-1
;   homeYdirOverride,-1
;   homeZdirOverride,-1
;   flipXoverride,1
;   flipYoverride,-1
;   flipZoverride,1
;   toolheadOffsets,0,0|0,50|0,0|0,0|0,0|0,0
;   overrideFirmwareConfiguration,1
;   firmwareTypeOverride,RepRap (Marlin/Repetier/Sprinter)
;   GPXconfigOverride,r2
;   baudRateOverride,250000
;   overridePrinterModels,1
;   printerModelsOverride,LulzBot_TAZ6.stl
;   startingGcode,G26 ; clear probe fail condition,M140 S[bed0_temperature] ; start heating bed,M104 S170 T0 ; start heating back extruder,M104 S170 T1 ; start heating front extruder,G28 XY ; home X and Y,T0 ; select this extruder first,G1 X-19 Y258 F1000 ; move to safe homing position,M109 S170 T0 ; soften filament for Z homing,M109 S170 T1 ; soften filament for Z homing,G28 Z ; home Z,G92 E0 ; zero extruder,G1 E-12 F100 ; retract 12mm filament,T1 ; switch extruders,G92 E0 ; zero extruder,G1 E-12 F100 ; retract 12mm filament,T0 ; switch extruders,G1 X-17 Y100 F3000 ; move above wiper pad,G1 Z1 ; push nozzle into wiper,G1 X-19 Y95 F1000 ; slow wipe,G1 X-17 Y90 F1000 ; slow wipe,G1 X-19 Y85 F1000 ; slow wipe,G1 X-17 Y90 F1000 ; slow wipe,G1 X-19 Y80 F1000 ; slow wipe,G1 X-17 Y95 F1000 ; slow wipe,G1 X-19 Y75 F2000 ; fast wipe,G1 X-17 Y85 F2000 ; fast wipe,G1 X-19 Y80 F2000 ; fast wipe,G1 X-17 Y70 F2000 ; fast wipe,G1 X-19 Y75 F2000 ; fast wipe,G1 X-17 Y95 F1000 ; slow wipe,G1 X-19 Y90 F1000 ; slow wipe,G1 X-17 Y85 F1000 ; slow wipe,G1 X-19 Y90 F1000 ; slow wipe,G1 X-17 Y80 F1000 ; slow wipe,G1 X-19 Y95 F1000 ; slow wipe,G1 X-17 Y75 F2000 ; fast wipe,G1 X-19 Y85 F2000 ; fast wipe,G1 X-17 Y80 F2000 ; fast wipe,G1 X-19 Y90 F2000 ; fast wipe,G1 X-17 Y85 F2000 ; fast wipe,G1 Z10 ; raise extruder,G1 X-9 Y-9 ; move above first probe point,M204 S100 ; set accel for probing,G29 ; probe sequence (for auto-leveling),M204 S500 ; set accel back to normal,G1 X0 Y0 Z15 F5000 ; get out of the way,M400 ; clear buffer,M117 Heating...,M104 S[extruder0_temperature] T0 ; start heating back extruder,M104 S[extruder1_temperature] T1 ; start heating front extruder,M190 S[bed0_temperature] ; stabilize bed,M109 S[extruder0_temperature] T0 ; stabilize back extruder,M109 S[extruder1_temperature] T1 ; stabilize front extruder,T1 ; switch to front extruder,G1 E0 F100 ; extrude filament back into nozzle,T0 ; switch to back extruder,G92 E-12 ; adjust E value,G1 Z2 E0 F100 ; extrude filament back into nozzle,M117 TAZ Printing...,
;   layerChangeGcode,
;   retractionGcode,
;   toolChangeGcode,
;   endingGcode,M400 ; wait for moves to finish,M104 S0 T0 ; turn off back extruder,M104 S0 T1 ; turn off front extruder,M107 ; turn off fan,G1 Y0 F3000 ; move to cooling position,M117 Cooling please wait,M190 S50 ; cool down bed,G1 Y280 F3000 ; present finished print,M140 S0 ; turn off bed,M84 ; disable motors,M117 QQ Print Finished!
;   exportFileFormat,gcode
;   celebration,0
;   celebrationSong,Random Song
;   postProcessing,
;   defaultSpeed,2100
;   outlineUnderspeed,0.5
;   solidInfillUnderspeed,0.5
;   supportUnderspeed,0.8
;   rapidXYspeed,4800
;   rapidZspeed,1000
;   minBridgingArea,50
;   bridgingExtraInflation,0
;   bridgingExtrusionMultiplier,1
;   bridgingSpeedMultiplier,1
;   filamentDiameter,2.89
;   filamentPricePerKg,46
;   filamentDensity,1.25
;   useMinPrintHeight,0
;   minPrintHeight,0
;   useMaxPrintHeight,0
;   maxPrintHeight,0
;   useDiaphragm,0
;   diaphragmLayerInterval,20
;   robustSlicing,1
;   mergeAllIntoSolid,0
;   onlyRetractWhenCrossingOutline,1
;   retractBetweenLayers,1
;   useRetractionMinTravel,0
;   retractionMinTravel,3
;   retractWhileWiping,1
;   onlyWipeOutlines,1
;   avoidCrossingOutline,0
;   maxMovementDetourFactor,3
;   toolChangeRetractionDistance,12
;   toolChangeExtraRestartDistance,-0.5
;   toolChangeRetractionSpeed,600
;   allowThinWallGapFill,0
;   thinWallAllowedOverlapPercentage,20
;   horizontalSizeCompensation,0
G90
M82
M106 S0
G26 ; clear probe fail condition
M140 S60 ; start heating bed
M104 S170 T0 ; start heating back extruder
M104 S170 T1 ; start heating front extruder
G28 XY ; home X and Y
T0 ; select this extruder first
G1 X-19 Y258 F1000 ; move to safe homing position
M109 S170 T0 ; soften filament for Z homing
M109 S170 T1 ; soften filament for Z homing
G28 Z ; home Z
G92 E0 ; zero extruder
G1 E-12 F100 ; retract 12mm filament
T1 ; switch extruders
G92 E0 ; zero extruder
G1 E-12 F100 ; retract 12mm filament
T0 ; switch extruders
G1 X-17 Y100 F3000 ; move above wiper pad
G1 Z1 ; push nozzle into wiper
G1 X-19 Y95 F1000 ; slow wipe
G1 X-17 Y90 F1000 ; slow wipe
G1 X-19 Y85 F1000 ; slow wipe
G1 X-17 Y90 F1000 ; slow wipe
G1 X-19 Y80 F1000 ; slow wipe
G1 X-17 Y95 F1000 ; slow wipe
G1 X-19 Y75 F2000 ; fast wipe
G1 X-17 Y85 F2000 ; fast wipe
G1 X-19 Y80 F2000 ; fast wipe
G1 X-17 Y70 F2000 ; fast wipe
G1 X-19 Y75 F2000 ; fast wipe
G1 X-17 Y95 F1000 ; slow wipe
G1 X-19 Y90 F1000 ; slow wipe
G1 X-17 Y85 F1000 ; slow wipe
G1 X-19 Y90 F1000 ; slow wipe
G1 X-17 Y80 F1000 ; slow wipe
G1 X-19 Y95 F1000 ; slow wipe
G1 X-17 Y75 F2000 ; fast wipe
G1 X-19 Y85 F2000 ; fast wipe
G1 X-17 Y80 F2000 ; fast wipe
G1 X-19 Y90 F2000 ; fast wipe
G1 X-17 Y85 F2000 ; fast wipe
G1 Z10 ; raise extruder
G1 X-9 Y-9 ; move above first probe point
M204 S100 ; set accel for probing
G29 ; probe sequence (for auto-leveling)
M204 S500 ; set accel back to normal
G1 X0 Y0 Z15 F5000 ; get out of the way
M400 ; clear buffer
M117 Heating...
M104 S195 T0 ; start heating back extruder
M104 S225 T1 ; start heating front extruder
M190 S60 ; stabilize bed
M109 S195 T0 ; stabilize back extruder
M109 S225 T1 ; stabilize front extruder
T1 ; switch to front extruder
G1 E0 F100 ; extrude filament back into nozzle
T0 ; switch to back extruder
G92 E-12 ; adjust E value
G1 Z2 E0 F100 ; extrude filament back into nozzle
M117 TAZ Printing...
G92 E0
G1 E-3.0000 F3200
G1 Z0.385 F1000
; layer 1, Z = 0.135
T1
; tool H0.150 W0.600
; skirt
G1 X120.858 Y172.513 F4800
G1 Z0.135 F1000
G1 E0.0000 F960
G92 E0
G1 X121.409 Y172.285 E0.0090 F1050
G1 X158.590 Y172.285 E0.5701
G1 X159.142 Y172.513 E0.5792
G1 X165.422 Y178.793 E0.7132
G1 X165.650 Y179.344 E0.7222
G1 X165.650 Y218.124 E1.3075
G1 X165.422 Y218.675 E1.3165
G1 X159.142 Y224.955 E1.4505
G1 X158.590 Y225.183 E1.4595
G1 X121.409 Y225.183 E2.0206
G1 X120.858 Y224.955 E2.0296
G1 X114.578 Y218.675 E2.1637
G1 X114.350 Y218.124 E2.1727
G1 X114.350 Y179.344 E2.7579
G1 X114.578 Y178.793 E2.7669
G1 X119.303 Y174.069 E2.8678
G1 X120.858 Y172.513 F1050
G1 X121.198 Y173.022 F4800
G92 E0
G1 X121.529 Y172.885 E0.0054 F1050
G1 X158.471 Y172.885 E0.5629
G1 X158.802 Y173.022 E0.5683
G1 X164.913 Y179.133 E0.6988
G1 X165.050 Y179.464 E0.7042
G1 X165.050 Y218.004 E1.2858
G1 X164.913 Y218.335 E1.2912
G1 X158.802 Y224.446 E1.4217
G1 X158.471 Y224.583 E1.4271
G1 X121.529 Y224.583 E1.9846
G1 X121.198 Y224.446 E1.9900
G1 X115.087 Y218.335 E2.1204
G1 X114.950 Y218.004 E2.1259
G1 X114.950 Y179.464 E2.7075
G1 X115.087 Y179.133 E2.7129
G1 X119.642 Y174.578 E2.8101
G1 X121.198 Y173.022 F1050
G1 X121.538 Y173.531 F4800
G92 E0
G1 X121.648 Y173.485 E0.0018 F1050
G1 X158.352 Y173.485 E0.5557
G1 X158.462 Y173.531 E0.5575
G1 X164.404 Y179.473 E0.6844
G1 X164.450 Y179.583 E0.6862
G1 X164.450 Y217.885 E1.2642
G1 X164.404 Y217.995 E1.2660
G1 X158.462 Y223.938 E1.3929
G1 X158.352 Y223.983 E1.3947
G1 X121.648 Y223.983 E1.9486
G1 X121.538 Y223.938 E1.9504
G1 X115.596 Y217.995 E2.0772
G1 X115.550 Y217.885 E2.0790
G1 X115.550 Y179.583 E2.6571
G1 X115.596 Y179.473 E2.6589
G1 X119.982 Y175.086 E2.7525
G1 X121.538 Y173.531 F1050
G92 E0
G1 E-3.0000 F3200
G1 Z0.385 F1000
; inner perimeter
G1 X150.850 Y209.601 F4800
G1 Z0.135 F1000
G1 E0.0000 F3200
G92 E0
G1 X145.118 Y209.601 E0.0865 F962
G1 X147.297 Y207.384 E0.1334
G1 X147.242 Y202.068 E0.2137
G1 X146.827 Y201.597 E0.2231
G1 X147.213 Y201.205 E0.2314
G1 X147.158 Y195.888 E0.3117
G1 X145.888 Y194.445 E0.3407
G1 X145.888 Y193.104 E0.3609
G1 X145.361 Y193.156 E0.3689
G1 X145.244 Y192.605 E0.3774
G1 X144.905 Y191.732 E0.3915
G1 X144.429 Y190.925 E0.4057
G1 X143.857 Y190.250 E0.4190
G1 X143.384 Y189.822 E0.4287
G1 X142.631 Y189.311 E0.4424
G1 X141.704 Y188.914 E0.4576
G1 X140.704 Y188.705 E0.4730
G1 X139.746 Y188.705 E0.4875
G1 X139.088 Y188.807 E0.4975
G1 X138.208 Y189.080 E0.5114
G1 X137.395 Y189.520 E0.5254
G1 X136.875 Y189.907 E0.5352
G1 X136.243 Y190.528 E0.5486
G1 X135.689 Y191.301 E0.5629
G1 X135.281 Y192.136 E0.5769
G1 X135.027 Y192.970 E0.5901
G1 X134.844 Y194.024 E0.6062
G1 X135.108 Y195.266 E0.6254
G1 X133.296 Y197.110 E0.6644
G1 X133.201 Y206.419 E0.8049
G1 X133.355 Y206.370 E0.8074
G1 X133.322 Y209.601 E0.8561
G1 X129.150 Y209.601 E0.9191
G1 X129.150 Y187.825 E1.2477
G1 X150.850 Y187.825 E1.5752
G1 X150.850 Y207.401 E1.8707
G1 X150.850 Y209.601 F962
; inner perimeter
G1 X151.450 Y210.201 F4800
G92 E0
G1 X140.092 Y210.201 E0.1714 F875
G1 X140.048 Y209.891 E0.1761
G1 X142.081 Y209.302 E0.2081
G1 X144.806 Y209.062 E0.2493
G1 X146.694 Y207.142 E0.2900
G1 X146.644 Y202.297 E0.3631
G1 X146.008 Y201.574 E0.3776
G1 X146.610 Y200.962 E0.3906
G1 X146.561 Y196.117 E0.4637
G1 X145.288 Y194.672 E0.4928
G1 X145.288 Y193.766 E0.5065
G1 X144.885 Y193.806 E0.5126
G1 X144.667 Y192.777 E0.5284
G1 X144.363 Y191.994 E0.5411
G1 X143.938 Y191.274 E0.5537
G1 X143.425 Y190.668 E0.5657
G1 X143.012 Y190.295 E0.5741
G1 X142.342 Y189.840 E0.5863
G1 X141.523 Y189.489 E0.5998
G1 X140.642 Y189.305 E0.6134
G1 X139.792 Y189.305 E0.6262
G1 X139.224 Y189.393 E0.6349
G1 X138.442 Y189.636 E0.6472
G1 X137.719 Y190.027 E0.6596
G1 X137.266 Y190.364 E0.6682
G1 X136.700 Y190.919 E0.6801
G1 X136.206 Y191.609 E0.6929
G1 X135.841 Y192.356 E0.7055
G1 X135.611 Y193.109 E0.7174
G1 X135.455 Y194.012 E0.7312
G1 X135.695 Y195.144 E0.7486
G1 X135.868 Y195.589 E0.7559
G1 X135.531 Y195.691 E0.7612
G1 X133.894 Y197.358 E0.7964
G1 X133.809 Y205.593 E0.9207
G1 X133.964 Y205.544 E0.9232
G1 X133.916 Y210.201 E0.9935
G1 X128.550 Y210.201 E1.0744
G1 X128.550 Y187.225 E1.4212
G1 X151.450 Y187.225 E1.7668
G1 X151.450 Y208.001 E2.0804
G1 X151.450 Y210.201 F875
; inner perimeter
G1 X152.050 Y210.801 F4800
G92 E0
G1 X135.949 Y210.801 E0.2430 F788
G1 X135.901 Y210.497 E0.2476
G1 X136.697 Y210.239 E0.2603
G1 X141.769 Y208.768 E0.3400
G1 X141.769 Y208.727 E0.3406
G1 X144.533 Y208.484 E0.3825
G1 X146.091 Y206.899 E0.4160
G1 X146.047 Y202.526 E0.4820
G1 X145.189 Y201.552 E0.5016
G1 X146.008 Y200.719 E0.5192
G1 X145.963 Y196.346 E0.5852
G1 X144.688 Y194.898 E0.6143
G1 X144.688 Y194.428 E0.6214
G1 X144.200 Y194.476 E0.6288
G1 X144.296 Y193.921 E0.6373
G1 X144.090 Y192.949 E0.6523
G1 X143.822 Y192.257 E0.6635
G1 X143.447 Y191.623 E0.6746
G1 X142.993 Y191.086 E0.6853
G1 X142.641 Y190.768 E0.6924
G1 X142.053 Y190.369 E0.7031
G1 X141.342 Y190.064 E0.7148
G1 X140.580 Y189.905 E0.7266
G1 X139.838 Y189.905 E0.7378
G1 X139.359 Y189.979 E0.7451
G1 X138.676 Y190.191 E0.7559
G1 X138.042 Y190.535 E0.7668
G1 X137.657 Y190.821 E0.7740
G1 X137.158 Y191.311 E0.7846
G1 X136.723 Y191.918 E0.7958
G1 X136.401 Y192.577 E0.8069
G1 X136.196 Y193.249 E0.8175
G1 X136.066 Y194.001 E0.8290
G1 X136.272 Y194.972 E0.8440
G1 X136.541 Y195.664 E0.8552
G1 X136.715 Y195.960 E0.8604
G1 X135.851 Y196.221 E0.8740
G1 X134.491 Y197.606 E0.9033
G1 X134.418 Y204.768 E1.0114
G1 X134.572 Y204.718 E1.0138
G1 X134.510 Y210.801 E1.1056
G1 X127.950 Y210.801 E1.2046
G1 X127.950 Y186.625 E1.5695
G1 X152.050 Y186.625 E1.9332
G1 X152.050 Y208.601 E2.2649
G1 X152.050 Y210.801 F788
; inner perimeter
G1 X152.650 Y211.401 F4800
G92 E0
G1 X127.350 Y211.401 E0.3818 F700
G1 X127.350 Y186.025 E0.7648
G1 X152.650 Y186.025 E1.1466
G1 X152.650 Y209.201 E1.4964
G1 X152.650 Y211.401 F700
; inner perimeter
G1 X153.250 Y212.001 F4800
G92 E0
G1 X126.750 Y212.001 E0.3999 F613
G1 X126.750 Y185.425 E0.8010
G1 X153.250 Y185.425 E1.2010
G1 X153.250 Y209.801 E1.5688
G1 X153.250 Y212.001 F613
; outer perimeter
G1 X153.850 Y212.601 F4800
G92 E0
G1 X126.150 Y212.601 E0.4181 F525
G1 X126.150 Y184.825 E0.8372
G1 X153.850 Y184.825 E1.2553
G1 X153.850 Y210.401 E1.6413
G1 X153.850 Y212.601 F525
G92 E0
G1 E-3.0000 F3200
G1 Z0.385 F1000
G1 X142.857 Y205.439 F4800
G1 Z0.135 F1000
G1 E0.0000 F3200
G92 E0
G1 X141.980 Y205.518 E0.0133 F525
G1 X141.975 Y204.114 E0.0345
G1 X142.063 Y204.105 E0.0358
G1 X142.843 Y204.023 F525
G1 X142.857 Y205.439 F525
G92 E0
G1 E-3.0000 F3200
G1 Z0.385 F1000
G1 X141.896 Y199.338 F4800
G1 Z0.135 F1000
G1 E0.0000 F3200
G92 E0
G1 X141.891 Y197.935 E0.0212 F525
G1 X142.759 Y197.844 E0.0344
G1 X142.760 Y197.940 E0.0358
G1 X142.773 Y199.260 F525
G1 X141.896 Y199.338 F525
G92 E0
