; G-Code generated by Simplify3D(R) Version 3.1.1
; Mar 15, 2017 at 4:11:15 PM
; Settings Summary
;   processName,Process1
;   applyToModels,qq190_RTF_GPS_2
;   profileName,LulzBot TAZ 6 Dual (modified)
;   profileVersion,2017-02-17 02:12:56
;   baseProfile,
;   printMaterial,PVA
;   printQuality,Medium
;   printExtruders,Both Extruders
;   extruderName,Back Extruder,Front Extruder
;   extruderToolheadNumber,0,1
;   extruderDiameter,0.4,0.5
;   extruderAutoWidth,1,1
;   extruderWidth,0.48,0.6
;   extrusionMultiplier,2.94,1.1
;   extruderUseRetract,1,1
;   extruderRetractionDistance,1.5,3
;   extruderExtraRestartDistance,0,0
;   extruderRetractionZLift,0.2,0.25
;   extruderRetractionSpeed,1800,3200
;   extruderUseCoasting,0,1
;   extruderCoastingDistance,0.2,2.2
;   extruderUseWipe,0,0
;   extruderWipeDistance,5,5
;   primaryExtruder,1
;   layerHeight,0.15
;   topSolidLayers,5
;   bottomSolidLayers,5
;   perimeterOutlines,3
;   printPerimetersInsideOut,1
;   startPointOption,1
;   startPointOriginX,0
;   startPointOriginY,0
;   startPointOriginZ,0
;   sequentialIslands,0
;   spiralVaseMode,0
;   firstLayerHeightPercentage,90
;   firstLayerWidthPercentage,100
;   firstLayerUnderspeed,0.5
;   useRaft,0
;   raftExtruder,0
;   raftLayers,3
;   raftOffset,3
;   raftSeparationDistance,0.14
;   raftInfill,85
;   disableRaftBaseLayers,0
;   useSkirt,1
;   skirtExtruder,1
;   skirtLayers,3
;   skirtOutlines,3
;   skirtOffset,10
;   usePrimePillar,0
;   primePillarExtruder,999
;   primePillarWidth,12
;   primePillarLocation,7
;   primePillarSpeedMultiplier,1
;   useOozeShield,0
;   oozeShieldExtruder,999
;   oozeShieldOffset,2
;   oozeShieldOutlines,1
;   oozeShieldSidewallShape,1
;   oozeShieldSidewallAngle,30
;   oozeShieldSpeedMultiplier,1
;   infillExtruder,1
;   internalInfillPattern,Rectilinear
;   externalInfillPattern,Rectilinear
;   infillPercentage,30
;   outlineOverlapPercentage,15
;   infillExtrusionWidthPercentage,200
;   minInfillLength,5
;   infillLayerInterval,1
;   infillAngles,45,-45
;   overlapInfillAngles,0
;   generateSupport,0
;   supportExtruder,0
;   supportInfillPercentage,30
;   supportExtraInflation,0
;   denseSupportLayers,1
;   denseSupportInfillPercentage,70
;   supportLayerInterval,1
;   supportHorizontalPartOffset,0.3
;   supportUpperSeparationLayers,1
;   supportLowerSeparationLayers,1
;   supportType,0
;   supportGridSpacing,4
;   maxOverhangAngle,45
;   supportAngles,0
;   temperatureName,Back Extruder,Front Extruder,Heated Bed
;   temperatureNumber,0,1,0
;   temperatureSetpointCount,1,1,1
;   temperatureSetpointLayers,1,1,1
;   temperatureSetpointTemperatures,195,225,60
;   temperatureStabilizeAtStartup,1,1,1
;   temperatureHeatedBed,0,0,1
;   temperatureRelayBetweenLayers,0,0,0
;   temperatureRelayBetweenLoops,0,0,0
;   fanLayers,1,2
;   fanSpeeds,0,100
;   blipFanToFullPower,1
;   adjustSpeedForCooling,1
;   minSpeedLayerTime,15
;   minCoolingSpeedSlowdown,20
;   increaseFanForCooling,0
;   minFanLayerTime,45
;   maxCoolingFanSpeed,100
;   increaseFanForBridging,0
;   bridgingFanSpeed,100
;   use5D,1
;   relativeEdistances,0
;   allowEaxisZeroing,1
;   independentExtruderAxes,0
;   includeM10123,0
;   stickySupport,1
;   applyToolheadOffsets,1
;   gcodeXoffset,0
;   gcodeYoffset,0
;   gcodeZoffset,0
;   overrideMachineDefinition,1
;   machineTypeOverride,0
;   strokeXoverride,280
;   strokeYoverride,280
;   strokeZoverride,250
;   originOffsetXoverride,0
;   originOffsetYoverride,0
;   originOffsetZoverride,0
;   homeXdirOverride,-1
;   homeYdirOverride,-1
;   homeZdirOverride,-1
;   flipXoverride,1
;   flipYoverride,-1
;   flipZoverride,1
;   toolheadOffsets,0,0|0,50|0,0|0,0|0,0|0,0
;   overrideFirmwareConfiguration,1
;   firmwareTypeOverride,RepRap (Marlin/Repetier/Sprinter)
;   GPXconfigOverride,r2
;   baudRateOverride,250000
;   overridePrinterModels,1
;   printerModelsOverride,LulzBot_TAZ6.stl
;   startingGcode,G26 ; clear probe fail condition,M140 S[bed0_temperature] ; start heating bed,M104 S170 T0 ; start heating back extruder,M104 S170 T1 ; start heating front extruder,G28 XY ; home X and Y,T0 ; select this extruder first,G1 X-19 Y258 F1000 ; move to safe homing position,M109 S170 T0 ; soften filament for Z homing,M109 S170 T1 ; soften filament for Z homing,G28 Z ; home Z,G92 E0 ; zero extruder,G1 E-12 F100 ; retract 12mm filament,T1 ; switch extruders,G92 E0 ; zero extruder,G1 E-12 F100 ; retract 12mm filament,T0 ; switch extruders,G1 X-17 Y100 F3000 ; move above wiper pad,G1 Z1 ; push nozzle into wiper,G1 X-19 Y95 F1000 ; slow wipe,G1 X-17 Y90 F1000 ; slow wipe,G1 X-19 Y85 F1000 ; slow wipe,G1 X-17 Y90 F1000 ; slow wipe,G1 X-19 Y80 F1000 ; slow wipe,G1 X-17 Y95 F1000 ; slow wipe,G1 X-19 Y75 F2000 ; fast wipe,G1 X-17 Y85 F2000 ; fast wipe,G1 X-19 Y80 F2000 ; fast wipe,G1 X-17 Y70 F2000 ; fast wipe,G1 X-19 Y75 F2000 ; fast wipe,G1 X-17 Y95 F1000 ; slow wipe,G1 X-19 Y90 F1000 ; slow wipe,G1 X-17 Y85 F1000 ; slow wipe,G1 X-19 Y90 F1000 ; slow wipe,G1 X-17 Y80 F1000 ; slow wipe,G1 X-19 Y95 F1000 ; slow wipe,G1 X-17 Y75 F2000 ; fast wipe,G1 X-19 Y85 F2000 ; fast wipe,G1 X-17 Y80 F2000 ; fast wipe,G1 X-19 Y90 F2000 ; fast wipe,G1 X-17 Y85 F2000 ; fast wipe,G1 Z10 ; raise extruder,G1 X-9 Y-9 ; move above first probe point,M204 S100 ; set accel for probing,G29 ; probe sequence (for auto-leveling),M204 S500 ; set accel back to normal,G1 X0 Y0 Z15 F5000 ; get out of the way,M400 ; clear buffer,M117 Heating...,M104 S[extruder0_temperature] T0 ; start heating back extruder,M104 S[extruder1_temperature] T1 ; start heating front extruder,M190 S[bed0_temperature] ; stabilize bed,M109 S[extruder0_temperature] T0 ; stabilize back extruder,M109 S[extruder1_temperature] T1 ; stabilize front extruder,T1 ; switch to front extruder,G1 E0 F100 ; extrude filament back into nozzle,T0 ; switch to back extruder,G92 E-12 ; adjust E value,G1 Z2 E0 F100 ; extrude filament back into nozzle,M117 TAZ Printing...,
;   layerChangeGcode,
;   retractionGcode,
;   toolChangeGcode,
;   endingGcode,M400 ; wait for moves to finish,M104 S0 T0 ; turn off back extruder,M104 S0 T1 ; turn off front extruder,M107 ; turn off fan,G1 Y0 F3000 ; move to cooling position,M117 Cooling please wait,M190 S50 ; cool down bed,G1 Y280 F3000 ; present finished print,M140 S0 ; turn off bed,M84 ; disable motors,M117 QQ Print Finished!
;   exportFileFormat,gcode
;   celebration,0
;   celebrationSong,Random Song
;   postProcessing,
;   defaultSpeed,3000
;   outlineUnderspeed,0.5
;   solidInfillUnderspeed,0.8
;   supportUnderspeed,0.8
;   rapidXYspeed,4800
;   rapidZspeed,1000
;   minBridgingArea,50
;   bridgingExtraInflation,0
;   bridgingExtrusionMultiplier,1
;   bridgingSpeedMultiplier,1
;   filamentDiameter,2.89
;   filamentPricePerKg,46
;   filamentDensity,1.25
;   useMinPrintHeight,0
;   minPrintHeight,0
;   useMaxPrintHeight,0
;   maxPrintHeight,0
;   useDiaphragm,0
;   diaphragmLayerInterval,20
;   robustSlicing,1
;   mergeAllIntoSolid,0
;   onlyRetractWhenCrossingOutline,1
;   retractBetweenLayers,1
;   useRetractionMinTravel,0
;   retractionMinTravel,3
;   retractWhileWiping,0
;   onlyWipeOutlines,1
;   avoidCrossingOutline,0
;   maxMovementDetourFactor,3
;   toolChangeRetractionDistance,12
;   toolChangeExtraRestartDistance,-0.5
;   toolChangeRetractionSpeed,600
;   allowThinWallGapFill,1
;   thinWallAllowedOverlapPercentage,20
;   horizontalSizeCompensation,0
G90
M82
M106 S0
G26 ; clear probe fail condition
M140 S60 ; start heating bed
M104 S170 T0 ; start heating back extruder
M104 S170 T1 ; start heating front extruder
G28 XY ; home X and Y
T0 ; select this extruder first
G1 X-19 Y258 F1000 ; move to safe homing position
M109 S170 T0 ; soften filament for Z homing
M109 S170 T1 ; soften filament for Z homing
G28 Z ; home Z
G92 E0 ; zero extruder
G1 E-12 F100 ; retract 12mm filament
T1 ; switch extruders
G92 E0 ; zero extruder
G1 E-12 F100 ; retract 12mm filament
T0 ; switch extruders
G1 X-17 Y100 F3000 ; move above wiper pad
G1 Z1 ; push nozzle into wiper
G1 X-19 Y95 F1000 ; slow wipe
G1 X-17 Y90 F1000 ; slow wipe
G1 X-19 Y85 F1000 ; slow wipe
G1 X-17 Y90 F1000 ; slow wipe
G1 X-19 Y80 F1000 ; slow wipe
G1 X-17 Y95 F1000 ; slow wipe
G1 X-19 Y75 F2000 ; fast wipe
G1 X-17 Y85 F2000 ; fast wipe
G1 X-19 Y80 F2000 ; fast wipe
G1 X-17 Y70 F2000 ; fast wipe
G1 X-19 Y75 F2000 ; fast wipe
G1 X-17 Y95 F1000 ; slow wipe
G1 X-19 Y90 F1000 ; slow wipe
G1 X-17 Y85 F1000 ; slow wipe
G1 X-19 Y90 F1000 ; slow wipe
G1 X-17 Y80 F1000 ; slow wipe
G1 X-19 Y95 F1000 ; slow wipe
G1 X-17 Y75 F2000 ; fast wipe
G1 X-19 Y85 F2000 ; fast wipe
G1 X-17 Y80 F2000 ; fast wipe
G1 X-19 Y90 F2000 ; fast wipe
G1 X-17 Y85 F2000 ; fast wipe
G1 Z10 ; raise extruder
G1 X-9 Y-9 ; move above first probe point
M204 S100 ; set accel for probing
G29 ; probe sequence (for auto-leveling)
M204 S500 ; set accel back to normal
G1 X0 Y0 Z15 F5000 ; get out of the way
M400 ; clear buffer
M117 Heating...
M104 S195 T0 ; start heating back extruder
M104 S225 T1 ; start heating front extruder
M190 S60 ; stabilize bed
M109 S195 T0 ; stabilize back extruder
M109 S225 T1 ; stabilize front extruder
T1 ; switch to front extruder
G1 E0 F100 ; extrude filament back into nozzle
T0 ; switch to back extruder
G92 E-12 ; adjust E value
G1 Z2 E0 F100 ; extrude filament back into nozzle
M117 TAZ Printing...
G92 E0
G1 E-3.0000 F3200
G1 Z0.385 F1000
; layer 1, Z = 0.135
T1
; tool H0.150 W0.600
; skirt
G1 X120.858 Y172.513 F4800
G1 Z0.135 F1000
G1 E0.0000 F960
G92 E0
G1 X121.409 Y172.285 E0.0090 F1500
G1 X158.590 Y172.285 E0.5701
G1 X159.142 Y172.513 E0.5792
G1 X165.422 Y178.793 E0.7132
G1 X165.650 Y179.344 E0.7222
G1 X165.650 Y218.124 E1.3075
G1 X165.422 Y218.675 E1.3165
G1 X159.142 Y224.955 E1.4505
G1 X158.590 Y225.183 E1.4595
G1 X121.409 Y225.183 E2.0206
G1 X120.858 Y224.955 E2.0296
G1 X114.578 Y218.675 E2.1637
G1 X114.350 Y218.124 E2.1727
G1 X114.350 Y179.344 E2.7579
G1 X114.578 Y178.793 E2.7669
G1 X119.303 Y174.069 E2.8678
G1 X120.858 Y172.513 F1500
G1 X121.198 Y173.022 F4800
G92 E0
G1 X121.529 Y172.885 E0.0054 F1500
G1 X158.471 Y172.885 E0.5629
G1 X158.802 Y173.022 E0.5683
G1 X164.913 Y179.133 E0.6988
G1 X165.050 Y179.464 E0.7042
G1 X165.050 Y218.004 E1.2858
G1 X164.913 Y218.335 E1.2912
G1 X158.802 Y224.446 E1.4217
G1 X158.471 Y224.583 E1.4271
G1 X121.529 Y224.583 E1.9846
G1 X121.198 Y224.446 E1.9900
G1 X115.087 Y218.335 E2.1204
G1 X114.950 Y218.004 E2.1259
G1 X114.950 Y179.464 E2.7075
G1 X115.087 Y179.133 E2.7129
G1 X119.642 Y174.578 E2.8101
G1 X121.198 Y173.022 F1500
G1 X121.538 Y173.531 F4800
G92 E0
G1 X121.648 Y173.485 E0.0018 F1500
G1 X158.352 Y173.485 E0.5557
G1 X158.462 Y173.531 E0.5575
G1 X164.404 Y179.473 E0.6844
G1 X164.450 Y179.583 E0.6862
G1 X164.450 Y217.885 E1.2642
G1 X164.404 Y217.995 E1.2660
G1 X158.462 Y223.938 E1.3929
G1 X158.352 Y223.983 E1.3947
G1 X121.648 Y223.983 E1.9486
G1 X121.538 Y223.938 E1.9504
G1 X115.596 Y217.995 E2.0772
G1 X115.550 Y217.885 E2.0790
G1 X115.550 Y179.583 E2.6571
G1 X115.596 Y179.473 E2.6589
G1 X119.982 Y175.086 E2.7525
G1 X121.538 Y173.531 F1500
G92 E0
G1 E-3.0000 F3200
G1 Z0.385 F1000
; inner perimeter
G1 X152.650 Y211.401 F4800
G1 Z0.135 F1000
G1 E0.0000 F3200
G92 E0
G1 X127.350 Y211.401 E0.3818 F1250
G1 X127.350 Y186.025 E0.7648
G1 X152.650 Y186.025 E1.1466
G1 X152.650 Y209.201 E1.4964
G1 X152.650 Y211.401 F1250
; inner perimeter
G1 X153.250 Y212.001 F4800
G92 E0
G1 X126.750 Y212.001 E0.3999 F1000
G1 X126.750 Y185.425 E0.8010
G1 X153.250 Y185.425 E1.2010
G1 X153.250 Y209.801 E1.5688
G1 X153.250 Y212.001 F1000
G92 E0
G1 E-3.0000 F3200
G1 Z0.385 F1000
; outer perimeter
G1 X142.857 Y205.439 F4800
G1 Z0.135 F1000
G1 E0.0000 F3200
G92 E0
G1 X141.980 Y205.518 E0.0133 F750
G1 X141.975 Y204.114 E0.0345
G1 X142.063 Y204.105 E0.0358
G1 X142.843 Y204.023 F750
G1 X142.857 Y205.439 F750
G92 E0
G1 E-3.0000 F3200
G1 Z0.385 F1000
G1 X141.896 Y199.338 F4800
G1 Z0.135 F1000
G1 E0.0000 F3200
G92 E0
G1 X141.891 Y197.935 E0.0212 F750
G1 X142.759 Y197.844 E0.0344
G1 X142.760 Y197.940 E0.0358
G1 X142.773 Y199.260 F750
G1 X141.896 Y199.338 F750
G92 E0
G1 E-3.0000 F3200
G1 Z0.385 F1000
G1 X153.850 Y212.601 F4800
G1 Z0.135 F1000
G1 E0.0000 F3200
G92 E0
G1 X126.150 Y212.601 E0.4181 F750
G1 X126.150 Y184.825 E0.8372
G1 X153.850 Y184.825 E1.2553
G1 X153.850 Y210.401 E1.6413
G1 X153.850 Y212.601 F750
; inner perimeter
G1 X144.260 Y207.906 F4800
G92 E0
G1 X145.489 Y206.656 E0.0265 F1250
G1 X145.449 Y202.755 E0.0853
G1 X144.370 Y201.529 E0.1100
G1 X145.405 Y200.476 E0.1323
G1 X145.365 Y196.575 E0.1911
G1 X144.088 Y195.125 E0.2203
G1 X144.088 Y195.090 E0.2208
G1 X143.391 Y195.158 E0.2314
G1 X143.581 Y194.533 E0.2413
G1 X143.685 Y193.932 E0.2505
G1 X143.513 Y193.121 E0.2630
G1 X143.280 Y192.520 E0.2727
G1 X142.956 Y191.972 E0.2823
G1 X142.561 Y191.505 E0.2916
G1 X142.270 Y191.241 E0.2975
G1 X141.763 Y190.898 E0.3067
G1 X141.161 Y190.639 E0.3166
G1 X140.518 Y190.505 E0.3265
G1 X139.884 Y190.505 E0.3361
G1 X139.494 Y190.565 E0.3420
G1 X138.910 Y190.747 E0.3513
G1 X138.366 Y191.042 E0.3606
G1 X138.048 Y191.278 E0.3666
G1 X137.615 Y191.703 E0.3757
G1 X137.240 Y192.226 E0.3855
G1 X136.961 Y192.798 E0.3951
G1 X136.781 Y193.388 E0.4044
G1 X136.677 Y193.989 E0.4136
G1 X136.849 Y194.800 E0.4261
G1 X137.082 Y195.401 E0.4358
G1 X137.439 Y196.006 E0.4464
G1 X137.436 Y196.369 E0.4519
G1 X136.172 Y196.751 E0.4718
G1 X135.089 Y197.854 E0.4952
G1 X135.026 Y203.942 E0.5871
G1 X135.181 Y203.892 E0.5895
G1 X135.117 Y210.120 E0.6835
G1 X137.470 Y209.357 E0.7208
G1 X137.470 Y209.390 E0.7213
G1 X141.174 Y208.315 E0.7795
G1 X141.175 Y208.177 E0.7816
G1 X142.069 Y208.098 E0.7952
G1 X144.260 Y207.906 F1250
; inner perimeter
G1 X143.987 Y207.327 F4800
G92 E0
G1 X144.886 Y206.413 E0.0194 F1000
G1 X144.851 Y202.984 E0.0711
G1 X143.925 Y201.933 E0.0922
G1 X143.571 Y201.957 E0.0976
G1 X143.571 Y201.932 E0.0980
G1 X142.721 Y202.014 E0.1109
G1 X142.223 Y202.048 E0.1184
G1 X142.223 Y202.063 E0.1186
G1 X141.619 Y202.122 E0.1278
G1 X141.570 Y201.885 E0.1314
G1 X141.884 Y201.329 E0.1411
G1 X143.904 Y201.147 E0.1717
G1 X144.803 Y200.233 E0.1910
G1 X144.768 Y196.805 E0.2428
G1 X143.842 Y195.753 E0.2639
G1 X143.488 Y195.777 E0.2693
G1 X143.488 Y195.751 E0.2696
G1 X142.257 Y195.872 E0.2883
G1 X142.605 Y195.386 E0.2973
G1 X142.841 Y194.903 E0.3054
G1 X142.996 Y194.394 E0.3135
G1 X143.074 Y193.943 E0.3204
G1 X142.937 Y193.293 E0.3304
G1 X142.738 Y192.783 E0.3387
G1 X142.466 Y192.320 E0.3468
G1 X142.129 Y191.923 E0.3546
G1 X141.898 Y191.714 E0.3593
G1 X141.474 Y191.426 E0.3671
G1 X140.979 Y191.214 E0.3752
G1 X140.457 Y191.105 E0.3832
G1 X139.930 Y191.105 E0.3912
G1 X139.630 Y191.151 E0.3958
G1 X139.144 Y191.302 E0.4034
G1 X138.689 Y191.549 E0.4113
G1 X138.439 Y191.735 E0.4160
G1 X138.073 Y192.094 E0.4237
G1 X137.757 Y192.535 E0.4319
G1 X137.521 Y193.018 E0.4400
G1 X137.366 Y193.527 E0.4480
G1 X137.288 Y193.978 E0.4549
G1 X137.426 Y194.628 E0.4650
G1 X137.624 Y195.138 E0.4732
G1 X137.897 Y195.601 E0.4813
G1 X138.233 Y195.998 E0.4892
G1 X138.825 Y196.532 E0.5012
G1 X138.034 Y196.518 E0.5131
G1 X138.032 Y196.816 E0.5176
G1 X136.492 Y197.281 E0.5419
G1 X135.686 Y198.102 E0.5593
G1 X135.635 Y203.116 E0.6350
G1 X137.980 Y202.362 E0.6721
G1 X137.980 Y202.408 E0.6728
G1 X138.048 Y202.388 E0.6739
G1 X138.772 Y202.179 E0.6853
G1 X138.882 Y202.711 E0.6935
G1 X138.132 Y202.696 E0.7048
G1 X138.129 Y202.985 E0.7091
G1 X136.572 Y203.455 E0.7337
G1 X135.777 Y204.279 E0.7510
G1 X135.725 Y209.292 E0.8266
G1 X138.078 Y208.529 E0.8640
G1 X138.078 Y208.589 E0.8649
G1 X140.579 Y207.863 E0.9042
G1 X140.586 Y207.242 E0.9136
G1 X140.927 Y207.596 E0.9210
G1 X141.796 Y207.520 E0.9341
G1 X143.987 Y207.327 F1000
; outer perimeter
G1 X143.715 Y206.749 F4800
G92 E0
G1 X144.284 Y206.170 E0.0123 F750
G1 X144.254 Y203.213 E0.0569
G1 X143.671 Y202.551 E0.0702
G1 X142.971 Y202.599 E0.0808
G1 X142.971 Y202.593 E0.0809
G1 X140.839 Y202.800 E0.1132
G1 X140.836 Y202.794 E0.1133
G1 X140.868 Y202.756 E0.1140
G1 X140.956 Y202.609 E0.1166
G1 X141.022 Y202.378 E0.1203
G1 X141.023 Y202.203 E0.1229
G1 X140.989 Y202.037 E0.1255
