; G-Code generated by Simplify3D(R) Version 3.1.1
; Mar 15, 2017 at 11:28:26 PM
; Settings Summary
;   processName,Process1
;   applyToModels,qq190_RTF_GPS_2
;   profileName,LulzBot TAZ 6 Dual (modified)
;   profileVersion,2017-02-17 02:12:56
;   baseProfile,
;   printMaterial,PVA
;   printQuality,Medium
;   printExtruders,Both Extruders
;   extruderName,Back Extruder,Front Extruder
;   extruderToolheadNumber,0,1
;   extruderDiameter,0.4,0.5
;   extruderAutoWidth,1,1
;   extruderWidth,0.48,0.6
;   extrusionMultiplier,2.94,1.05
;   extruderUseRetract,1,1
;   extruderRetractionDistance,1.5,3.7
;   extruderExtraRestartDistance,0,0
;   extruderRetractionZLift,0.2,0.2
;   extruderRetractionSpeed,1800,3200
;   extruderUseCoasting,0,1
;   extruderCoastingDistance,0.2,2.2
;   extruderUseWipe,0,0
;   extruderWipeDistance,5,5
;   primaryExtruder,1
;   layerHeight,0.2
;   topSolidLayers,4
;   bottomSolidLayers,3
;   perimeterOutlines,3
;   printPerimetersInsideOut,1
;   startPointOption,2
;   startPointOriginX,0
;   startPointOriginY,0
;   startPointOriginZ,0
;   sequentialIslands,0
;   spiralVaseMode,0
;   firstLayerHeightPercentage,90
;   firstLayerWidthPercentage,100
;   firstLayerUnderspeed,0.5
;   useRaft,0
;   raftExtruder,0
;   raftLayers,3
;   raftOffset,3
;   raftSeparationDistance,0.14
;   raftInfill,85
;   disableRaftBaseLayers,0
;   useSkirt,1
;   skirtExtruder,1
;   skirtLayers,3
;   skirtOutlines,3
;   skirtOffset,10
;   usePrimePillar,0
;   primePillarExtruder,999
;   primePillarWidth,12
;   primePillarLocation,7
;   primePillarSpeedMultiplier,1
;   useOozeShield,0
;   oozeShieldExtruder,999
;   oozeShieldOffset,2
;   oozeShieldOutlines,1
;   oozeShieldSidewallShape,1
;   oozeShieldSidewallAngle,30
;   oozeShieldSpeedMultiplier,1
;   infillExtruder,1
;   internalInfillPattern,Rectilinear
;   externalInfillPattern,Rectilinear
;   infillPercentage,30
;   outlineOverlapPercentage,15
;   infillExtrusionWidthPercentage,200
;   minInfillLength,5
;   infillLayerInterval,1
;   infillAngles,45,-45
;   overlapInfillAngles,0
;   generateSupport,0
;   supportExtruder,0
;   supportInfillPercentage,30
;   supportExtraInflation,0
;   denseSupportLayers,1
;   denseSupportInfillPercentage,70
;   supportLayerInterval,1
;   supportHorizontalPartOffset,0.3
;   supportUpperSeparationLayers,1
;   supportLowerSeparationLayers,1
;   supportType,0
;   supportGridSpacing,4
;   maxOverhangAngle,45
;   supportAngles,0
;   temperatureName,Back Extruder,Front Extruder,Heated Bed
;   temperatureNumber,0,1,0
;   temperatureSetpointCount,1,1,1
;   temperatureSetpointLayers,1,1,1
;   temperatureSetpointTemperatures,195,230,60
;   temperatureStabilizeAtStartup,1,1,1
;   temperatureHeatedBed,0,0,1
;   temperatureRelayBetweenLayers,0,0,0
;   temperatureRelayBetweenLoops,0,0,0
;   fanLayers,1,2
;   fanSpeeds,0,100
;   blipFanToFullPower,1
;   adjustSpeedForCooling,1
;   minSpeedLayerTime,15
;   minCoolingSpeedSlowdown,20
;   increaseFanForCooling,0
;   minFanLayerTime,45
;   maxCoolingFanSpeed,100
;   increaseFanForBridging,0
;   bridgingFanSpeed,100
;   use5D,1
;   relativeEdistances,0
;   allowEaxisZeroing,1
;   independentExtruderAxes,0
;   includeM10123,0
;   stickySupport,1
;   applyToolheadOffsets,1
;   gcodeXoffset,0
;   gcodeYoffset,0
;   gcodeZoffset,0
;   overrideMachineDefinition,1
;   machineTypeOverride,0
;   strokeXoverride,280
;   strokeYoverride,280
;   strokeZoverride,250
;   originOffsetXoverride,0
;   originOffsetYoverride,0
;   originOffsetZoverride,0
;   homeXdirOverride,-1
;   homeYdirOverride,-1
;   homeZdirOverride,-1
;   flipXoverride,1
;   flipYoverride,-1
;   flipZoverride,1
;   toolheadOffsets,0,0|0,50|0,0|0,0|0,0|0,0
;   overrideFirmwareConfiguration,1
;   firmwareTypeOverride,RepRap (Marlin/Repetier/Sprinter)
;   GPXconfigOverride,r2
;   baudRateOverride,250000
;   overridePrinterModels,1
;   printerModelsOverride,LulzBot_TAZ6.stl
;   startingGcode,G26 ; clear probe fail condition,M140 S[bed0_temperature] ; start heating bed,M104 S170 T0 ; start heating back extruder,M104 S170 T1 ; start heating front extruder,G28 XY ; home X and Y,T0 ; select this extruder first,G1 X-19 Y258 F1000 ; move to safe homing position,M109 S170 T0 ; soften filament for Z homing,M109 S170 T1 ; soften filament for Z homing,G28 Z ; home Z,G92 E0 ; zero extruder,G1 E-12 F100 ; retract 12mm filament,T1 ; switch extruders,G92 E0 ; zero extruder,G1 E-12 F100 ; retract 12mm filament,T0 ; switch extruders,G1 X-17 Y100 F3000 ; move above wiper pad,G1 Z1 ; push nozzle into wiper,G1 X-19 Y95 F1000 ; slow wipe,G1 X-17 Y90 F1000 ; slow wipe,G1 X-19 Y85 F1000 ; slow wipe,G1 X-17 Y90 F1000 ; slow wipe,G1 X-19 Y80 F1000 ; slow wipe,G1 X-17 Y95 F1000 ; slow wipe,G1 X-19 Y75 F2000 ; fast wipe,G1 X-17 Y85 F2000 ; fast wipe,G1 X-19 Y80 F2000 ; fast wipe,G1 X-17 Y70 F2000 ; fast wipe,G1 X-19 Y75 F2000 ; fast wipe,G1 X-17 Y95 F1000 ; slow wipe,G1 X-19 Y90 F1000 ; slow wipe,G1 X-17 Y85 F1000 ; slow wipe,G1 X-19 Y90 F1000 ; slow wipe,G1 X-17 Y80 F1000 ; slow wipe,G1 X-19 Y95 F1000 ; slow wipe,G1 X-17 Y75 F2000 ; fast wipe,G1 X-19 Y85 F2000 ; fast wipe,G1 X-17 Y80 F2000 ; fast wipe,G1 X-19 Y90 F2000 ; fast wipe,G1 X-17 Y85 F2000 ; fast wipe,G1 Z10 ; raise extruder,G1 X-9 Y-9 ; move above first probe point,M204 S100 ; set accel for probing,G29 ; probe sequence (for auto-leveling),M204 S500 ; set accel back to normal,G1 X0 Y0 Z15 F5000 ; get out of the way,M400 ; clear buffer,M117 Heating...,M104 S[extruder1_temperature] T1 ; start heating front extruder,M190 S[bed0_temperature] ; stabilize bed,M109 S[extruder1_temperature] T1 ; stabilize front extruder,T1 ; switch to front extruder,G1 E0 F100 ; extrude filament back into nozzle,T0 ; switch to back extruder,G92 E-12 ; adjust E value,G1 Z2 E0 F100 ; extrude filament back into nozzle,M104 S0 T0 ; cool down back extruder,M117 TAZ Printing...
;   layerChangeGcode,
;   retractionGcode,
;   toolChangeGcode,
;   endingGcode,M400 ; wait for moves to finish,M104 S0 T0 ; turn off back extruder,M104 S0 T1 ; turn off front extruder,M107 ; turn off fan,G1 Y0 F3000 ; move to cooling position,M117 Cooling please wait,M190 S50 ; cool down bed,G1 Y280 F3000 ; present finished print,M140 S0 ; turn off bed,M84 ; disable motors,M117 QQ Print Finished!
;   exportFileFormat,gcode
;   celebration,0
;   celebrationSong,Random Song
;   postProcessing,
;   defaultSpeed,2100
;   outlineUnderspeed,0.5
;   solidInfillUnderspeed,0.5
;   supportUnderspeed,0.8
;   rapidXYspeed,4800
;   rapidZspeed,1000
;   minBridgingArea,50
;   bridgingExtraInflation,0
;   bridgingExtrusionMultiplier,0.95
;   bridgingSpeedMultiplier,1.1
;   filamentDiameter,2.85
;   filamentPricePerKg,46
;   filamentDensity,1.25
;   useMinPrintHeight,0
;   minPrintHeight,0
;   useMaxPrintHeight,0
;   maxPrintHeight,0
;   useDiaphragm,0
;   diaphragmLayerInterval,20
;   robustSlicing,1
;   mergeAllIntoSolid,0
;   onlyRetractWhenCrossingOutline,1
;   retractBetweenLayers,1
;   useRetractionMinTravel,0
;   retractionMinTravel,3
;   retractWhileWiping,0
;   onlyWipeOutlines,1
;   avoidCrossingOutline,0
;   maxMovementDetourFactor,3
;   toolChangeRetractionDistance,12
;   toolChangeExtraRestartDistance,-0.5
;   toolChangeRetractionSpeed,600
;   allowThinWallGapFill,1
;   thinWallAllowedOverlapPercentage,10
;   horizontalSizeCompensation,0
G90
M82
M106 S0
G26 ; clear probe fail condition
M140 S60 ; start heating bed
M104 S170 T0 ; start heating back extruder
M104 S170 T1 ; start heating front extruder
G28 XY ; home X and Y
T0 ; select this extruder first
G1 X-19 Y258 F1000 ; move to safe homing position
M109 S170 T0 ; soften filament for Z homing
M109 S170 T1 ; soften filament for Z homing
G28 Z ; home Z
G92 E0 ; zero extruder
G1 E-12 F100 ; retract 12mm filament
T1 ; switch extruders
G92 E0 ; zero extruder
G1 E-12 F100 ; retract 12mm filament
T0 ; switch extruders
G1 X-17 Y100 F3000 ; move above wiper pad
G1 Z1 ; push nozzle into wiper
G1 X-19 Y95 F1000 ; slow wipe
G1 X-17 Y90 F1000 ; slow wipe
G1 X-19 Y85 F1000 ; slow wipe
G1 X-17 Y90 F1000 ; slow wipe
G1 X-19 Y80 F1000 ; slow wipe
G1 X-17 Y95 F1000 ; slow wipe
G1 X-19 Y75 F2000 ; fast wipe
G1 X-17 Y85 F2000 ; fast wipe
G1 X-19 Y80 F2000 ; fast wipe
G1 X-17 Y70 F2000 ; fast wipe
G1 X-19 Y75 F2000 ; fast wipe
G1 X-17 Y95 F1000 ; slow wipe
G1 X-19 Y90 F1000 ; slow wipe
G1 X-17 Y85 F1000 ; slow wipe
G1 X-19 Y90 F1000 ; slow wipe
G1 X-17 Y80 F1000 ; slow wipe
G1 X-19 Y95 F1000 ; slow wipe
G1 X-17 Y75 F2000 ; fast wipe
G1 X-19 Y85 F2000 ; fast wipe
G1 X-17 Y80 F2000 ; fast wipe
G1 X-19 Y90 F2000 ; fast wipe
G1 X-17 Y85 F2000 ; fast wipe
G1 Z10 ; raise extruder
G1 X-9 Y-9 ; move above first probe point
M204 S100 ; set accel for probing
G29 ; probe sequence (for auto-leveling)
M204 S500 ; set accel back to normal
G1 X0 Y0 Z15 F5000 ; get out of the way
M400 ; clear buffer
M117 Heating...
M104 S230 T1 ; start heating front extruder
M190 S60 ; stabilize bed
M109 S230 T1 ; stabilize front extruder
T1 ; switch to front extruder
G1 E0 F100 ; extrude filament back into nozzle
T0 ; switch to back extruder
G92 E-12 ; adjust E value
G1 Z2 E0 F100 ; extrude filament back into nozzle
M104 S0 T0 ; cool down back extruder
M117 TAZ Printing...
G92 E0
G1 E-3.7000 F3200
G1 Z0.380 F1000
; layer 1, Z = 0.18
M104 S195 T0
T1
; tool H0.200 W0.600
; skirt
G1 X120.858 Y172.303 F4800
G1 Z0.180 F1000
G1 E0.0000 F960
G92 E0
G1 X121.409 Y172.075 E0.0118 F1050
G1 X158.590 Y172.075 E0.7462
G1 X159.142 Y172.303 E0.7579
G1 X165.422 Y178.583 E0.9333
G1 X165.650 Y179.135 E0.9451
G1 X165.650 Y218.343 E1.7195
G1 X165.422 Y218.894 E1.7313
G1 X159.142 Y225.174 E1.9067
G1 X158.590 Y225.402 E1.9185
G1 X121.409 Y225.402 E2.6529
G1 X120.858 Y225.174 E2.6647
G1 X114.578 Y218.894 E2.8401
G1 X114.350 Y218.343 E2.8519
G1 X114.350 Y179.135 E3.6263
G1 X114.578 Y178.583 E3.6381
G1 X119.303 Y173.859 E3.7700
G1 X120.858 Y172.303 F1050
G1 X121.198 Y172.812 F4800
G92 E0
G1 X121.529 Y172.675 E0.0071 F1050
G1 X158.471 Y172.675 E0.7367
G1 X158.802 Y172.812 E0.7438
G1 X164.913 Y178.923 E0.9145
G1 X165.050 Y179.254 E0.9216
G1 X165.050 Y218.224 E1.6913
G1 X164.913 Y218.554 E1.6983
G1 X158.802 Y224.665 E1.8690
G1 X158.471 Y224.802 E1.8761
G1 X121.529 Y224.802 E2.6057
G1 X121.198 Y224.665 E2.6128
G1 X115.087 Y218.554 E2.7835
G1 X114.950 Y218.224 E2.7906
G1 X114.950 Y179.254 E3.5603
G1 X115.087 Y178.923 E3.5673
G1 X119.642 Y174.368 E3.6946
G1 X121.198 Y172.812 F1050
G1 X121.538 Y173.321 F4800
G92 E0
G1 X121.648 Y173.275 E0.0024 F1050
G1 X158.352 Y173.275 E0.7273
G1 X158.462 Y173.321 E0.7297
G1 X164.404 Y179.263 E0.8956
G1 X164.450 Y179.373 E0.8980
G1 X164.450 Y218.104 E1.6630
G1 X164.404 Y218.215 E1.6653
G1 X158.462 Y224.157 E1.8313
G1 X158.352 Y224.202 E1.8337
G1 X121.648 Y224.202 E2.5586
G1 X121.538 Y224.157 E2.5610
G1 X115.596 Y218.215 E2.7269
G1 X115.550 Y218.104 E2.7293
G1 X115.550 Y179.373 E3.4943
G1 X115.596 Y179.263 E3.4966
G1 X119.982 Y174.876 E3.6192
G1 X121.538 Y173.321 F1050
G92 E0
G1 E-3.7000 F3200
G1 Z0.380 F1000
; inner perimeter
G1 X127.350 Y185.953 F4800
G1 Z0.180 F1000
G1 E0.0000 F3200
G92 E0
G1 X152.650 Y185.953 E0.4997 F875
G1 X152.650 Y211.483 E1.0040
G1 X127.350 Y211.483 E1.5037
G1 X127.350 Y188.153 E1.9645
G1 X127.350 Y185.953 F875
; inner perimeter
G1 X126.750 Y185.353 F4800
G92 E0
G1 X153.250 Y185.353 E0.5234 F700
G1 X153.250 Y212.083 E1.0514
G1 X126.750 Y212.083 E1.5748
G1 X126.750 Y187.553 E2.0593
G1 X126.750 Y185.353 F700
; outer perimeter
G1 X126.150 Y184.753 F4800
G92 E0
G1 X153.850 Y184.753 E0.5471 F525
G1 X153.850 Y212.683 E1.0988
G1 X126.150 Y212.683 E1.6459
G1 X126.150 Y186.953 E2.1541
G1 X126.150 Y184.753 F525
G92 E0
G1 E-3.7000 F3200
G1 Z0.380 F1000
G1 X141.891 Y197.935 F4800
G1 Z0.180 F1000
G1 E0.0000 F3200
G92 E0
G1 X142.759 Y197.844 E0.0172 F525
G1 X142.773 Y199.260 E0.0452
G1 X142.689 Y199.267 E0.0469
G1 X141.896 Y199.338 F525
G1 X141.891 Y197.935 F525
G92 E0
G1 E-3.7000 F3200
G1 Z0.380 F1000
G1 X142.843 Y204.023 F4800
G1 Z0.180 F1000
G1 E0.0000 F3200
G92 E0
G1 X142.857 Y205.439 E0.0280 F525
G1 X141.980 Y205.518 E0.0454
G1 X141.980 Y205.441 E0.0469
G1 X141.975 Y204.114 F525
G1 X142.843 Y204.023 F525
G92 E0
G1 E-3.7000 F3200
G1 Z0.380 F1000
; inner perimeter
G1 X138.050 Y191.264 F4800
G1 Z0.180 F1000
G1 E0.0000 F3200
G92 E0
G1 X137.617 Y191.687 E0.0120 F875
G1 X137.242 Y192.211 E0.0247
G1 X136.962 Y192.781 E0.0372
G1 X136.778 Y193.385 E0.0497
G1 X136.681 Y194.015 E0.0623
G1 X136.849 Y194.800 E0.0781
G1 X137.081 Y195.400 E0.0908
G1 X137.439 Y196.006 E0.1048
G1 X137.436 Y196.369 E0.1119
G1 X136.172 Y196.751 E0.1380
G1 X135.089 Y197.854 E0.1685
G1 X135.026 Y203.942 E0.2888
G1 X135.181 Y203.892 E0.2920
G1 X135.117 Y210.120 E0.4150
G1 X137.470 Y209.357 E0.4639
G1 X137.470 Y209.390 E0.4645
G1 X141.174 Y208.315 E0.5407
G1 X141.175 Y208.177 E0.5434
G1 X144.260 Y207.906 E0.6046
G1 X145.489 Y206.656 E0.6392
G1 X145.449 Y202.755 E0.7163
G1 X144.370 Y201.529 E0.7485
G1 X145.405 Y200.476 E0.7777
G1 X145.365 Y196.575 E0.8547
G1 X144.088 Y195.125 E0.8929
G1 X144.088 Y195.090 E0.8936
G1 X143.390 Y195.158 E0.9074
G1 X143.581 Y194.535 E0.9203
G1 X143.686 Y193.926 E0.9325
G1 X143.515 Y193.111 E0.9490
G1 X143.281 Y192.508 E0.9617
G1 X142.958 Y191.961 E0.9743
G1 X142.563 Y191.493 E0.9864
G1 X142.271 Y191.229 E0.9941
G1 X141.766 Y190.886 E1.0062
G1 X141.163 Y190.627 E1.0192
G1 X140.521 Y190.493 E1.0321
G1 X140.065 Y190.493 E1.0411
G1 X139.882 Y190.493 F875
G1 X139.496 Y190.552 F875
G1 X138.913 Y190.732 F875
G1 X138.368 Y191.027 F875
G1 X138.050 Y191.264 F875
; inner perimeter
G1 X138.440 Y191.721 F4800
G92 E0
G1 X138.075 Y192.079 E0.0101 F700
G1 X137.758 Y192.520 E0.0208
G1 X137.522 Y193.002 E0.0314
G1 X137.364 Y193.519 E0.0421
G1 X137.290 Y193.997 E0.0517
G1 X137.426 Y194.627 E0.0644
G1 X137.623 Y195.137 E0.0752
G1 X137.895 Y195.599 E0.0858
G1 X138.232 Y195.997 E0.0961
G1 X138.824 Y196.532 E0.1118
G1 X138.034 Y196.518 E0.1274
G1 X138.032 Y196.816 E0.1333
G1 X136.492 Y197.281 E0.1651
G1 X135.686 Y198.102 E0.1878
G1 X135.635 Y203.116 E0.2868
G1 X137.980 Y202.362 E0.3355
G1 X137.980 Y202.408 E0.3364
G1 X138.135 Y202.363 E0.3396
G1 X138.129 Y202.985 E0.3519
G1 X136.572 Y203.455 E0.3840
G1 X135.777 Y204.279 E0.4066
G1 X135.725 Y209.292 E0.5056
G1 X138.078 Y208.529 E0.5545
G1 X138.078 Y208.589 E0.5557
G1 X140.579 Y207.863 E0.6071
G1 X140.586 Y207.242 E0.6194
G1 X140.927 Y207.596 E0.6291
G1 X143.987 Y207.327 E0.6898
G1 X144.886 Y206.413 E0.7151
G1 X144.851 Y202.984 E0.7828
G1 X143.925 Y201.933 E0.8105
G1 X143.571 Y201.957 E0.8175
G1 X143.571 Y201.932 E0.8180
G1 X142.721 Y202.014 E0.8349
G1 X142.223 Y202.048 E0.8447
G1 X142.224 Y202.063 E0.8450
G1 X141.427 Y202.140 E0.8608
G1 X141.884 Y201.329 E0.8792
G1 X143.905 Y201.147 E0.9193
G1 X144.803 Y200.233 E0.9446
G1 X144.768 Y196.805 E1.0123
G1 X143.842 Y195.753 E1.0400
G1 X143.488 Y195.777 E1.0470
G1 X143.488 Y195.751 E1.0475
G1 X142.257 Y195.872 E1.0719
G1 X142.604 Y195.388 E1.0837
G1 X142.840 Y194.906 E1.0943
G1 X142.996 Y194.396 E1.1048
G1 X143.075 Y193.937 E1.1140
G1 X142.937 Y193.283 E1.1272
G1 X142.739 Y192.771 E1.1381
G1 X142.467 Y192.309 E1.1486
G1 X142.131 Y191.911 E1.1589
G1 X141.899 Y191.702 E1.1651
G1 X141.476 Y191.415 E1.1752
G1 X140.981 Y191.202 E1.1858
G1 X140.489 Y191.099 E1.1958
G1 X140.459 Y191.093 F700
G1 X139.928 Y191.093 F700
G1 X139.631 Y191.138 F700
G1 X139.147 Y191.288 F700
G1 X138.691 Y191.535 F700
G1 X138.440 Y191.721 F700
; outer perimeter
G1 X136.813 Y197.811 F4800
G92 E0
G1 X136.284 Y198.350 E0.0149 F525
G1 X136.243 Y202.290 E0.0927
G1 X137.626 Y201.846 E0.1214
G1 X137.655 Y199.085 E0.1760
G1 X138.614 Y198.681 E0.1965
G1 X138.587 Y201.608 E0.2543
G1 X139.312 Y201.398 E0.2692
G1 X139.539 Y201.857 E0.2793
G1 X139.460 Y202.002 E0.2826
G1 X139.409 Y202.282 E0.2882
G1 X139.463 Y202.576 E0.2941
G1 X139.543 Y202.703 E0.2971
G1 X139.198 Y203.317 E0.3110
G1 X138.726 Y203.308 E0.3203
G1 X138.725 Y203.431 E0.3228
G1 X136.895 Y203.984 E0.3605
G1 X136.374 Y204.524 E0.3753
G1 X136.334 Y208.464 E0.4532
G1 X137.710 Y208.018 E0.4817
G1 X137.738 Y205.258 E0.5362
G1 X138.712 Y204.852 E0.5571
