; G-Code generated by Simplify3D(R) Version 3.1.1
; Mar 15, 2017 at 11:00:39 PM
; Settings Summary
;   processName,Process1
;   applyToModels,qq190_RTF_GPS_2
;   profileName,LulzBot TAZ 6 Dual (modified)
;   profileVersion,2017-02-17 02:12:56
;   baseProfile,
;   printMaterial,PVA
;   printQuality,Medium
;   printExtruders,Both Extruders
;   extruderName,Back Extruder,Front Extruder
;   extruderToolheadNumber,0,1
;   extruderDiameter,0.4,0.5
;   extruderAutoWidth,1,0
;   extruderWidth,0.48,0.8
;   extrusionMultiplier,2.94,1.1
;   extruderUseRetract,1,1
;   extruderRetractionDistance,1.5,4
;   extruderExtraRestartDistance,0,0
;   extruderRetractionZLift,0.2,0.25
;   extruderRetractionSpeed,1800,3200
;   extruderUseCoasting,0,1
;   extruderCoastingDistance,0.2,2.2
;   extruderUseWipe,0,0
;   extruderWipeDistance,5,5
;   primaryExtruder,1
;   layerHeight,0.1
;   topSolidLayers,5
;   bottomSolidLayers,5
;   perimeterOutlines,6
;   printPerimetersInsideOut,1
;   startPointOption,1
;   startPointOriginX,0
;   startPointOriginY,0
;   startPointOriginZ,0
;   sequentialIslands,0
;   spiralVaseMode,0
;   firstLayerHeightPercentage,90
;   firstLayerWidthPercentage,100
;   firstLayerUnderspeed,0.5
;   useRaft,0
;   raftExtruder,0
;   raftLayers,3
;   raftOffset,3
;   raftSeparationDistance,0.14
;   raftInfill,85
;   disableRaftBaseLayers,0
;   useSkirt,1
;   skirtExtruder,1
;   skirtLayers,3
;   skirtOutlines,3
;   skirtOffset,10
;   usePrimePillar,0
;   primePillarExtruder,999
;   primePillarWidth,12
;   primePillarLocation,7
;   primePillarSpeedMultiplier,1
;   useOozeShield,0
;   oozeShieldExtruder,999
;   oozeShieldOffset,2
;   oozeShieldOutlines,1
;   oozeShieldSidewallShape,1
;   oozeShieldSidewallAngle,30
;   oozeShieldSpeedMultiplier,1
;   infillExtruder,1
;   internalInfillPattern,Rectilinear
;   externalInfillPattern,Rectilinear
;   infillPercentage,30
;   outlineOverlapPercentage,15
;   infillExtrusionWidthPercentage,200
;   minInfillLength,5
;   infillLayerInterval,1
;   infillAngles,45,-45
;   overlapInfillAngles,0
;   generateSupport,0
;   supportExtruder,0
;   supportInfillPercentage,30
;   supportExtraInflation,0
;   denseSupportLayers,1
;   denseSupportInfillPercentage,70
;   supportLayerInterval,1
;   supportHorizontalPartOffset,0.3
;   supportUpperSeparationLayers,1
;   supportLowerSeparationLayers,1
;   supportType,0
;   supportGridSpacing,4
;   maxOverhangAngle,45
;   supportAngles,0
;   temperatureName,Back Extruder,Front Extruder,Heated Bed
;   temperatureNumber,0,1,0
;   temperatureSetpointCount,1,1,1
;   temperatureSetpointLayers,1,1,1
;   temperatureSetpointTemperatures,195,230,60
;   temperatureStabilizeAtStartup,1,1,1
;   temperatureHeatedBed,0,0,1
;   temperatureRelayBetweenLayers,0,0,0
;   temperatureRelayBetweenLoops,0,0,0
;   fanLayers,1,2
;   fanSpeeds,0,100
;   blipFanToFullPower,1
;   adjustSpeedForCooling,1
;   minSpeedLayerTime,15
;   minCoolingSpeedSlowdown,20
;   increaseFanForCooling,0
;   minFanLayerTime,45
;   maxCoolingFanSpeed,100
;   increaseFanForBridging,0
;   bridgingFanSpeed,100
;   use5D,1
;   relativeEdistances,0
;   allowEaxisZeroing,1
;   independentExtruderAxes,0
;   includeM10123,0
;   stickySupport,1
;   applyToolheadOffsets,1
;   gcodeXoffset,0
;   gcodeYoffset,0
;   gcodeZoffset,0
;   overrideMachineDefinition,1
;   machineTypeOverride,0
;   strokeXoverride,280
;   strokeYoverride,280
;   strokeZoverride,250
;   originOffsetXoverride,0
;   originOffsetYoverride,0
;   originOffsetZoverride,0
;   homeXdirOverride,-1
;   homeYdirOverride,-1
;   homeZdirOverride,-1
;   flipXoverride,1
;   flipYoverride,-1
;   flipZoverride,1
;   toolheadOffsets,0,0|0,50|0,0|0,0|0,0|0,0
;   overrideFirmwareConfiguration,1
;   firmwareTypeOverride,RepRap (Marlin/Repetier/Sprinter)
;   GPXconfigOverride,r2
;   baudRateOverride,250000
;   overridePrinterModels,1
;   printerModelsOverride,LulzBot_TAZ6.stl
;   startingGcode,G26 ; clear probe fail condition,M140 S[bed0_temperature] ; start heating bed,M104 S170 T0 ; start heating back extruder,M104 S170 T1 ; start heating front extruder,G28 XY ; home X and Y,T0 ; select this extruder first,G1 X-19 Y258 F1000 ; move to safe homing position,M109 S170 T0 ; soften filament for Z homing,M109 S170 T1 ; soften filament for Z homing,G28 Z ; home Z,G92 E0 ; zero extruder,G1 E-12 F100 ; retract 12mm filament,T1 ; switch extruders,G92 E0 ; zero extruder,G1 E-12 F100 ; retract 12mm filament,T0 ; switch extruders,G1 X-17 Y100 F3000 ; move above wiper pad,G1 Z1 ; push nozzle into wiper,G1 X-19 Y95 F1000 ; slow wipe,G1 X-17 Y90 F1000 ; slow wipe,G1 X-19 Y85 F1000 ; slow wipe,G1 X-17 Y90 F1000 ; slow wipe,G1 X-19 Y80 F1000 ; slow wipe,G1 X-17 Y95 F1000 ; slow wipe,G1 X-19 Y75 F2000 ; fast wipe,G1 X-17 Y85 F2000 ; fast wipe,G1 X-19 Y80 F2000 ; fast wipe,G1 X-17 Y70 F2000 ; fast wipe,G1 X-19 Y75 F2000 ; fast wipe,G1 X-17 Y95 F1000 ; slow wipe,G1 X-19 Y90 F1000 ; slow wipe,G1 X-17 Y85 F1000 ; slow wipe,G1 X-19 Y90 F1000 ; slow wipe,G1 X-17 Y80 F1000 ; slow wipe,G1 X-19 Y95 F1000 ; slow wipe,G1 X-17 Y75 F2000 ; fast wipe,G1 X-19 Y85 F2000 ; fast wipe,G1 X-17 Y80 F2000 ; fast wipe,G1 X-19 Y90 F2000 ; fast wipe,G1 X-17 Y85 F2000 ; fast wipe,G1 Z10 ; raise extruder,G1 X-9 Y-9 ; move above first probe point,M204 S100 ; set accel for probing,G29 ; probe sequence (for auto-leveling),M204 S500 ; set accel back to normal,G1 X0 Y0 Z15 F5000 ; get out of the way,M400 ; clear buffer,M117 Heating...,M104 S[extruder0_temperature] T0 ; start heating back extruder,M104 S[extruder1_temperature] T1 ; start heating front extruder,M190 S[bed0_temperature] ; stabilize bed,M109 S[extruder0_temperature] T0 ; stabilize back extruder,M109 S[extruder1_temperature] T1 ; stabilize front extruder,T1 ; switch to front extruder,G1 E0 F100 ; extrude filament back into nozzle,T0 ; switch to back extruder,G92 E-12 ; adjust E value,G1 Z2 E0 F100 ; extrude filament back into nozzle,M117 TAZ Printing...,
;   layerChangeGcode,
;   retractionGcode,
;   toolChangeGcode,
;   endingGcode,M400 ; wait for moves to finish,M104 S0 T0 ; turn off back extruder,M104 S0 T1 ; turn off front extruder,M107 ; turn off fan,G1 Y0 F3000 ; move to cooling position,M117 Cooling please wait,M190 S50 ; cool down bed,G1 Y280 F3000 ; present finished print,M140 S0 ; turn off bed,M84 ; disable motors,M117 QQ Print Finished!
;   exportFileFormat,gcode
;   celebration,0
;   celebrationSong,Random Song
;   postProcessing,
;   defaultSpeed,2100
;   outlineUnderspeed,0.5
;   solidInfillUnderspeed,0.5
;   supportUnderspeed,0.8
;   rapidXYspeed,4800
;   rapidZspeed,1000
;   minBridgingArea,50
;   bridgingExtraInflation,0
;   bridgingExtrusionMultiplier,0.95
;   bridgingSpeedMultiplier,1.1
;   filamentDiameter,3
;   filamentPricePerKg,46
;   filamentDensity,1.25
;   useMinPrintHeight,0
;   minPrintHeight,0
;   useMaxPrintHeight,0
;   maxPrintHeight,0
;   useDiaphragm,0
;   diaphragmLayerInterval,20
;   robustSlicing,1
;   mergeAllIntoSolid,0
;   onlyRetractWhenCrossingOutline,1
;   retractBetweenLayers,1
;   useRetractionMinTravel,0
;   retractionMinTravel,3
;   retractWhileWiping,1
;   onlyWipeOutlines,1
;   avoidCrossingOutline,0
;   maxMovementDetourFactor,3
;   toolChangeRetractionDistance,12
;   toolChangeExtraRestartDistance,-0.5
;   toolChangeRetractionSpeed,600
;   allowThinWallGapFill,0
;   thinWallAllowedOverlapPercentage,20
;   horizontalSizeCompensation,0
G90
M82
M106 S0
G26 ; clear probe fail condition
M140 S60 ; start heating bed
M104 S170 T0 ; start heating back extruder
M104 S170 T1 ; start heating front extruder
G28 XY ; home X and Y
T0 ; select this extruder first
G1 X-19 Y258 F1000 ; move to safe homing position
M109 S170 T0 ; soften filament for Z homing
M109 S170 T1 ; soften filament for Z homing
G28 Z ; home Z
G92 E0 ; zero extruder
G1 E-12 F100 ; retract 12mm filament
T1 ; switch extruders
G92 E0 ; zero extruder
G1 E-12 F100 ; retract 12mm filament
T0 ; switch extruders
G1 X-17 Y100 F3000 ; move above wiper pad
G1 Z1 ; push nozzle into wiper
G1 X-19 Y95 F1000 ; slow wipe
G1 X-17 Y90 F1000 ; slow wipe
G1 X-19 Y85 F1000 ; slow wipe
G1 X-17 Y90 F1000 ; slow wipe
G1 X-19 Y80 F1000 ; slow wipe
G1 X-17 Y95 F1000 ; slow wipe
G1 X-19 Y75 F2000 ; fast wipe
G1 X-17 Y85 F2000 ; fast wipe
G1 X-19 Y80 F2000 ; fast wipe
G1 X-17 Y70 F2000 ; fast wipe
G1 X-19 Y75 F2000 ; fast wipe
G1 X-17 Y95 F1000 ; slow wipe
G1 X-19 Y90 F1000 ; slow wipe
G1 X-17 Y85 F1000 ; slow wipe
G1 X-19 Y90 F1000 ; slow wipe
G1 X-17 Y80 F1000 ; slow wipe
G1 X-19 Y95 F1000 ; slow wipe
G1 X-17 Y75 F2000 ; fast wipe
G1 X-19 Y85 F2000 ; fast wipe
G1 X-17 Y80 F2000 ; fast wipe
G1 X-19 Y90 F2000 ; fast wipe
G1 X-17 Y85 F2000 ; fast wipe
G1 Z10 ; raise extruder
G1 X-9 Y-9 ; move above first probe point
M204 S100 ; set accel for probing
G29 ; probe sequence (for auto-leveling)
M204 S500 ; set accel back to normal
G1 X0 Y0 Z15 F5000 ; get out of the way
M400 ; clear buffer
M117 Heating...
M104 S195 T0 ; start heating back extruder
M104 S230 T1 ; start heating front extruder
M190 S60 ; stabilize bed
M109 S195 T0 ; stabilize back extruder
M109 S230 T1 ; stabilize front extruder
T1 ; switch to front extruder
G1 E0 F100 ; extrude filament back into nozzle
T0 ; switch to back extruder
G92 E-12 ; adjust E value
G1 Z2 E0 F100 ; extrude filament back into nozzle
M117 TAZ Printing...
G92 E0
G1 E-4.0000 F3200
G1 Z0.340 F1000
; layer 1, Z = 0.09
T1
; tool H0.100 W0.800
; skirt
G1 X120.575 Y172.341 F4800
G1 Z0.090 F1000
G1 E0.0000 F960
G92 E0
G1 X121.310 Y172.036 E0.0099 F1050
G1 X158.690 Y172.036 E0.4753
G1 X159.425 Y172.341 E0.4852
G1 X165.845 Y178.761 E0.5982
G1 X166.150 Y179.496 E0.6081
G1 X166.150 Y217.963 E1.0870
G1 X165.846 Y218.698 E1.0969
G1 X159.425 Y225.118 E1.2099
G1 X158.690 Y225.423 E1.2199
G1 X121.310 Y225.423 E1.6852
G1 X120.575 Y225.118 E1.6951
G1 X114.154 Y218.698 E1.8082
G1 X113.850 Y217.963 E1.8181
G1 X113.850 Y179.496 E2.2969
G1 X114.154 Y178.761 E2.3069
G1 X119.019 Y173.896 E2.3925
G1 X120.575 Y172.341 F1050
G1 X121.028 Y173.019 F4800
G92 E0
G1 X121.469 Y172.836 E0.0059 F1050
G1 X158.531 Y172.836 E0.4673
G1 X158.972 Y173.019 E0.4733
G1 X165.167 Y179.214 E0.5824
G1 X165.350 Y179.655 E0.5883
G1 X165.350 Y217.803 E1.0632
G1 X165.167 Y218.244 E1.0692
G1 X158.972 Y224.440 E1.1782
G1 X158.531 Y224.623 E1.1842
G1 X121.469 Y224.623 E1.6456
G1 X121.028 Y224.440 E1.6515
G1 X114.833 Y218.244 E1.7606
G1 X114.650 Y217.803 E1.7666
G1 X114.650 Y179.655 E2.2415
G1 X114.833 Y179.214 E2.2474
G1 X119.472 Y174.575 E2.3291
G1 X121.028 Y173.019 F1050
G1 X121.481 Y173.697 F4800
G92 E0
G1 X121.628 Y173.636 E0.0020 F1050
G1 X158.372 Y173.636 E0.4594
G1 X158.519 Y173.697 E0.4614
G1 X164.489 Y179.667 E0.5665
G1 X164.550 Y179.814 E0.5685
G1 X164.550 Y217.644 E1.0395
G1 X164.489 Y217.791 E1.0414
G1 X158.519 Y223.762 E1.1466
G1 X158.372 Y223.823 E1.1485
G1 X121.628 Y223.823 E1.6060
G1 X121.481 Y223.762 E1.6079
G1 X115.511 Y217.791 E1.7131
G1 X115.450 Y217.644 E1.7150
G1 X115.450 Y179.815 E2.1860
G1 X115.511 Y179.667 E2.1880
G1 X119.926 Y175.253 E2.2657
G1 X121.481 Y173.697 F1050
G92 E0
G1 E-4.0000 F3200
G1 Z0.340 F1000
; inner perimeter
G1 X130.250 Y208.408 F4800
G1 Z0.090 F1000
G1 E0.0000 F3200
G92 E0
G1 X130.250 Y189.011 E0.2415 F962
G1 X131.515 Y189.010 E0.2572
G1 X136.232 Y189.010 E0.3159
G1 X135.400 Y189.827 E0.3305
G1 X134.739 Y190.753 E0.3446
G1 X134.252 Y191.751 E0.3585
G1 X133.954 Y192.729 E0.3712
G1 X133.724 Y194.052 E0.3879
G1 X133.909 Y194.917 E0.3989
G1 X132.201 Y196.655 E0.4292
G1 X132.084 Y208.038 E0.5710
G1 X132.080 Y208.408 F962
G1 X130.250 Y208.408 F962
G1 X147.833 Y208.408 F4800
G92 E0
G1 X148.401 Y207.830 E0.0101 F962
G1 X148.338 Y201.648 E0.0871
G1 X148.317 Y201.624 E0.0874
G1 X148.254 Y195.468 E0.1641
G1 X146.988 Y194.030 E0.1879
G1 X146.988 Y191.891 E0.2146
G1 X146.173 Y191.971 E0.2248
G1 X145.897 Y191.260 E0.2343
G1 X145.326 Y190.295 E0.2482
G1 X144.647 Y189.493 E0.2613
G1 X144.111 Y189.010 E0.2703
G1 X148.126 Y189.010 E0.3203
G1 X149.750 Y189.011 E0.3405
G1 X149.750 Y208.125 E0.5784
G1 X149.750 Y208.408 F962
G1 X147.833 Y208.408 F962
; inner perimeter
G1 X129.450 Y209.208 F4800
G92 E0
G1 X129.450 Y188.212 E0.2614 F875
G1 X131.514 Y188.210 E0.2871
G1 X138.665 Y188.210 E0.3761
G1 X138.727 Y188.617 E0.3812
G1 X138.086 Y188.817 E0.3896
G1 X137.230 Y189.282 E0.4017
G1 X136.677 Y189.694 E0.4103
G1 X136.011 Y190.349 E0.4220
G1 X135.428 Y191.163 E0.4344
G1 X134.999 Y192.044 E0.4466
G1 X134.734 Y192.915 E0.4579
G1 X134.538 Y194.037 E0.4721
G1 X134.781 Y195.170 E0.4866
G1 X132.997 Y196.986 E0.5182
G1 X132.897 Y206.832 E0.6408
G1 X133.051 Y206.783 E0.6429
G1 X133.026 Y209.208 E0.6730
G1 X131.650 Y209.208 E0.6902
G1 X129.450 Y209.208 F875
G1 X145.925 Y209.208 F4800
G92 E0
G1 X147.598 Y207.506 E0.0297 F875
G1 X147.541 Y201.953 E0.0988
G1 X147.237 Y201.608 E0.1046
G1 X147.514 Y201.326 E0.1095
G1 X147.457 Y195.773 E0.1786
G1 X146.188 Y194.332 E0.2025
G1 X146.188 Y192.774 E0.2219
G1 X145.596 Y192.832 E0.2293
G1 X145.531 Y192.527 E0.2332
G1 X145.175 Y191.611 E0.2454
G1 X144.672 Y190.760 E0.2577
G1 X144.071 Y190.051 E0.2693
G1 X143.567 Y189.596 E0.2778
G1 X142.772 Y189.058 E0.2897
G1 X141.687 Y188.593 E0.3044
G1 X141.765 Y188.210 E0.3093
G1 X148.127 Y188.210 E0.3885
G1 X150.550 Y188.212 E0.4187
G1 X150.550 Y209.208 E0.6801
G1 X148.125 Y209.208 E0.7102
G1 X145.925 Y209.208 F875
; inner perimeter
G1 X128.650 Y210.008 F4800
G92 E0
G1 X128.650 Y187.413 E0.2813 F788
G1 X131.513 Y187.410 E0.3169
G1 X148.128 Y187.410 E0.5238
G1 X151.350 Y187.413 E0.5639
G1 X151.350 Y210.008 E0.8452
G1 X141.487 Y210.008 E0.9680
G1 X141.428 Y209.595 E0.9732
G1 X142.100 Y209.400 E0.9819
G1 X144.851 Y209.159 E1.0163
G1 X146.794 Y207.182 E1.0508
G1 X146.744 Y202.259 E1.1121
G1 X146.145 Y201.578 E1.1234
G1 X146.711 Y201.002 E1.1334
G1 X146.660 Y196.079 E1.1947
G1 X145.388 Y194.634 E1.2187
G1 X145.388 Y193.656 E1.2309
G1 X144.963 Y193.697 E1.2362
G1 X144.762 Y192.757 E1.2481
G1 X144.453 Y191.962 E1.2588
G1 X144.018 Y191.226 E1.2694
G1 X143.495 Y190.609 E1.2795
G1 X143.072 Y190.228 E1.2866
G1 X142.387 Y189.763 E1.2969
G1 X141.550 Y189.405 E1.3082
G1 X140.649 Y189.218 E1.3197
G1 X139.786 Y189.218 E1.3304
G1 X139.199 Y189.308 E1.3378
G1 X138.399 Y189.558 E1.3482
G1 X137.661 Y189.958 E1.3587
G1 X137.199 Y190.303 E1.3659
G1 X136.621 Y190.870 E1.3759
G1 X136.118 Y191.574 E1.3867
G1 X135.746 Y192.337 E1.3973
G1 X135.514 Y193.101 E1.4072
G1 X135.353 Y194.021 E1.4189
G1 X135.601 Y195.177 E1.4336
G1 X135.736 Y195.525 E1.4382
G1 X135.478 Y195.603 E1.4416
G1 X133.794 Y197.316 E1.4715
G1 X133.708 Y205.731 E1.5762
G1 X133.862 Y205.681 E1.5783
G1 X133.818 Y210.008 E1.6321
G1 X130.850 Y210.008 E1.6691
G1 X128.650 Y210.008 F788
; inner perimeter
G1 X127.850 Y210.808 F4800
G92 E0
G1 X127.850 Y186.613 E0.3012 F700
G1 X131.512 Y186.610 E0.3468
G1 X148.129 Y186.610 E0.5537
G1 X152.150 Y186.613 E0.6037
G1 X152.150 Y210.808 E0.9049
G1 X135.931 Y210.808 E1.1069
G1 X135.867 Y210.403 E1.1120
G1 X136.667 Y210.143 E1.1224
G1 X141.670 Y208.692 E1.1873
G1 X141.670 Y208.635 E1.1880
G1 X144.488 Y208.388 E1.2232
G1 X145.991 Y206.858 E1.2499
G1 X145.947 Y202.564 E1.3034
G1 X145.052 Y201.548 E1.3202
G1 X145.907 Y200.678 E1.3354
G1 X145.863 Y196.385 E1.3889
G1 X144.588 Y194.936 E1.4129
G1 X144.588 Y194.538 E1.4178
G1 X144.079 Y194.588 E1.4242
G1 X144.194 Y193.928 E1.4325
G1 X143.993 Y192.987 E1.4445
G1 X143.731 Y192.312 E1.4535
G1 X143.364 Y191.691 E1.4625
G1 X142.920 Y191.167 E1.4711
G1 X142.578 Y190.859 E1.4768
G1 X142.002 Y190.468 E1.4855
G1 X141.309 Y190.172 E1.4948
G1 X140.567 Y190.018 E1.5043
G1 X139.848 Y190.018 E1.5132
G1 X139.380 Y190.090 E1.5191
G1 X138.711 Y190.298 E1.5278
G1 X138.093 Y190.634 E1.5366
G1 X137.720 Y190.912 E1.5424
G1 X137.231 Y191.392 E1.5509
G1 X136.808 Y191.985 E1.5600
G1 X136.493 Y192.631 E1.5689
G1 X136.293 Y193.286 E1.5775
G1 X136.168 Y194.006 E1.5866
G1 X136.369 Y194.947 E1.5985
G1 X136.632 Y195.622 E1.6076
G1 X136.866 Y196.019 E1.6133
G1 X135.905 Y196.309 E1.6258
G1 X134.591 Y197.647 E1.6491
G1 X134.519 Y204.630 E1.7361
G1 X134.674 Y204.580 E1.7381
G1 X134.610 Y210.808 E1.8156
